(G-CODE GENERATED BY FLATCAM v8.911 - www.flatcam.org - Version Date: 2019/03/4)

(Name: Thermostat-B_Cu.gbr_iso_cnc)
(Type: G-code from Geometry)
(Units: MM)

(Created on Friday, 28 February 2020 at 11:18)

(TOOL DIAMETER: 0.18 mm)
(Feedrate: 200.0 mm/min)
(Feedrate_Z: 200.0 mm/min)
(Feedrate rapids 76.2 mm/min)

(Z_Cut: -0.15 mm)
(Z_Move: 0.5 mm)
(Z Toolchange: 25.4 mm)
(X,Y Toolchange: 0.0000, 0.0000 mm)
(Z Start: None mm)
(Z End: 50.8 mm)
(Steps per circle: 64)
(Postprocessor Geometry: default)

(X range:    0.8337 ...   83.8023  mm)
(Y range:    1.1370 ...   47.5543  mm)

(Spindle Speed: None RPM)

G21
G90
G94

G01 F200.00
G00 Z0.5000

M03
G00 X0.8339 Y22.0670
G01 F200.00
G01 Z-0.1500
G01 F200.00
G01 X0.8382 Y22.0009
G01 X0.8498 Y21.9358
G01 X0.8653 Y21.8819
G01 X0.8901 Y21.8205
G01 X0.9217 Y21.7623
G01 X0.9270 Y21.7538
G01 X0.9658 Y21.7001
G01 X1.0066 Y21.6546
G01 X6.5946 Y16.0666
G01 X6.6401 Y16.0258
G01 X6.6938 Y15.9870
G01 X6.7023 Y15.9817
G01 X6.7600 Y15.9503
G01 X6.8219 Y15.9253
G01 X6.8836 Y15.9079
G01 X6.9409 Y15.8982
G01 X7.0070 Y15.8939
G01 X20.2200 Y15.8937
G01 X20.2811 Y15.8970
G01 X20.2911 Y15.8982
G01 X20.3464 Y15.9076
G01 X20.4101 Y15.9253
G01 X20.4715 Y15.9501
G01 X20.4806 Y15.9545
G01 X20.5372 Y15.9863
G01 X20.5919 Y16.0258
G01 X20.6374 Y16.0666
G01 X23.6854 Y19.1146
G01 X23.7262 Y19.1601
G01 X23.7325 Y19.1680
G01 X23.7703 Y19.2223
G01 X23.8017 Y19.2800
G01 X23.8233 Y19.3323
G01 X23.8267 Y19.3419
G01 X23.8441 Y19.4036
G01 X23.8550 Y19.4709
G01 X23.8583 Y19.5320
G01 X23.8583 Y20.6240
G01 X24.1180 Y20.6240
G01 X24.1279 Y20.6245
G01 X24.1377 Y20.6262
G01 X24.1473 Y20.6289
G01 X24.1565 Y20.6326
G01 X24.1655 Y20.6376
G01 X24.1739 Y20.6435
G01 X24.1816 Y20.6504
G01 X24.1885 Y20.6581
G01 X24.1944 Y20.6665
G01 X24.1994 Y20.6755
G01 X24.2031 Y20.6847
G01 X24.2058 Y20.6943
G01 X24.2075 Y20.7041
G01 X24.2080 Y20.7140
G01 X24.2080 Y20.9737
G01 X24.3735 Y20.9737
G01 X24.7086 Y20.6386
G01 X24.7541 Y20.5978
G01 X24.8078 Y20.5590
G01 X24.8163 Y20.5537
G01 X24.8740 Y20.5223
G01 X24.9359 Y20.4973
G01 X24.9976 Y20.4799
G01 X25.0549 Y20.4702
G01 X25.0649 Y20.4690
G01 X25.1260 Y20.4657
G01 X43.5880 Y20.4657
G01 X43.6491 Y20.4690
G01 X43.6591 Y20.4702
G01 X43.7144 Y20.4796
G01 X43.7781 Y20.4973
G01 X43.8395 Y20.5221
G01 X43.8486 Y20.5265
G01 X43.9062 Y20.5590
G01 X43.9520 Y20.5915
G01 X44.0017 Y20.6352
G01 X44.0462 Y20.6841
G01 X44.0850 Y20.7378
G01 X44.0903 Y20.7463
G01 X44.1217 Y20.8040
G01 X44.1432 Y20.8561
G01 X44.3643 Y20.6352
G01 X44.4140 Y20.5915
G01 X44.4683 Y20.5537
G01 X44.5260 Y20.5223
G01 X44.5783 Y20.5007
G01 X44.6418 Y20.4818
G01 X44.7069 Y20.4702
G01 X44.7730 Y20.4659
G01 X53.2400 Y20.4657
G01 X53.3011 Y20.4690
G01 X53.3111 Y20.4702
G01 X53.3664 Y20.4796
G01 X53.4301 Y20.4973
G01 X53.4915 Y20.5221
G01 X53.5006 Y20.5265
G01 X53.5572 Y20.5583
G01 X53.6040 Y20.5915
G01 X53.6119 Y20.5978
G01 X53.6574 Y20.6386
G01 X54.6768 Y21.6583
G01 X54.7142 Y21.7001
G01 X54.7530 Y21.7538
G01 X54.7855 Y21.8114
G01 X54.8113 Y21.8723
G01 X54.8147 Y21.8819
G01 X54.8321 Y21.9436
G01 X54.8430 Y22.0109
G01 X54.8463 Y22.0720
G01 X54.8463 Y28.7520
G01 X55.1060 Y28.7520
G01 X55.1159 Y28.7525
G01 X55.1257 Y28.7542
G01 X55.1353 Y28.7569
G01 X55.1445 Y28.7606
G01 X55.1535 Y28.7656
G01 X55.1619 Y28.7715
G01 X55.1696 Y28.7784
G01 X55.1765 Y28.7860
G01 X55.1824 Y28.7945
G01 X55.1874 Y28.8035
G01 X55.1911 Y28.8127
G01 X55.1938 Y28.8223
G01 X55.1955 Y28.8321
G01 X55.1960 Y28.8420
G01 X55.1960 Y30.5420
G01 X55.1955 Y30.5519
G01 X55.1938 Y30.5617
G01 X55.1911 Y30.5713
G01 X55.1874 Y30.5805
G01 X55.1824 Y30.5895
G01 X55.1765 Y30.5980
G01 X55.1696 Y30.6056
G01 X55.1619 Y30.6125
G01 X55.1535 Y30.6184
G01 X55.1445 Y30.6234
G01 X55.1353 Y30.6271
G01 X55.1257 Y30.6298
G01 X55.1159 Y30.6315
G01 X55.1060 Y30.6320
G01 X53.4060 Y30.6320
G01 X53.3961 Y30.6315
G01 X53.3863 Y30.6298
G01 X53.3767 Y30.6271
G01 X53.3675 Y30.6234
G01 X53.3585 Y30.6184
G01 X53.3501 Y30.6125
G01 X53.3424 Y30.6056
G01 X53.3355 Y30.5980
G01 X53.3296 Y30.5895
G01 X53.3246 Y30.5805
G01 X53.3209 Y30.5713
G01 X53.3182 Y30.5617
G01 X53.3165 Y30.5519
G01 X53.3160 Y30.5420
G01 X53.3160 Y28.8420
G01 X53.3165 Y28.8321
G01 X53.3182 Y28.8223
G01 X53.3209 Y28.8127
G01 X53.3246 Y28.8035
G01 X53.3296 Y28.7945
G01 X53.3355 Y28.7860
G01 X53.3424 Y28.7784
G01 X53.3501 Y28.7715
G01 X53.3585 Y28.7656
G01 X53.3675 Y28.7606
G01 X53.3767 Y28.7569
G01 X53.3863 Y28.7542
G01 X53.3961 Y28.7525
G01 X53.4060 Y28.7520
G01 X53.6657 Y28.7520
G01 X53.6657 Y22.3165
G01 X52.9955 Y21.6463
G01 X45.0225 Y21.6463
G01 X44.6863 Y21.9825
G01 X44.6861 Y22.0770
G01 X44.6830 Y22.1331
G01 X44.6810 Y22.1480
G01 X44.9460 Y22.1480
G01 X44.9559 Y22.1485
G01 X44.9657 Y22.1502
G01 X44.9753 Y22.1529
G01 X44.9845 Y22.1566
G01 X44.9935 Y22.1616
G01 X45.0019 Y22.1675
G01 X45.0096 Y22.1744
G01 X45.0165 Y22.1820
G01 X45.0224 Y22.1905
G01 X45.0274 Y22.1995
G01 X45.0311 Y22.2087
G01 X45.0338 Y22.2183
G01 X45.0355 Y22.2281
G01 X45.0360 Y22.2380
G01 X45.0360 Y23.9380
G01 X45.0355 Y23.9479
G01 X45.0338 Y23.9577
G01 X45.0311 Y23.9673
G01 X45.0274 Y23.9765
G01 X45.0224 Y23.9855
G01 X45.0165 Y23.9940
G01 X45.0096 Y24.0016
G01 X45.0019 Y24.0085
G01 X44.9935 Y24.0144
G01 X44.9845 Y24.0194
G01 X44.9753 Y24.0231
G01 X44.9657 Y24.0258
G01 X44.9559 Y24.0275
G01 X44.9460 Y24.0280
G01 X43.2460 Y24.0280
G01 X43.2361 Y24.0275
G01 X43.2263 Y24.0258
G01 X43.2167 Y24.0231
G01 X43.2075 Y24.0194
G01 X43.1985 Y24.0144
G01 X43.1901 Y24.0085
G01 X43.1824 Y24.0016
G01 X43.1755 Y23.9940
G01 X43.1696 Y23.9855
G01 X43.1646 Y23.9765
G01 X43.1609 Y23.9673
G01 X43.1582 Y23.9577
G01 X43.1565 Y23.9479
G01 X43.1560 Y23.9380
G01 X43.1560 Y22.2380
G01 X43.1565 Y22.2281
G01 X43.1582 Y22.2183
G01 X43.1609 Y22.2087
G01 X43.1646 Y22.1995
G01 X43.1696 Y22.1905
G01 X43.1755 Y22.1820
G01 X43.1824 Y22.1744
G01 X43.1901 Y22.1675
G01 X43.1985 Y22.1616
G01 X43.2075 Y22.1566
G01 X43.2167 Y22.1529
G01 X43.2262 Y22.1502
G01 X43.2359 Y22.1486
G01 X43.2458 Y22.1480
G01 X43.5109 Y22.1475
G01 X43.5090 Y22.1331
G01 X43.5057 Y22.0720
G01 X43.5057 Y21.8880
G01 X43.5090 Y21.8269
G01 X43.5108 Y21.8130
G01 X43.5090 Y21.7991
G01 X43.5057 Y21.7380
G01 X43.5090 Y21.6769
G01 X43.5137 Y21.6463
G01 X25.3705 Y21.6463
G01 X25.0317 Y21.9848
G01 X24.9899 Y22.0222
G01 X24.9362 Y22.0610
G01 X24.9277 Y22.0663
G01 X24.8700 Y22.0977
G01 X24.8177 Y22.1193
G01 X24.7542 Y22.1382
G01 X24.6891 Y22.1498
G01 X24.6791 Y22.1510
G01 X24.6180 Y22.1543
G01 X24.2080 Y22.1543
G01 X24.2080 Y22.4140
G01 X24.2075 Y22.4239
G01 X24.2058 Y22.4337
G01 X24.2031 Y22.4433
G01 X24.1994 Y22.4525
G01 X24.1944 Y22.4615
G01 X24.1885 Y22.4699
G01 X24.1816 Y22.4776
G01 X24.1739 Y22.4845
G01 X24.1655 Y22.4904
G01 X24.1565 Y22.4954
G01 X24.1473 Y22.4991
G01 X24.1377 Y22.5018
G01 X24.1279 Y22.5035
G01 X24.1180 Y22.5040
G01 X22.4180 Y22.5040
G01 X22.4081 Y22.5035
G01 X22.3983 Y22.5018
G01 X22.3887 Y22.4991
G01 X22.3795 Y22.4954
G01 X22.3705 Y22.4904
G01 X22.3621 Y22.4845
G01 X22.3544 Y22.4776
G01 X22.3475 Y22.4699
G01 X22.3416 Y22.4615
G01 X22.3366 Y22.4525
G01 X22.3329 Y22.4433
G01 X22.3302 Y22.4337
G01 X22.3285 Y22.4239
G01 X22.3280 Y22.4140
G01 X22.3280 Y20.7140
G01 X22.3285 Y20.7041
G01 X22.3302 Y20.6943
G01 X22.3329 Y20.6847
G01 X22.3366 Y20.6755
G01 X22.3416 Y20.6665
G01 X22.3475 Y20.6581
G01 X22.3544 Y20.6504
G01 X22.3621 Y20.6435
G01 X22.3705 Y20.6376
G01 X22.3795 Y20.6326
G01 X22.3887 Y20.6289
G01 X22.3983 Y20.6262
G01 X22.4081 Y20.6245
G01 X22.4180 Y20.6240
G01 X22.6777 Y20.6240
G01 X22.6777 Y19.7765
G01 X19.9755 Y17.0743
G01 X7.2565 Y17.0743
G01 X2.0143 Y22.3165
G01 X2.0143 Y37.0675
G01 X7.7645 Y42.8177
G01 X19.2800 Y42.8177
G01 X19.2800 Y42.5580
G01 X19.2805 Y42.5481
G01 X19.2822 Y42.5383
G01 X19.2849 Y42.5287
G01 X19.2886 Y42.5195
G01 X19.2936 Y42.5105
G01 X19.2995 Y42.5021
G01 X19.3064 Y42.4944
G01 X19.3141 Y42.4875
G01 X19.3225 Y42.4816
G01 X19.3315 Y42.4766
G01 X19.3407 Y42.4729
G01 X19.3503 Y42.4702
G01 X19.3601 Y42.4685
G01 X19.3700 Y42.4680
G01 X21.0700 Y42.4680
G01 X21.0799 Y42.4685
G01 X21.0897 Y42.4702
G01 X21.0993 Y42.4729
G01 X21.1085 Y42.4766
G01 X21.1175 Y42.4816
G01 X21.1259 Y42.4875
G01 X21.1336 Y42.4944
G01 X21.1405 Y42.5021
G01 X21.1464 Y42.5105
G01 X21.1514 Y42.5195
G01 X21.1551 Y42.5287
G01 X21.1578 Y42.5383
G01 X21.1595 Y42.5481
G01 X21.1600 Y42.5580
G01 X21.1600 Y44.2580
G01 X21.1595 Y44.2679
G01 X21.1578 Y44.2777
G01 X21.1551 Y44.2873
G01 X21.1514 Y44.2965
G01 X21.1464 Y44.3055
G01 X21.1405 Y44.3139
G01 X21.1336 Y44.3216
G01 X21.1259 Y44.3285
G01 X21.1175 Y44.3344
G01 X21.1085 Y44.3394
G01 X21.0993 Y44.3431
G01 X21.0897 Y44.3458
G01 X21.0799 Y44.3475
G01 X21.0700 Y44.3480
G01 X19.3700 Y44.3480
G01 X19.3601 Y44.3475
G01 X19.3503 Y44.3458
G01 X19.3407 Y44.3431
G01 X19.3315 Y44.3394
G01 X19.3225 Y44.3344
G01 X19.3141 Y44.3285
G01 X19.3064 Y44.3216
G01 X19.2995 Y44.3139
G01 X19.2936 Y44.3055
G01 X19.2886 Y44.2965
G01 X19.2849 Y44.2873
G01 X19.2822 Y44.2777
G01 X19.2805 Y44.2679
G01 X19.2800 Y44.2580
G01 X19.2800 Y43.9983
G01 X7.5200 Y43.9983
G01 X7.4589 Y43.9950
G01 X7.4489 Y43.9938
G01 X7.3936 Y43.9844
G01 X7.3299 Y43.9667
G01 X7.2685 Y43.9419
G01 X7.2594 Y43.9375
G01 X7.2028 Y43.9057
G01 X7.1560 Y43.8725
G01 X7.1481 Y43.8662
G01 X7.1026 Y43.8254
G01 X1.0066 Y37.7294
G01 X0.9658 Y37.6839
G01 X0.9595 Y37.6760
G01 X0.9217 Y37.6217
G01 X0.8903 Y37.5640
G01 X0.8653 Y37.5021
G01 X0.8479 Y37.4404
G01 X0.8382 Y37.3831
G01 X0.8370 Y37.3731
G01 X0.8337 Y37.3120
G01 X0.8339 Y22.0670
G00 Z0.5000
G00 X2.8659 Y30.1950
G01 F200.00
G01 Z-0.1500
G01 F200.00
G01 X2.8702 Y30.1289
G01 X2.8796 Y30.0736
G01 X2.8973 Y30.0099
G01 X2.9007 Y30.0003
G01 X2.9221 Y29.9485
G01 X2.9537 Y29.8903
G01 X2.9590 Y29.8818
G01 X2.9978 Y29.8281
G01 X3.0386 Y29.7826
G01 X3.5503 Y29.2712
G01 X3.5921 Y29.2338
G01 X3.6458 Y29.1950
G01 X3.7034 Y29.1625
G01 X3.7643 Y29.1367
G01 X3.7739 Y29.1333
G01 X3.8356 Y29.1159
G01 X3.8929 Y29.1062
G01 X3.9590 Y29.1019
G01 X5.2646 Y29.1017
G01 X5.3279 Y29.0310
G01 X5.3350 Y29.0239
G01 X5.4061 Y28.9603
G01 X5.4140 Y28.9540
G01 X5.4917 Y28.8989
G01 X5.5058 Y28.8904
G01 X5.5058 Y20.5480
G01 X5.5085 Y20.4981
G01 X5.5171 Y20.4439
G01 X5.5318 Y20.3909
G01 X5.5523 Y20.3399
G01 X5.5567 Y20.3308
G01 X5.5830 Y20.2840
G01 X5.6097 Y20.2464
G01 X5.6494 Y20.2014
G01 X7.6814 Y18.1694
G01 X7.7264 Y18.1297
G01 X7.7630 Y18.1037
G01 X7.8108 Y18.0767
G01 X7.8614 Y18.0551
G01 X7.9140 Y18.0394
G01 X7.9239 Y18.0371
G01 X7.9781 Y18.0285
G01 X8.0280 Y18.0258
G01 X19.2040 Y18.0258
G01 X19.2539 Y18.0285
G01 X19.3081 Y18.0371
G01 X19.3611 Y18.0518
G01 X19.4121 Y18.0723
G01 X19.4212 Y18.0767
G01 X19.4690 Y18.1037
G01 X19.5135 Y18.1360
G01 X19.5506 Y18.1694
G01 X21.0746 Y19.6934
G01 X21.1080 Y19.7305
G01 X21.1403 Y19.7750
G01 X21.1456 Y19.7835
G01 X21.1715 Y19.8314
G01 X21.1922 Y19.8829
G01 X21.2065 Y19.9339
G01 X21.2144 Y19.9801
G01 X21.2181 Y20.0350
G01 X21.2182 Y20.7624
G01 X21.2313 Y20.7702
G01 X21.3100 Y20.8260
G01 X21.3179 Y20.8323
G01 X21.3890 Y20.8959
G01 X21.3961 Y20.9030
G01 X21.4597 Y20.9741
G01 X21.4660 Y20.9820
G01 X21.5211 Y21.0597
G01 X21.5265 Y21.0682
G01 X21.5768 Y21.1603
G01 X21.6134 Y21.2488
G01 X21.6168 Y21.2583
G01 X21.6432 Y21.3499
G01 X21.6454 Y21.3598
G01 X21.6614 Y21.4538
G01 X21.6625 Y21.4638
G01 X21.6680 Y21.5640
G01 X21.6625 Y21.6642
G01 X21.6614 Y21.6742
G01 X21.6454 Y21.7682
G01 X21.6432 Y21.7781
G01 X21.6168 Y21.8697
G01 X21.6134 Y21.8792
G01 X21.5770 Y21.9672
G01 X21.5726 Y21.9763
G01 X21.5265 Y22.0598
G01 X21.5211 Y22.0683
G01 X21.4660 Y22.1460
G01 X21.4597 Y22.1539
G01 X21.3961 Y22.2250
G01 X21.3890 Y22.2321
G01 X21.3179 Y22.2957
G01 X21.3100 Y22.3020
G01 X21.2323 Y22.3571
G01 X21.2182 Y22.3656
G01 X21.2182 Y23.3930
G01 X21.9470 Y24.1218
G01 X28.1450 Y24.1218
G01 X30.0334 Y22.2334
G01 X30.0705 Y22.2000
G01 X30.1150 Y22.1677
G01 X30.1628 Y22.1407
G01 X30.2134 Y22.1191
G01 X30.2660 Y22.1034
G01 X30.2759 Y22.1011
G01 X30.3301 Y22.0925
G01 X30.3800 Y22.0898
G01 X33.4280 Y22.0898
G01 X33.4779 Y22.0925
G01 X33.5321 Y22.1011
G01 X33.5851 Y22.1158
G01 X33.5946 Y22.1191
G01 X33.6452 Y22.1407
G01 X33.6920 Y22.1670
G01 X33.7296 Y22.1937
G01 X33.7710 Y22.2299
G01 X36.1710 Y24.6298
G01 X45.9250 Y24.6298
G01 X46.1458 Y24.4090
G01 X46.1458 Y23.8896
G01 X46.1317 Y23.8811
G01 X46.0540 Y23.8260
G01 X46.0461 Y23.8197
G01 X45.9750 Y23.7561
G01 X45.9679 Y23.7490
G01 X45.9043 Y23.6779
G01 X45.8980 Y23.6700
G01 X45.8429 Y23.5923
G01 X45.8375 Y23.5838
G01 X45.7914 Y23.5003
G01 X45.7872 Y23.4917
G01 X45.7506 Y23.4032
G01 X45.7472 Y23.3937
G01 X45.7189 Y23.2942
G01 X45.7026 Y23.1982
G01 X45.7015 Y23.1882
G01 X45.6961 Y23.0930
G01 X45.6961 Y23.0830
G01 X45.7015 Y22.9878
G01 X45.7026 Y22.9778
G01 X45.7186 Y22.8838
G01 X45.7208 Y22.8739
G01 X45.7472 Y22.7823
G01 X45.7506 Y22.7728
G01 X45.7870 Y22.6848
G01 X45.7914 Y22.6757
G01 X45.8422 Y22.5847
G01 X45.8980 Y22.5060
G01 X45.9043 Y22.4981
G01 X45.9679 Y22.4270
G01 X45.9750 Y22.4199
G01 X46.0461 Y22.3563
G01 X46.0540 Y22.3500
G01 X46.1317 Y22.2949
G01 X46.1402 Y22.2895
G01 X46.2237 Y22.2434
G01 X46.2323 Y22.2392
G01 X46.3208 Y22.2026
G01 X46.3303 Y22.1992
G01 X46.4219 Y22.1728
G01 X46.4318 Y22.1706
G01 X46.5258 Y22.1546
G01 X46.5358 Y22.1535
G01 X46.6360 Y22.1480
G01 X46.7362 Y22.1535
G01 X46.7462 Y22.1546
G01 X46.8402 Y22.1706
G01 X46.8501 Y22.1728
G01 X46.9417 Y22.1992
G01 X46.9512 Y22.2026
G01 X47.0392 Y22.2390
G01 X47.0483 Y22.2434
G01 X47.1318 Y22.2895
G01 X47.1403 Y22.2949
G01 X47.2180 Y22.3500
G01 X47.2259 Y22.3563
G01 X47.2970 Y22.4199
G01 X47.3041 Y22.4270
G01 X47.3677 Y22.4981
G01 X47.3740 Y22.5060
G01 X47.4291 Y22.5837
G01 X47.4345 Y22.5922
G01 X47.4806 Y22.6757
G01 X47.4848 Y22.6843
G01 X47.5214 Y22.7728
G01 X47.5248 Y22.7823
G01 X47.5531 Y22.8818
G01 X47.5694 Y22.9778
G01 X47.5705 Y22.9878
G01 X47.5759 Y23.0830
G01 X47.5759 Y23.0930
G01 X47.5705 Y23.1882
G01 X47.5694 Y23.1982
G01 X47.5534 Y23.2922
G01 X47.5512 Y23.3021
G01 X47.5248 Y23.3937
G01 X47.5214 Y23.4032
G01 X47.4850 Y23.4912
G01 X47.4806 Y23.5003
G01 X47.4298 Y23.5913
G01 X47.3740 Y23.6700
G01 X47.3677 Y23.6779
G01 X47.3041 Y23.7490
G01 X47.2970 Y23.7561
G01 X47.2259 Y23.8197
G01 X47.2180 Y23.8260
G01 X47.1403 Y23.8811
G01 X47.1262 Y23.8896
G01 X47.1262 Y24.6120
G01 X47.1235 Y24.6619
G01 X47.1149 Y24.7161
G01 X47.1002 Y24.7691
G01 X47.0797 Y24.8201
G01 X47.0536 Y24.8685
G01 X47.0223 Y24.9136
G01 X46.9826 Y24.9586
G01 X46.4746 Y25.4666
G01 X46.4375 Y25.5000
G01 X46.3930 Y25.5323
G01 X46.3845 Y25.5376
G01 X46.3366 Y25.5635
G01 X46.2851 Y25.5842
G01 X46.2341 Y25.5985
G01 X46.1879 Y25.6064
G01 X46.1280 Y25.6102
G01 X35.9680 Y25.6102
G01 X35.9181 Y25.6075
G01 X35.8639 Y25.5989
G01 X35.8109 Y25.5842
G01 X35.7599 Y25.5637
G01 X35.7508 Y25.5593
G01 X35.7040 Y25.5330
G01 X35.6664 Y25.5063
G01 X35.6214 Y25.4666
G01 X33.2250 Y23.0702
G01 X30.5830 Y23.0702
G01 X28.6946 Y24.9586
G01 X28.6496 Y24.9983
G01 X28.6130 Y25.0243
G01 X28.5652 Y25.0513
G01 X28.5146 Y25.0729
G01 X28.4620 Y25.0886
G01 X28.4521 Y25.0909
G01 X28.3979 Y25.0995
G01 X28.3480 Y25.1022
G01 X21.7440 Y25.1022
G01 X21.6941 Y25.0995
G01 X21.6841 Y25.0984
G01 X21.6300 Y25.0886
G01 X21.5869 Y25.0762
G01 X21.5359 Y25.0557
G01 X21.5268 Y25.0513
G01 X21.4800 Y25.0250
G01 X21.4424 Y24.9983
G01 X21.4010 Y24.9621
G01 X20.3814 Y23.9426
G01 X20.3480 Y23.9055
G01 X20.3157 Y23.8610
G01 X20.3104 Y23.8525
G01 X20.2845 Y23.8046
G01 X20.2638 Y23.7531
G01 X20.2495 Y23.7021
G01 X20.2416 Y23.6559
G01 X20.2379 Y23.6010
G01 X20.2378 Y22.3656
G01 X20.2247 Y22.3578
G01 X20.1460 Y22.3020
G01 X20.1381 Y22.2957
G01 X20.0670 Y22.2321
G01 X20.0599 Y22.2250
G01 X19.9963 Y22.1539
G01 X19.9900 Y22.1460
G01 X19.9349 Y22.0683
G01 X19.9295 Y22.0598
G01 X19.8792 Y21.9677
G01 X19.8426 Y21.8792
G01 X19.8392 Y21.8697
G01 X19.8128 Y21.7781
G01 X19.8106 Y21.7682
G01 X19.7946 Y21.6742
G01 X19.7935 Y21.6642
G01 X19.7880 Y21.5640
G01 X19.7935 Y21.4638
G01 X19.7946 Y21.4538
G01 X19.8106 Y21.3598
G01 X19.8128 Y21.3499
G01 X19.8392 Y21.2583
G01 X19.8426 Y21.2488
G01 X19.8790 Y21.1608
G01 X19.8834 Y21.1517
G01 X19.9295 Y21.0682
G01 X19.9349 Y21.0597
G01 X19.9900 Y20.9820
G01 X19.9963 Y20.9741
G01 X20.0599 Y20.9030
G01 X20.0670 Y20.8959
G01 X20.1381 Y20.8323
G01 X20.1460 Y20.8260
G01 X20.2237 Y20.7709
G01 X20.2378 Y20.7624
G01 X20.2378 Y20.2430
G01 X19.0010 Y19.0062
G01 X8.2310 Y19.0062
G01 X6.4862 Y20.7510
G01 X6.4862 Y28.8904
G01 X6.5003 Y28.8989
G01 X6.5780 Y28.9540
G01 X6.5859 Y28.9603
G01 X6.6570 Y29.0239
G01 X6.6641 Y29.0310
G01 X6.7277 Y29.1021
G01 X6.7340 Y29.1100
G01 X6.7891 Y29.1877
G01 X6.7945 Y29.1962
G01 X6.8448 Y29.2883
G01 X6.8814 Y29.3768
G01 X6.8848 Y29.3863
G01 X6.9112 Y29.4779
G01 X6.9134 Y29.4878
G01 X6.9294 Y29.5818
G01 X6.9305 Y29.5918
G01 X6.9360 Y29.6920
G01 X6.9305 Y29.7922
G01 X6.9294 Y29.8022
G01 X6.9134 Y29.8962
G01 X6.9112 Y29.9061
G01 X6.8848 Y29.9977
G01 X6.8814 Y30.0072
G01 X6.8450 Y30.0952
G01 X6.8406 Y30.1043
G01 X6.7898 Y30.1953
G01 X6.7340 Y30.2740
G01 X6.7277 Y30.2819
G01 X6.6641 Y30.3530
G01 X6.6570 Y30.3601
G01 X6.5859 Y30.4237
G01 X6.5780 Y30.4300
G01 X6.5003 Y30.4851
G01 X6.4918 Y30.4905
G01 X6.3997 Y30.5408
G01 X6.3112 Y30.5774
G01 X6.3017 Y30.5808
G01 X6.2022 Y30.6091
G01 X6.1062 Y30.6254
G01 X6.0962 Y30.6265
G01 X5.9960 Y30.6320
G01 X5.8958 Y30.6265
G01 X5.8858 Y30.6254
G01 X5.7918 Y30.6094
G01 X5.7819 Y30.6072
G01 X5.6903 Y30.5808
G01 X5.6808 Y30.5774
G01 X5.5928 Y30.5410
G01 X5.5837 Y30.5366
G01 X5.5002 Y30.4905
G01 X5.4917 Y30.4851
G01 X5.4140 Y30.4300
G01 X5.4061 Y30.4237
G01 X5.3350 Y30.3601
G01 X5.3279 Y30.3530
G01 X5.2646 Y30.2823
G01 X4.2085 Y30.2823
G01 X4.0463 Y30.4445
G01 X4.0463 Y33.5115
G01 X5.7325 Y35.1977
G01 X19.7120 Y35.1977
G01 X19.7731 Y35.2010
G01 X19.8384 Y35.2116
G01 X19.9021 Y35.2293
G01 X19.9117 Y35.2327
G01 X19.9635 Y35.2541
G01 X20.0217 Y35.2857
G01 X20.0302 Y35.2910
G01 X20.0839 Y35.3298
G01 X20.1294 Y35.3706
G01 X23.1774 Y38.4186
G01 X23.2182 Y38.4641
G01 X23.2570 Y38.5178
G01 X23.2895 Y38.5754
G01 X23.3153 Y38.6363
G01 X23.3342 Y38.6998
G01 X23.3364 Y38.7096
G01 X23.3470 Y38.7749
G01 X23.3503 Y38.8360
G01 X23.3503 Y42.6766
G01 X23.4210 Y42.7399
G01 X23.4281 Y42.7470
G01 X23.4917 Y42.8181
G01 X23.4980 Y42.8260
G01 X23.5531 Y42.9037
G01 X23.5585 Y42.9122
G01 X23.6088 Y43.0043
G01 X23.6454 Y43.0928
G01 X23.6488 Y43.1023
G01 X23.6771 Y43.2018
G01 X23.6934 Y43.2978
G01 X23.6945 Y43.3078
G01 X23.7000 Y43.4080
G01 X23.6945 Y43.5082
G01 X23.6934 Y43.5182
G01 X23.6774 Y43.6122
G01 X23.6752 Y43.6221
G01 X23.6488 Y43.7137
G01 X23.6454 Y43.7232
G01 X23.6090 Y43.8112
G01 X23.6046 Y43.8203
G01 X23.5538 Y43.9113
G01 X23.4980 Y43.9900
G01 X23.4917 Y43.9979
G01 X23.4281 Y44.0690
G01 X23.4210 Y44.0761
G01 X23.3503 Y44.1394
G01 X23.3503 Y45.7035
G01 X24.0205 Y46.3737
G01 X46.8995 Y46.3737
G01 X57.3946 Y35.8786
G01 X57.4401 Y35.8378
G01 X57.4480 Y35.8315
G01 X57.5023 Y35.7937
G01 X57.5600 Y35.7623
G01 X57.6123 Y35.7407
G01 X57.6758 Y35.7218
G01 X57.7409 Y35.7102
G01 X57.7509 Y35.7090
G01 X57.8120 Y35.7057
G01 X72.8075 Y35.7057
G01 X82.6217 Y25.8915
G01 X82.6217 Y7.5845
G01 X77.3795 Y2.3423
G01 X58.2067 Y2.3423
G01 X58.1709 Y2.3522
G01 X58.1109 Y2.3624
G01 X58.1008 Y2.3636
G01 X58.0370 Y2.3670
G01 X57.5820 Y2.3669
G01 X57.5131 Y2.3624
G01 X57.4551 Y2.3526
G01 X57.4173 Y2.3423
G01 X39.2605 Y2.3423
G01 X39.0983 Y2.5045
G01 X39.0983 Y3.2120
G01 X40.4880 Y3.2120
G01 X40.4979 Y3.2125
G01 X40.5077 Y3.2142
G01 X40.5173 Y3.2169
G01 X40.5265 Y3.2206
G01 X40.5355 Y3.2256
G01 X40.5439 Y3.2315
G01 X40.5516 Y3.2384
G01 X40.5585 Y3.2461
G01 X40.5644 Y3.2545
G01 X40.5694 Y3.2635
G01 X40.5731 Y3.2727
G01 X40.5758 Y3.2823
G01 X40.5775 Y3.2921
G01 X40.5780 Y3.3020
G01 X40.5780 Y5.2820
G01 X40.5775 Y5.2919
G01 X40.5758 Y5.3017
G01 X40.5731 Y5.3113
G01 X40.5694 Y5.3205
G01 X40.5644 Y5.3295
G01 X40.5585 Y5.3380
G01 X40.5516 Y5.3456
G01 X40.5439 Y5.3525
G01 X40.5355 Y5.3584
G01 X40.5265 Y5.3634
G01 X40.5173 Y5.3671
G01 X40.5077 Y5.3698
G01 X40.4979 Y5.3715
G01 X40.4880 Y5.3720
G01 X36.5280 Y5.3720
G01 X36.5181 Y5.3715
G01 X36.5083 Y5.3698
G01 X36.4987 Y5.3671
G01 X36.4895 Y5.3634
G01 X36.4805 Y5.3584
G01 X36.4721 Y5.3525
G01 X36.4644 Y5.3456
G01 X36.4575 Y5.3379
G01 X36.4516 Y5.3295
G01 X36.4466 Y5.3205
G01 X36.4429 Y5.3113
G01 X36.4402 Y5.3017
G01 X36.4385 Y5.2919
G01 X36.4380 Y5.2820
G01 X36.4380 Y3.3020
G01 X36.4385 Y3.2921
G01 X36.4402 Y3.2823
G01 X36.4429 Y3.2727
G01 X36.4466 Y3.2635
G01 X36.4516 Y3.2545
G01 X36.4575 Y3.2461
G01 X36.4644 Y3.2384
G01 X36.4721 Y3.2315
G01 X36.4805 Y3.2256
G01 X36.4895 Y3.2206
G01 X36.4987 Y3.2169
G01 X36.5083 Y3.2142
G01 X36.5181 Y3.2125
G01 X36.5280 Y3.2120
G01 X37.9177 Y3.2120
G01 X37.9179 Y2.2550
G01 X37.9222 Y2.1889
G01 X37.9338 Y2.1238
G01 X37.9527 Y2.0603
G01 X37.9785 Y1.9994
G01 X38.0110 Y1.9418
G01 X38.0435 Y1.8960
G01 X38.0872 Y1.8463
G01 X38.5986 Y1.3346
G01 X38.6441 Y1.2938
G01 X38.6978 Y1.2550
G01 X38.7063 Y1.2497
G01 X38.7640 Y1.2183
G01 X38.8163 Y1.1967
G01 X38.8798 Y1.1778
G01 X38.8896 Y1.1756
G01 X38.9449 Y1.1662
G01 X39.0110 Y1.1619
G01 X57.4173 Y1.1617
G01 X57.4531 Y1.1518
G01 X57.5131 Y1.1416
G01 X57.5820 Y1.1371
G01 X58.0370 Y1.1370
G01 X58.1008 Y1.1404
G01 X58.1109 Y1.1416
G01 X58.1689 Y1.1514
G01 X58.2067 Y1.1617
G01 X77.6240 Y1.1617
G01 X77.6851 Y1.1650
G01 X77.7504 Y1.1756
G01 X77.7602 Y1.1778
G01 X77.8141 Y1.1933
G01 X77.8755 Y1.2181
G01 X77.9337 Y1.2497
G01 X77.9422 Y1.2550
G01 X77.9959 Y1.2938
G01 X78.0414 Y1.3346
G01 X83.6294 Y6.9226
G01 X83.6702 Y6.9681
G01 X83.6765 Y6.9760
G01 X83.7143 Y7.0303
G01 X83.7457 Y7.0880
G01 X83.7673 Y7.1403
G01 X83.7862 Y7.2038
G01 X83.7978 Y7.2689
G01 X83.7990 Y7.2789
G01 X83.8023 Y7.3400
G01 X83.8023 Y26.1360
G01 X83.7990 Y26.1971
G01 X83.7884 Y26.2624
G01 X83.7707 Y26.3261
G01 X83.7673 Y26.3357
G01 X83.7415 Y26.3966
G01 X83.7097 Y26.4532
G01 X83.6765 Y26.5000
G01 X83.6328 Y26.5497
G01 X73.4694 Y36.7134
G01 X73.4239 Y36.7542
G01 X73.3702 Y36.7930
G01 X73.3126 Y36.8255
G01 X73.2517 Y36.8513
G01 X73.1882 Y36.8702
G01 X73.1784 Y36.8724
G01 X73.1131 Y36.8830
G01 X73.0520 Y36.8863
G01 X58.0565 Y36.8863
G01 X47.5614 Y47.3814
G01 X47.5159 Y47.4222
G01 X47.5080 Y47.4285
G01 X47.4537 Y47.4663
G01 X47.3960 Y47.4977
G01 X47.3437 Y47.5193
G01 X47.2802 Y47.5382
G01 X47.2151 Y47.5498
G01 X47.2051 Y47.5510
G01 X47.1440 Y47.5543
G01 X23.7760 Y47.5543
G01 X23.7149 Y47.5510
G01 X23.6496 Y47.5404
G01 X23.5859 Y47.5227
G01 X23.5763 Y47.5193
G01 X23.5154 Y47.4935
G01 X23.4588 Y47.4617
G01 X23.4120 Y47.4285
G01 X23.3623 Y47.3848
G01 X22.3392 Y46.3617
G01 X22.3018 Y46.3199
G01 X22.2630 Y46.2662
G01 X22.2577 Y46.2577
G01 X22.2263 Y46.2000
G01 X22.2013 Y46.1381
G01 X22.1839 Y46.0764
G01 X22.1742 Y46.0191
G01 X22.1730 Y46.0091
G01 X22.1697 Y45.9480
G01 X22.1697 Y44.1394
G01 X22.0990 Y44.0761
G01 X22.0919 Y44.0690
G01 X22.0283 Y43.9979
G01 X22.0220 Y43.9900
G01 X21.9669 Y43.9123
G01 X21.9615 Y43.9038
G01 X21.9112 Y43.8117
G01 X21.8746 Y43.7232
G01 X21.8712 Y43.7137
G01 X21.8429 Y43.6142
G01 X21.8266 Y43.5182
G01 X21.8255 Y43.5082
G01 X21.8200 Y43.4080
G01 X21.8255 Y43.3078
G01 X21.8266 Y43.2978
G01 X21.8426 Y43.2038
G01 X21.8448 Y43.1939
G01 X21.8712 Y43.1023
G01 X21.8746 Y43.0928
G01 X21.9110 Y43.0048
G01 X21.9154 Y42.9957
G01 X21.9662 Y42.9047
G01 X22.0220 Y42.8260
G01 X22.0283 Y42.8181
G01 X22.0919 Y42.7470
G01 X22.0990 Y42.7399
G01 X22.1697 Y42.6766
G01 X22.1697 Y39.0805
G01 X19.4675 Y36.3783
G01 X5.4880 Y36.3783
G01 X5.4269 Y36.3750
G01 X5.3616 Y36.3644
G01 X5.2979 Y36.3467
G01 X5.2883 Y36.3433
G01 X5.2274 Y36.3175
G01 X5.1708 Y36.2857
G01 X5.1161 Y36.2462
G01 X5.0706 Y36.2054
G01 X3.0386 Y34.1734
G01 X2.9978 Y34.1279
G01 X2.9590 Y34.0742
G01 X2.9265 Y34.0166
G01 X2.9007 Y33.9557
G01 X2.8818 Y33.8922
G01 X2.8796 Y33.8824
G01 X2.8690 Y33.8171
G01 X2.8657 Y33.7560
G01 X2.8659 Y30.1950
G00 Z0.5000
G00 X5.0617 Y32.3322
G01 F200.00
G01 Z-0.1500
G01 F200.00
G01 X5.0560 Y32.2320
G01 X5.0615 Y32.1318
G01 X5.0626 Y32.1218
G01 X5.0786 Y32.0278
G01 X5.0808 Y32.0179
G01 X5.1072 Y31.9263
G01 X5.1106 Y31.9168
G01 X5.1470 Y31.8288
G01 X5.1514 Y31.8197
G01 X5.2022 Y31.7287
G01 X5.2580 Y31.6500
G01 X5.2643 Y31.6421
G01 X5.3279 Y31.5710
G01 X5.3350 Y31.5639
G01 X5.4061 Y31.5003
G01 X5.4140 Y31.4940
G01 X5.4917 Y31.4389
G01 X5.5002 Y31.4335
G01 X5.5837 Y31.3874
G01 X5.5923 Y31.3832
G01 X5.6808 Y31.3466
G01 X5.6903 Y31.3432
G01 X5.7898 Y31.3149
G01 X5.8858 Y31.2986
G01 X5.8958 Y31.2975
G01 X5.9960 Y31.2920
G01 X6.0962 Y31.2975
G01 X6.1062 Y31.2986
G01 X6.2002 Y31.3146
G01 X6.2101 Y31.3168
G01 X6.3017 Y31.3432
G01 X6.3112 Y31.3466
G01 X6.3992 Y31.3830
G01 X6.4083 Y31.3874
G01 X6.4993 Y31.4382
G01 X6.5780 Y31.4940
G01 X6.5859 Y31.5003
G01 X6.6570 Y31.5639
G01 X6.6641 Y31.5710
G01 X6.7277 Y31.6421
G01 X6.7340 Y31.6500
G01 X6.7891 Y31.7277
G01 X6.7945 Y31.7362
G01 X6.8406 Y31.8197
G01 X6.8448 Y31.8283
G01 X6.8814 Y31.9168
G01 X6.8848 Y31.9263
G01 X6.9131 Y32.0258
G01 X6.9294 Y32.1218
G01 X6.9305 Y32.1318
G01 X6.9360 Y32.2320
G01 X6.9305 Y32.3322
G01 X6.9294 Y32.3422
G01 X6.9134 Y32.4362
G01 X6.9112 Y32.4461
G01 X6.8848 Y32.5377
G01 X6.8814 Y32.5472
G01 X6.8450 Y32.6352
G01 X6.8406 Y32.6443
G01 X6.7898 Y32.7353
G01 X6.7340 Y32.8140
G01 X6.7277 Y32.8219
G01 X6.6641 Y32.8930
G01 X6.6570 Y32.9001
G01 X6.5859 Y32.9637
G01 X6.5780 Y32.9700
G01 X6.5003 Y33.0251
G01 X6.4918 Y33.0305
G01 X6.4083 Y33.0766
G01 X6.3997 Y33.0808
G01 X6.3112 Y33.1174
G01 X6.3017 Y33.1208
G01 X6.2022 Y33.1491
G01 X6.1062 Y33.1654
G01 X6.0962 Y33.1665
G01 X5.9960 Y33.1720
G01 X5.8958 Y33.1665
G01 X5.8858 Y33.1654
G01 X5.7918 Y33.1494
G01 X5.7819 Y33.1472
G01 X5.6903 Y33.1208
G01 X5.6808 Y33.1174
G01 X5.5928 Y33.0810
G01 X5.5837 Y33.0766
G01 X5.4927 Y33.0258
G01 X5.4140 Y32.9700
G01 X5.4061 Y32.9637
G01 X5.3350 Y32.9001
G01 X5.3279 Y32.8930
G01 X5.2643 Y32.8219
G01 X5.2580 Y32.8140
G01 X5.2029 Y32.7363
G01 X5.1975 Y32.7278
G01 X5.1514 Y32.6443
G01 X5.1472 Y32.6357
G01 X5.1106 Y32.5472
G01 X5.1072 Y32.5377
G01 X5.0808 Y32.4461
G01 X5.0786 Y32.4362
G01 X5.0626 Y32.3422
G01 X5.0617 Y32.3322
G00 Z0.5000
G00 X7.6017 Y32.3322
G01 F200.00
G01 Z-0.1500
G01 F200.00
G01 X7.5960 Y32.2320
G01 X7.6015 Y32.1318
G01 X7.6026 Y32.1218
G01 X7.6186 Y32.0278
G01 X7.6208 Y32.0179
G01 X7.6472 Y31.9263
G01 X7.6506 Y31.9168
G01 X7.6870 Y31.8288
G01 X7.6914 Y31.8197
G01 X7.7422 Y31.7287
G01 X7.7980 Y31.6500
G01 X7.8043 Y31.6421
G01 X7.8679 Y31.5710
G01 X7.8750 Y31.5639
G01 X7.9461 Y31.5003
G01 X7.9540 Y31.4940
G01 X8.0317 Y31.4389
G01 X8.0402 Y31.4335
G01 X8.1237 Y31.3874
G01 X8.1323 Y31.3832
G01 X8.2208 Y31.3466
G01 X8.2303 Y31.3432
G01 X8.3298 Y31.3149
G01 X8.4258 Y31.2986
G01 X8.4358 Y31.2975
G01 X8.5360 Y31.2920
G01 X8.6362 Y31.2975
G01 X8.6462 Y31.2986
G01 X8.7402 Y31.3146
G01 X8.7501 Y31.3168
G01 X8.8417 Y31.3432
G01 X8.8512 Y31.3466
G01 X8.9392 Y31.3830
G01 X8.9483 Y31.3874
G01 X9.0393 Y31.4382
G01 X9.1180 Y31.4940
G01 X9.1259 Y31.5003
G01 X9.1970 Y31.5639
G01 X9.2041 Y31.5710
G01 X9.2677 Y31.6421
G01 X9.2740 Y31.6500
G01 X9.3291 Y31.7277
G01 X9.3345 Y31.7362
G01 X9.3806 Y31.8197
G01 X9.3848 Y31.8283
G01 X9.4214 Y31.9168
G01 X9.4248 Y31.9263
G01 X9.4531 Y32.0258
G01 X9.4694 Y32.1218
G01 X9.4705 Y32.1318
G01 X9.4760 Y32.2320
G01 X9.4705 Y32.3322
G01 X9.4694 Y32.3422
G01 X9.4534 Y32.4362
G01 X9.4512 Y32.4461
G01 X9.4248 Y32.5377
G01 X9.4214 Y32.5472
G01 X9.3850 Y32.6352
G01 X9.3806 Y32.6443
G01 X9.3298 Y32.7353
G01 X9.2740 Y32.8140
G01 X9.2677 Y32.8219
G01 X9.2041 Y32.8930
G01 X9.1970 Y32.9001
G01 X9.1259 Y32.9637
G01 X9.1180 Y32.9700
G01 X9.0403 Y33.0251
G01 X9.0318 Y33.0305
G01 X8.9483 Y33.0766
G01 X8.9397 Y33.0808
G01 X8.8512 Y33.1174
G01 X8.8417 Y33.1208
G01 X8.7422 Y33.1491
G01 X8.6462 Y33.1654
G01 X8.6362 Y33.1665
G01 X8.5360 Y33.1720
G01 X8.4358 Y33.1665
G01 X8.4258 Y33.1654
G01 X8.3318 Y33.1494
G01 X8.3219 Y33.1472
G01 X8.2303 Y33.1208
G01 X8.2208 Y33.1174
G01 X8.1328 Y33.0810
G01 X8.1237 Y33.0766
G01 X8.0327 Y33.0258
G01 X7.9540 Y32.9700
G01 X7.9461 Y32.9637
G01 X7.8750 Y32.9001
G01 X7.8679 Y32.8930
G01 X7.8043 Y32.8219
G01 X7.7980 Y32.8140
G01 X7.7429 Y32.7363
G01 X7.7375 Y32.7278
G01 X7.6914 Y32.6443
G01 X7.6872 Y32.6357
G01 X7.6506 Y32.5472
G01 X7.6472 Y32.5377
G01 X7.6208 Y32.4461
G01 X7.6186 Y32.4362
G01 X7.6026 Y32.3422
G01 X7.6017 Y32.3322
G00 Z0.5000
G00 X7.6017 Y29.7922
G01 F200.00
G01 Z-0.1500
G01 F200.00
G01 X7.5960 Y29.6920
G01 X7.6015 Y29.5918
G01 X7.6026 Y29.5818
G01 X7.6186 Y29.4878
G01 X7.6208 Y29.4779
G01 X7.6472 Y29.3863
G01 X7.6506 Y29.3768
G01 X7.6870 Y29.2888
G01 X7.6914 Y29.2797
G01 X7.7422 Y29.1887
G01 X7.7980 Y29.1100
G01 X7.8043 Y29.1021
G01 X7.8679 Y29.0310
G01 X7.8750 Y29.0239
G01 X7.9461 Y28.9603
G01 X7.9540 Y28.9540
G01 X8.0317 Y28.8989
G01 X8.0402 Y28.8935
G01 X8.1237 Y28.8474
G01 X8.1323 Y28.8432
G01 X8.2208 Y28.8066
G01 X8.2303 Y28.8032
G01 X8.3298 Y28.7749
G01 X8.4258 Y28.7586
G01 X8.4358 Y28.7575
G01 X8.5360 Y28.7520
G01 X8.6362 Y28.7575
G01 X8.6462 Y28.7586
G01 X8.7402 Y28.7746
G01 X8.7501 Y28.7768
G01 X8.8417 Y28.8032
G01 X8.8512 Y28.8066
G01 X8.9392 Y28.8430
G01 X8.9483 Y28.8474
G01 X9.0393 Y28.8982
G01 X9.1180 Y28.9540
G01 X9.1259 Y28.9603
G01 X9.1970 Y29.0239
G01 X9.2041 Y29.0310
G01 X9.2677 Y29.1021
G01 X9.2740 Y29.1100
G01 X9.3291 Y29.1877
G01 X9.3345 Y29.1962
G01 X9.3806 Y29.2797
G01 X9.3848 Y29.2883
G01 X9.4214 Y29.3768
G01 X9.4248 Y29.3863
G01 X9.4531 Y29.4858
G01 X9.4694 Y29.5818
G01 X9.4705 Y29.5918
G01 X9.4760 Y29.6920
G01 X9.4705 Y29.7922
G01 X9.4694 Y29.8022
G01 X9.4534 Y29.8962
G01 X9.4512 Y29.9061
G01 X9.4248 Y29.9977
G01 X9.4214 Y30.0072
G01 X9.3850 Y30.0952
G01 X9.3806 Y30.1043
G01 X9.3298 Y30.1953
G01 X9.2740 Y30.2740
G01 X9.2677 Y30.2819
G01 X9.2041 Y30.3530
G01 X9.1970 Y30.3601
G01 X9.1259 Y30.4237
G01 X9.1180 Y30.4300
G01 X9.0403 Y30.4851
G01 X9.0318 Y30.4905
G01 X8.9483 Y30.5366
G01 X8.9397 Y30.5408
G01 X8.8512 Y30.5774
G01 X8.8417 Y30.5808
G01 X8.7422 Y30.6091
G01 X8.6462 Y30.6254
G01 X8.6362 Y30.6265
G01 X8.5360 Y30.6320
G01 X8.4358 Y30.6265
G01 X8.4258 Y30.6254
G01 X8.3318 Y30.6094
G01 X8.3219 Y30.6072
G01 X8.2303 Y30.5808
G01 X8.2208 Y30.5774
G01 X8.1328 Y30.5410
G01 X8.1237 Y30.5366
G01 X8.0327 Y30.4858
G01 X7.9540 Y30.4300
G01 X7.9461 Y30.4237
G01 X7.8750 Y30.3601
G01 X7.8679 Y30.3530
G01 X7.8043 Y30.2819
G01 X7.7980 Y30.2740
G01 X7.7429 Y30.1963
G01 X7.7375 Y30.1878
G01 X7.6914 Y30.1043
G01 X7.6872 Y30.0957
G01 X7.6506 Y30.0072
G01 X7.6472 Y29.9977
G01 X7.6208 Y29.9061
G01 X7.6186 Y29.8962
G01 X7.6026 Y29.8022
G01 X7.6017 Y29.7922
G00 Z0.5000
G00 X10.1417 Y32.3322
G01 F200.00
G01 Z-0.1500
G01 F200.00
G01 X10.1360 Y32.2320
G01 X10.1415 Y32.1318
G01 X10.1426 Y32.1218
G01 X10.1586 Y32.0278
G01 X10.1608 Y32.0179
G01 X10.1872 Y31.9263
G01 X10.1906 Y31.9168
G01 X10.2270 Y31.8288
G01 X10.2314 Y31.8197
G01 X10.2822 Y31.7287
G01 X10.3380 Y31.6500
G01 X10.3443 Y31.6421
G01 X10.4079 Y31.5710
G01 X10.4150 Y31.5639
G01 X10.4861 Y31.5003
G01 X10.4940 Y31.4940
G01 X10.5717 Y31.4389
G01 X10.5802 Y31.4335
G01 X10.6637 Y31.3874
G01 X10.6723 Y31.3832
G01 X10.7608 Y31.3466
G01 X10.7703 Y31.3432
G01 X10.8698 Y31.3149
G01 X10.9658 Y31.2986
G01 X10.9758 Y31.2975
G01 X11.0760 Y31.2920
G01 X11.1762 Y31.2975
G01 X11.1862 Y31.2986
G01 X11.2802 Y31.3146
G01 X11.2901 Y31.3168
G01 X11.3817 Y31.3432
G01 X11.3912 Y31.3466
G01 X11.4792 Y31.3830
G01 X11.4883 Y31.3874
G01 X11.5793 Y31.4382
G01 X11.6580 Y31.4940
G01 X11.6659 Y31.5003
G01 X11.7370 Y31.5639
G01 X11.7441 Y31.5710
G01 X11.8077 Y31.6421
G01 X11.8140 Y31.6500
G01 X11.8691 Y31.7277
G01 X11.8745 Y31.7362
G01 X11.9206 Y31.8197
G01 X11.9248 Y31.8283
G01 X11.9614 Y31.9168
G01 X11.9648 Y31.9263
G01 X11.9931 Y32.0258
G01 X12.0094 Y32.1218
G01 X12.0105 Y32.1318
G01 X12.0160 Y32.2320
G01 X12.0105 Y32.3322
G01 X12.0094 Y32.3422
G01 X11.9934 Y32.4362
G01 X11.9912 Y32.4461
G01 X11.9648 Y32.5377
G01 X11.9614 Y32.5472
G01 X11.9250 Y32.6352
G01 X11.9206 Y32.6443
G01 X11.8698 Y32.7353
G01 X11.8140 Y32.8140
G01 X11.8077 Y32.8219
G01 X11.7441 Y32.8930
G01 X11.7370 Y32.9001
G01 X11.6659 Y32.9637
G01 X11.6580 Y32.9700
G01 X11.5803 Y33.0251
G01 X11.5718 Y33.0305
G01 X11.4883 Y33.0766
G01 X11.4797 Y33.0808
G01 X11.3912 Y33.1174
G01 X11.3817 Y33.1208
G01 X11.2822 Y33.1491
G01 X11.1862 Y33.1654
G01 X11.1762 Y33.1665
G01 X11.0760 Y33.1720
G01 X10.9758 Y33.1665
G01 X10.9658 Y33.1654
G01 X10.8718 Y33.1494
G01 X10.8619 Y33.1472
G01 X10.7703 Y33.1208
G01 X10.7608 Y33.1174
G01 X10.6728 Y33.0810
G01 X10.6637 Y33.0766
G01 X10.5727 Y33.0258
G01 X10.4940 Y32.9700
G01 X10.4861 Y32.9637
G01 X10.4150 Y32.9001
G01 X10.4079 Y32.8930
G01 X10.3443 Y32.8219
G01 X10.3380 Y32.8140
G01 X10.2829 Y32.7363
G01 X10.2775 Y32.7278
G01 X10.2314 Y32.6443
G01 X10.2272 Y32.6357
G01 X10.1906 Y32.5472
G01 X10.1872 Y32.5377
G01 X10.1608 Y32.4461
G01 X10.1586 Y32.4362
G01 X10.1426 Y32.3422
G01 X10.1417 Y32.3322
G00 Z0.5000
G00 X12.6817 Y32.3322
G01 F200.00
G01 Z-0.1500
G01 F200.00
G01 X12.6760 Y32.2320
G01 X12.6815 Y32.1318
G01 X12.6826 Y32.1218
G01 X12.6986 Y32.0278
G01 X12.7008 Y32.0179
G01 X12.7272 Y31.9263
G01 X12.7306 Y31.9168
G01 X12.7670 Y31.8288
G01 X12.7714 Y31.8197
G01 X12.8222 Y31.7287
G01 X12.8780 Y31.6500
G01 X12.8843 Y31.6421
G01 X12.9479 Y31.5710
G01 X12.9550 Y31.5639
G01 X13.0261 Y31.5003
G01 X13.0340 Y31.4940
G01 X13.1117 Y31.4389
G01 X13.1202 Y31.4335
G01 X13.2037 Y31.3874
G01 X13.2123 Y31.3832
G01 X13.3008 Y31.3466
G01 X13.3103 Y31.3432
G01 X13.4098 Y31.3149
G01 X13.5058 Y31.2986
G01 X13.5158 Y31.2975
G01 X13.6160 Y31.2920
G01 X13.7162 Y31.2975
G01 X13.7262 Y31.2986
G01 X13.8202 Y31.3146
G01 X13.8301 Y31.3168
G01 X13.9217 Y31.3432
G01 X13.9312 Y31.3466
G01 X14.0192 Y31.3830
G01 X14.0283 Y31.3874
G01 X14.1193 Y31.4382
G01 X14.1980 Y31.4940
G01 X14.2059 Y31.5003
G01 X14.2770 Y31.5639
G01 X14.2841 Y31.5710
G01 X14.3477 Y31.6421
G01 X14.3540 Y31.6500
G01 X14.4091 Y31.7277
G01 X14.4145 Y31.7362
G01 X14.4606 Y31.8197
G01 X14.4648 Y31.8283
G01 X14.5014 Y31.9168
G01 X14.5048 Y31.9263
G01 X14.5331 Y32.0258
G01 X14.5494 Y32.1218
G01 X14.5505 Y32.1318
G01 X14.5560 Y32.2320
G01 X14.5505 Y32.3322
G01 X14.5494 Y32.3422
G01 X14.5334 Y32.4362
G01 X14.5312 Y32.4461
G01 X14.5048 Y32.5377
G01 X14.5014 Y32.5472
G01 X14.4650 Y32.6352
G01 X14.4606 Y32.6443
G01 X14.4098 Y32.7353
G01 X14.3540 Y32.8140
G01 X14.3477 Y32.8219
G01 X14.2841 Y32.8930
G01 X14.2770 Y32.9001
G01 X14.2059 Y32.9637
G01 X14.1980 Y32.9700
G01 X14.1203 Y33.0251
G01 X14.1118 Y33.0305
G01 X14.0283 Y33.0766
G01 X14.0197 Y33.0808
G01 X13.9312 Y33.1174
G01 X13.9217 Y33.1208
G01 X13.8222 Y33.1491
G01 X13.7262 Y33.1654
G01 X13.7162 Y33.1665
G01 X13.6160 Y33.1720
G01 X13.5158 Y33.1665
G01 X13.5058 Y33.1654
G01 X13.4118 Y33.1494
G01 X13.4019 Y33.1472
G01 X13.3103 Y33.1208
G01 X13.3008 Y33.1174
G01 X13.2128 Y33.0810
G01 X13.2037 Y33.0766
G01 X13.1127 Y33.0258
G01 X13.0340 Y32.9700
G01 X13.0261 Y32.9637
G01 X12.9550 Y32.9001
G01 X12.9479 Y32.8930
G01 X12.8843 Y32.8219
G01 X12.8780 Y32.8140
G01 X12.8229 Y32.7363
G01 X12.8175 Y32.7278
G01 X12.7714 Y32.6443
G01 X12.7672 Y32.6357
G01 X12.7306 Y32.5472
G01 X12.7272 Y32.5377
G01 X12.7008 Y32.4461
G01 X12.6986 Y32.4362
G01 X12.6826 Y32.3422
G01 X12.6817 Y32.3322
G00 Z0.5000
G00 X15.2217 Y32.3322
G01 F200.00
G01 Z-0.1500
G01 F200.00
G01 X15.2160 Y32.2320
G01 X15.2215 Y32.1318
G01 X15.2226 Y32.1218
G01 X15.2386 Y32.0278
G01 X15.2408 Y32.0179
G01 X15.2672 Y31.9263
G01 X15.2706 Y31.9168
G01 X15.3070 Y31.8288
G01 X15.3114 Y31.8197
G01 X15.3622 Y31.7287
G01 X15.4180 Y31.6500
G01 X15.4243 Y31.6421
G01 X15.4879 Y31.5710
G01 X15.4950 Y31.5639
G01 X15.5661 Y31.5003
G01 X15.5740 Y31.4940
G01 X15.6517 Y31.4389
G01 X15.6602 Y31.4335
G01 X15.7437 Y31.3874
G01 X15.7523 Y31.3832
G01 X15.8408 Y31.3466
G01 X15.8503 Y31.3432
G01 X15.9498 Y31.3149
G01 X16.0458 Y31.2986
G01 X16.0558 Y31.2975
G01 X16.1560 Y31.2920
G01 X16.2562 Y31.2975
G01 X16.2662 Y31.2986
G01 X16.3602 Y31.3146
G01 X16.3701 Y31.3168
G01 X16.4617 Y31.3432
G01 X16.4712 Y31.3466
G01 X16.5592 Y31.3830
G01 X16.5683 Y31.3874
G01 X16.6593 Y31.4382
G01 X16.7380 Y31.4940
G01 X16.7459 Y31.5003
G01 X16.8170 Y31.5639
G01 X16.8241 Y31.5710
G01 X16.8877 Y31.6421
G01 X16.8940 Y31.6500
G01 X16.9491 Y31.7277
G01 X16.9545 Y31.7362
G01 X17.0006 Y31.8197
G01 X17.0048 Y31.8283
G01 X17.0414 Y31.9168
G01 X17.0448 Y31.9263
G01 X17.0731 Y32.0258
G01 X17.0894 Y32.1218
G01 X17.0905 Y32.1318
G01 X17.0960 Y32.2320
G01 X17.0905 Y32.3322
G01 X17.0894 Y32.3422
G01 X17.0734 Y32.4362
G01 X17.0712 Y32.4461
G01 X17.0448 Y32.5377
G01 X17.0414 Y32.5472
G01 X17.0050 Y32.6352
G01 X17.0006 Y32.6443
G01 X16.9498 Y32.7353
G01 X16.8940 Y32.8140
G01 X16.8877 Y32.8219
G01 X16.8241 Y32.8930
G01 X16.8170 Y32.9001
G01 X16.7459 Y32.9637
G01 X16.7380 Y32.9700
G01 X16.6603 Y33.0251
G01 X16.6518 Y33.0305
G01 X16.5683 Y33.0766
G01 X16.5597 Y33.0808
G01 X16.4712 Y33.1174
G01 X16.4617 Y33.1208
G01 X16.3622 Y33.1491
G01 X16.2662 Y33.1654
G01 X16.2562 Y33.1665
G01 X16.1560 Y33.1720
G01 X16.0558 Y33.1665
G01 X16.0458 Y33.1654
G01 X15.9518 Y33.1494
G01 X15.9419 Y33.1472
G01 X15.8503 Y33.1208
G01 X15.8408 Y33.1174
G01 X15.7528 Y33.0810
G01 X15.7437 Y33.0766
G01 X15.6527 Y33.0258
G01 X15.5740 Y32.9700
G01 X15.5661 Y32.9637
G01 X15.4950 Y32.9001
G01 X15.4879 Y32.8930
G01 X15.4243 Y32.8219
G01 X15.4180 Y32.8140
G01 X15.3629 Y32.7363
G01 X15.3575 Y32.7278
G01 X15.3114 Y32.6443
G01 X15.3072 Y32.6357
G01 X15.2706 Y32.5472
G01 X15.2672 Y32.5377
G01 X15.2408 Y32.4461
G01 X15.2386 Y32.4362
G01 X15.2226 Y32.3422
G01 X15.2217 Y32.3322
G00 Z0.5000
G00 X17.7617 Y32.3322
G01 F200.00
G01 Z-0.1500
G01 F200.00
G01 X17.7560 Y32.2320
G01 X17.7615 Y32.1318
G01 X17.7626 Y32.1218
G01 X17.7786 Y32.0278
G01 X17.7808 Y32.0179
G01 X17.8072 Y31.9263
G01 X17.8106 Y31.9168
G01 X17.8470 Y31.8288
G01 X17.8514 Y31.8197
G01 X17.9022 Y31.7287
G01 X17.9580 Y31.6500
G01 X17.9643 Y31.6421
G01 X18.0279 Y31.5710
G01 X18.0350 Y31.5639
G01 X18.1061 Y31.5003
G01 X18.1140 Y31.4940
G01 X18.1917 Y31.4389
G01 X18.2002 Y31.4335
G01 X18.2837 Y31.3874
G01 X18.2923 Y31.3832
G01 X18.3808 Y31.3466
G01 X18.3903 Y31.3432
G01 X18.4898 Y31.3149
G01 X18.5858 Y31.2986
G01 X18.5958 Y31.2975
G01 X18.6960 Y31.2920
G01 X18.7962 Y31.2975
G01 X18.8062 Y31.2986
G01 X18.9002 Y31.3146
G01 X18.9101 Y31.3168
G01 X19.0017 Y31.3432
G01 X19.0112 Y31.3466
G01 X19.0992 Y31.3830
G01 X19.1083 Y31.3874
G01 X19.1993 Y31.4382
G01 X19.2780 Y31.4940
G01 X19.2859 Y31.5003
G01 X19.3570 Y31.5639
G01 X19.3641 Y31.5710
G01 X19.4277 Y31.6421
G01 X19.4340 Y31.6500
G01 X19.4891 Y31.7277
G01 X19.4945 Y31.7362
G01 X19.5406 Y31.8197
G01 X19.5448 Y31.8283
G01 X19.5814 Y31.9168
G01 X19.5848 Y31.9263
G01 X19.6131 Y32.0258
G01 X19.6294 Y32.1218
G01 X19.6305 Y32.1318
G01 X19.6360 Y32.2320
G01 X19.6305 Y32.3322
G01 X19.6294 Y32.3422
G01 X19.6134 Y32.4362
G01 X19.6112 Y32.4461
G01 X19.5848 Y32.5377
G01 X19.5814 Y32.5472
G01 X19.5450 Y32.6352
G01 X19.5406 Y32.6443
G01 X19.4898 Y32.7353
G01 X19.4340 Y32.8140
G01 X19.4277 Y32.8219
G01 X19.3641 Y32.8930
G01 X19.3570 Y32.9001
G01 X19.2859 Y32.9637
G01 X19.2780 Y32.9700
G01 X19.2003 Y33.0251
G01 X19.1918 Y33.0305
G01 X19.1083 Y33.0766
G01 X19.0997 Y33.0808
G01 X19.0112 Y33.1174
G01 X19.0017 Y33.1208
G01 X18.9022 Y33.1491
G01 X18.8062 Y33.1654
G01 X18.7962 Y33.1665
G01 X18.6960 Y33.1720
G01 X18.5958 Y33.1665
G01 X18.5858 Y33.1654
G01 X18.4918 Y33.1494
G01 X18.4819 Y33.1472
G01 X18.3903 Y33.1208
G01 X18.3808 Y33.1174
G01 X18.2928 Y33.0810
G01 X18.2837 Y33.0766
G01 X18.1927 Y33.0258
G01 X18.1140 Y32.9700
G01 X18.1061 Y32.9637
G01 X18.0350 Y32.9001
G01 X18.0279 Y32.8930
G01 X17.9643 Y32.8219
G01 X17.9580 Y32.8140
G01 X17.9029 Y32.7363
G01 X17.8975 Y32.7278
G01 X17.8514 Y32.6443
G01 X17.8472 Y32.6357
G01 X17.8106 Y32.5472
G01 X17.8072 Y32.5377
G01 X17.7808 Y32.4461
G01 X17.7786 Y32.4362
G01 X17.7626 Y32.3422
G01 X17.7617 Y32.3322
G00 Z0.5000
G00 X20.3017 Y32.3322
G01 F200.00
G01 Z-0.1500
G01 F200.00
G01 X20.2960 Y32.2320
G01 X20.3015 Y32.1318
G01 X20.3026 Y32.1218
G01 X20.3186 Y32.0278
G01 X20.3208 Y32.0179
G01 X20.3472 Y31.9263
G01 X20.3506 Y31.9168
G01 X20.3870 Y31.8288
G01 X20.3914 Y31.8197
G01 X20.4422 Y31.7287
G01 X20.4980 Y31.6500
G01 X20.5043 Y31.6421
G01 X20.5679 Y31.5710
G01 X20.5750 Y31.5639
G01 X20.6461 Y31.5003
G01 X20.6540 Y31.4940
G01 X20.7317 Y31.4389
G01 X20.7402 Y31.4335
G01 X20.8237 Y31.3874
G01 X20.8323 Y31.3832
G01 X20.9208 Y31.3466
G01 X20.9303 Y31.3432
G01 X21.0298 Y31.3149
G01 X21.1258 Y31.2986
G01 X21.1358 Y31.2975
G01 X21.2360 Y31.2920
G01 X21.3362 Y31.2975
G01 X21.3462 Y31.2986
G01 X21.4402 Y31.3146
G01 X21.4501 Y31.3168
G01 X21.5417 Y31.3432
G01 X21.5512 Y31.3466
G01 X21.6392 Y31.3830
G01 X21.6483 Y31.3874
G01 X21.7393 Y31.4382
G01 X21.8180 Y31.4940
G01 X21.8259 Y31.5003
G01 X21.8970 Y31.5639
G01 X21.9041 Y31.5710
G01 X21.9677 Y31.6421
G01 X21.9740 Y31.6500
G01 X22.0291 Y31.7277
G01 X22.0345 Y31.7362
G01 X22.0806 Y31.8197
G01 X22.0848 Y31.8283
G01 X22.1214 Y31.9168
G01 X22.1248 Y31.9263
G01 X22.1531 Y32.0258
G01 X22.1694 Y32.1218
G01 X22.1705 Y32.1318
G01 X22.1760 Y32.2320
G01 X22.1705 Y32.3322
G01 X22.1694 Y32.3422
G01 X22.1534 Y32.4362
G01 X22.1512 Y32.4461
G01 X22.1248 Y32.5377
G01 X22.1214 Y32.5472
G01 X22.0850 Y32.6352
G01 X22.0806 Y32.6443
G01 X22.0298 Y32.7353
G01 X21.9740 Y32.8140
G01 X21.9677 Y32.8219
G01 X21.9041 Y32.8930
G01 X21.8970 Y32.9001
G01 X21.8259 Y32.9637
G01 X21.8180 Y32.9700
G01 X21.7403 Y33.0251
G01 X21.7318 Y33.0305
G01 X21.6483 Y33.0766
G01 X21.6397 Y33.0808
G01 X21.5512 Y33.1174
G01 X21.5417 Y33.1208
G01 X21.4422 Y33.1491
G01 X21.3462 Y33.1654
G01 X21.3362 Y33.1665
G01 X21.2360 Y33.1720
G01 X21.1358 Y33.1665
G01 X21.1258 Y33.1654
G01 X21.0318 Y33.1494
G01 X21.0219 Y33.1472
G01 X20.9303 Y33.1208
G01 X20.9208 Y33.1174
G01 X20.8328 Y33.0810
G01 X20.8237 Y33.0766
G01 X20.7327 Y33.0258
G01 X20.6540 Y32.9700
G01 X20.6461 Y32.9637
G01 X20.5750 Y32.9001
G01 X20.5679 Y32.8930
G01 X20.5043 Y32.8219
G01 X20.4980 Y32.8140
G01 X20.4429 Y32.7363
G01 X20.4375 Y32.7278
G01 X20.3914 Y32.6443
G01 X20.3872 Y32.6357
G01 X20.3506 Y32.5472
G01 X20.3472 Y32.5377
G01 X20.3208 Y32.4461
G01 X20.3186 Y32.4362
G01 X20.3026 Y32.3422
G01 X20.3017 Y32.3322
G00 Z0.5000
G00 X20.3017 Y29.7922
G01 F200.00
G01 Z-0.1500
G01 F200.00
G01 X20.2960 Y29.6920
G01 X20.3015 Y29.5918
G01 X20.3026 Y29.5818
G01 X20.3186 Y29.4878
G01 X20.3208 Y29.4779
G01 X20.3472 Y29.3863
G01 X20.3506 Y29.3768
G01 X20.3870 Y29.2888
G01 X20.3914 Y29.2797
G01 X20.4422 Y29.1887
G01 X20.4980 Y29.1100
G01 X20.5043 Y29.1021
G01 X20.5679 Y29.0310
G01 X20.5750 Y29.0239
G01 X20.6461 Y28.9603
G01 X20.6540 Y28.9540
G01 X20.7317 Y28.8989
G01 X20.7402 Y28.8935
G01 X20.8237 Y28.8474
G01 X20.8323 Y28.8432
G01 X20.9208 Y28.8066
G01 X20.9303 Y28.8032
G01 X21.0298 Y28.7749
G01 X21.1258 Y28.7586
G01 X21.1358 Y28.7575
G01 X21.2360 Y28.7520
G01 X21.3362 Y28.7575
G01 X21.3462 Y28.7586
G01 X21.4402 Y28.7746
G01 X21.4501 Y28.7768
G01 X21.5417 Y28.8032
G01 X21.5512 Y28.8066
G01 X21.6392 Y28.8430
G01 X21.6483 Y28.8474
G01 X21.7393 Y28.8982
G01 X21.8180 Y28.9540
G01 X21.8259 Y28.9603
G01 X21.8970 Y29.0239
G01 X21.9041 Y29.0310
G01 X21.9677 Y29.1021
G01 X21.9740 Y29.1100
G01 X22.0291 Y29.1877
G01 X22.0345 Y29.1962
G01 X22.0806 Y29.2797
G01 X22.0848 Y29.2883
G01 X22.1214 Y29.3768
G01 X22.1248 Y29.3863
G01 X22.1531 Y29.4858
G01 X22.1694 Y29.5818
G01 X22.1705 Y29.5918
G01 X22.1760 Y29.6920
G01 X22.1705 Y29.7922
G01 X22.1694 Y29.8022
G01 X22.1534 Y29.8962
G01 X22.1512 Y29.9061
G01 X22.1248 Y29.9977
G01 X22.1214 Y30.0072
G01 X22.0850 Y30.0952
G01 X22.0806 Y30.1043
G01 X22.0298 Y30.1953
G01 X21.9740 Y30.2740
G01 X21.9677 Y30.2819
G01 X21.9041 Y30.3530
G01 X21.8970 Y30.3601
G01 X21.8259 Y30.4237
G01 X21.8180 Y30.4300
G01 X21.7403 Y30.4851
G01 X21.7318 Y30.4905
G01 X21.6483 Y30.5366
G01 X21.6397 Y30.5408
G01 X21.5512 Y30.5774
G01 X21.5417 Y30.5808
G01 X21.4422 Y30.6091
G01 X21.3462 Y30.6254
G01 X21.3362 Y30.6265
G01 X21.2360 Y30.6320
G01 X21.1358 Y30.6265
G01 X21.1258 Y30.6254
G01 X21.0318 Y30.6094
G01 X21.0219 Y30.6072
G01 X20.9303 Y30.5808
G01 X20.9208 Y30.5774
G01 X20.8328 Y30.5410
G01 X20.8237 Y30.5366
G01 X20.7327 Y30.4858
G01 X20.6540 Y30.4300
G01 X20.6461 Y30.4237
G01 X20.5750 Y30.3601
G01 X20.5679 Y30.3530
G01 X20.5043 Y30.2819
G01 X20.4980 Y30.2740
G01 X20.4429 Y30.1963
G01 X20.4375 Y30.1878
G01 X20.3914 Y30.1043
G01 X20.3872 Y30.0957
G01 X20.3506 Y30.0072
G01 X20.3472 Y29.9977
G01 X20.3208 Y29.9061
G01 X20.3186 Y29.8962
G01 X20.3026 Y29.8022
G01 X20.3017 Y29.7922
G00 Z0.5000
G00 X22.8417 Y29.7922
G01 F200.00
G01 Z-0.1500
G01 F200.00
G01 X22.8360 Y29.6920
G01 X22.8415 Y29.5918
G01 X22.8426 Y29.5818
G01 X22.8586 Y29.4878
G01 X22.8608 Y29.4779
G01 X22.8872 Y29.3863
G01 X22.8906 Y29.3768
G01 X22.9270 Y29.2888
G01 X22.9314 Y29.2797
G01 X22.9822 Y29.1887
G01 X23.0380 Y29.1100
G01 X23.0443 Y29.1021
G01 X23.1079 Y29.0310
G01 X23.1150 Y29.0239
G01 X23.1861 Y28.9603
G01 X23.1940 Y28.9540
G01 X23.2717 Y28.8989
G01 X23.2802 Y28.8935
G01 X23.3637 Y28.8474
G01 X23.3723 Y28.8432
G01 X23.4608 Y28.8066
G01 X23.4703 Y28.8032
G01 X23.5698 Y28.7749
G01 X23.6658 Y28.7586
G01 X23.6758 Y28.7575
G01 X23.7760 Y28.7520
G01 X23.8762 Y28.7575
G01 X23.8862 Y28.7586
G01 X23.9802 Y28.7746
G01 X23.9901 Y28.7768
G01 X24.0817 Y28.8032
G01 X24.0912 Y28.8066
G01 X24.1792 Y28.8430
G01 X24.1883 Y28.8474
G01 X24.2793 Y28.8982
G01 X24.3580 Y28.9540
G01 X24.3659 Y28.9603
G01 X24.4370 Y29.0239
G01 X24.4441 Y29.0310
G01 X24.5077 Y29.1021
G01 X24.5140 Y29.1100
G01 X24.5691 Y29.1877
G01 X24.5745 Y29.1962
G01 X24.6206 Y29.2797
G01 X24.6248 Y29.2883
G01 X24.6614 Y29.3768
G01 X24.6648 Y29.3863
G01 X24.6931 Y29.4858
G01 X24.7094 Y29.5818
G01 X24.7105 Y29.5918
G01 X24.7160 Y29.6920
G01 X24.7105 Y29.7922
G01 X24.7094 Y29.8022
G01 X24.6934 Y29.8962
G01 X24.6912 Y29.9061
G01 X24.6648 Y29.9977
G01 X24.6614 Y30.0072
G01 X24.6250 Y30.0952
G01 X24.6206 Y30.1043
G01 X24.5698 Y30.1953
G01 X24.5140 Y30.2740
G01 X24.5077 Y30.2819
G01 X24.4441 Y30.3530
G01 X24.4370 Y30.3601
G01 X24.3659 Y30.4237
G01 X24.3580 Y30.4300
G01 X24.2803 Y30.4851
G01 X24.2718 Y30.4905
G01 X24.1883 Y30.5366
G01 X24.1797 Y30.5408
G01 X24.0912 Y30.5774
G01 X24.0817 Y30.5808
G01 X23.9822 Y30.6091
G01 X23.8862 Y30.6254
G01 X23.8762 Y30.6265
G01 X23.7760 Y30.6320
G01 X23.6758 Y30.6265
G01 X23.6658 Y30.6254
G01 X23.5718 Y30.6094
G01 X23.5619 Y30.6072
G01 X23.4703 Y30.5808
G01 X23.4608 Y30.5774
G01 X23.3728 Y30.5410
G01 X23.3637 Y30.5366
G01 X23.2727 Y30.4858
G01 X23.1940 Y30.4300
G01 X23.1861 Y30.4237
G01 X23.1150 Y30.3601
G01 X23.1079 Y30.3530
G01 X23.0443 Y30.2819
G01 X23.0380 Y30.2740
G01 X22.9829 Y30.1963
G01 X22.9775 Y30.1878
G01 X22.9314 Y30.1043
G01 X22.9272 Y30.0957
G01 X22.8906 Y30.0072
G01 X22.8872 Y29.9977
G01 X22.8608 Y29.9061
G01 X22.8586 Y29.8962
G01 X22.8426 Y29.8022
G01 X22.8417 Y29.7922
G00 Z0.5000
G00 X22.8417 Y32.3322
G01 F200.00
G01 Z-0.1500
G01 F200.00
G01 X22.8360 Y32.2320
G01 X22.8415 Y32.1318
G01 X22.8426 Y32.1218
G01 X22.8586 Y32.0278
G01 X22.8608 Y32.0179
G01 X22.8872 Y31.9263
G01 X22.8906 Y31.9168
G01 X22.9270 Y31.8288
G01 X22.9314 Y31.8197
G01 X22.9822 Y31.7287
G01 X23.0380 Y31.6500
G01 X23.0443 Y31.6421
G01 X23.1079 Y31.5710
G01 X23.1150 Y31.5639
G01 X23.1861 Y31.5003
G01 X23.1940 Y31.4940
G01 X23.2717 Y31.4389
G01 X23.2802 Y31.4335
G01 X23.3637 Y31.3874
G01 X23.3723 Y31.3832
G01 X23.4608 Y31.3466
G01 X23.4703 Y31.3432
G01 X23.5698 Y31.3149
G01 X23.6658 Y31.2986
G01 X23.6758 Y31.2975
G01 X23.7760 Y31.2920
G01 X23.8762 Y31.2975
G01 X23.8862 Y31.2986
G01 X23.9802 Y31.3146
G01 X23.9901 Y31.3168
G01 X24.0817 Y31.3432
G01 X24.0912 Y31.3466
G01 X24.1792 Y31.3830
G01 X24.1883 Y31.3874
G01 X24.2793 Y31.4382
G01 X24.3580 Y31.4940
G01 X24.3659 Y31.5003
G01 X24.4370 Y31.5639
G01 X24.4441 Y31.5710
G01 X24.5077 Y31.6421
G01 X24.5140 Y31.6500
G01 X24.5691 Y31.7277
G01 X24.5745 Y31.7362
G01 X24.6206 Y31.8197
G01 X24.6248 Y31.8283
G01 X24.6614 Y31.9168
G01 X24.6648 Y31.9263
G01 X24.6931 Y32.0258
G01 X24.7094 Y32.1218
G01 X24.7105 Y32.1318
G01 X24.7160 Y32.2320
G01 X24.7105 Y32.3322
G01 X24.7094 Y32.3422
G01 X24.6934 Y32.4362
G01 X24.6912 Y32.4461
G01 X24.6648 Y32.5377
G01 X24.6614 Y32.5472
G01 X24.6250 Y32.6352
G01 X24.6206 Y32.6443
G01 X24.5698 Y32.7353
G01 X24.5140 Y32.8140
G01 X24.5077 Y32.8219
G01 X24.4441 Y32.8930
G01 X24.4370 Y32.9001
G01 X24.3659 Y32.9637
G01 X24.3580 Y32.9700
G01 X24.2803 Y33.0251
G01 X24.2718 Y33.0305
G01 X24.1883 Y33.0766
G01 X24.1797 Y33.0808
G01 X24.0912 Y33.1174
G01 X24.0817 Y33.1208
G01 X23.9822 Y33.1491
G01 X23.8862 Y33.1654
G01 X23.8762 Y33.1665
G01 X23.7760 Y33.1720
G01 X23.6758 Y33.1665
G01 X23.6658 Y33.1654
G01 X23.5718 Y33.1494
G01 X23.5619 Y33.1472
G01 X23.4703 Y33.1208
G01 X23.4608 Y33.1174
G01 X23.3728 Y33.0810
G01 X23.3637 Y33.0766
G01 X23.2727 Y33.0258
G01 X23.1940 Y32.9700
G01 X23.1861 Y32.9637
G01 X23.1150 Y32.9001
G01 X23.1079 Y32.8930
G01 X23.0443 Y32.8219
G01 X23.0380 Y32.8140
G01 X22.9829 Y32.7363
G01 X22.9775 Y32.7278
G01 X22.9314 Y32.6443
G01 X22.9272 Y32.6357
G01 X22.8906 Y32.5472
G01 X22.8872 Y32.5377
G01 X22.8608 Y32.4461
G01 X22.8586 Y32.4362
G01 X22.8426 Y32.3422
G01 X22.8417 Y32.3322
G00 Z0.5000
G00 X25.3817 Y32.3322
G01 F200.00
G01 Z-0.1500
G01 F200.00
G01 X25.3761 Y32.2370
G01 X25.3761 Y32.2270
G01 X25.3815 Y32.1318
G01 X25.3826 Y32.1218
G01 X25.3986 Y32.0278
G01 X25.4008 Y32.0179
G01 X25.4272 Y31.9263
G01 X25.4306 Y31.9168
G01 X25.4670 Y31.8288
G01 X25.4714 Y31.8197
G01 X25.5175 Y31.7362
G01 X25.5229 Y31.7277
G01 X25.5780 Y31.6500
G01 X25.5843 Y31.6421
G01 X25.6479 Y31.5710
G01 X25.6550 Y31.5639
G01 X25.7261 Y31.5003
G01 X25.7340 Y31.4940
G01 X25.8117 Y31.4389
G01 X25.8202 Y31.4335
G01 X25.9123 Y31.3832
G01 X26.0008 Y31.3466
G01 X26.0103 Y31.3432
G01 X26.1098 Y31.3149
G01 X26.2058 Y31.2986
G01 X26.2158 Y31.2975
G01 X26.3110 Y31.2921
G01 X26.3210 Y31.2921
G01 X26.4162 Y31.2975
G01 X26.4262 Y31.2986
G01 X26.5202 Y31.3146
G01 X26.5301 Y31.3168
G01 X26.6217 Y31.3432
G01 X26.6312 Y31.3466
G01 X26.7192 Y31.3830
G01 X26.7283 Y31.3874
G01 X26.8193 Y31.4382
G01 X26.8980 Y31.4940
G01 X26.9059 Y31.5003
G01 X26.9770 Y31.5639
G01 X26.9841 Y31.5710
G01 X27.0477 Y31.6421
G01 X27.0540 Y31.6500
G01 X27.1091 Y31.7277
G01 X27.1145 Y31.7362
G01 X27.1648 Y31.8283
G01 X27.2014 Y31.9168
G01 X27.2048 Y31.9263
G01 X27.2331 Y32.0258
G01 X27.2494 Y32.1218
G01 X27.2505 Y32.1318
G01 X27.2560 Y32.2320
G01 X27.2505 Y32.3322
G01 X27.2494 Y32.3422
G01 X27.2334 Y32.4362
G01 X27.2312 Y32.4461
G01 X27.2048 Y32.5377
G01 X27.2014 Y32.5472
G01 X27.1650 Y32.6352
G01 X27.1606 Y32.6443
G01 X27.1098 Y32.7353
G01 X27.0540 Y32.8140
G01 X27.0477 Y32.8219
G01 X26.9841 Y32.8930
G01 X26.9770 Y32.9001
G01 X26.9059 Y32.9637
G01 X26.8980 Y32.9700
G01 X26.8203 Y33.0251
G01 X26.8118 Y33.0305
G01 X26.7283 Y33.0766
G01 X26.6561 Y33.1071
G01 X26.6561 Y33.9114
G01 X30.7266 Y37.9814
G01 X30.7600 Y38.0185
G01 X30.7923 Y38.0630
G01 X30.7976 Y38.0715
G01 X30.8235 Y38.1194
G01 X30.8442 Y38.1709
G01 X30.8585 Y38.2219
G01 X30.8675 Y38.2781
G01 X30.8702 Y38.3280
G01 X30.8702 Y42.6064
G01 X30.8833 Y42.6142
G01 X30.9620 Y42.6700
G01 X30.9699 Y42.6763
G01 X31.0410 Y42.7399
G01 X31.0481 Y42.7470
G01 X31.1117 Y42.8181
G01 X31.1180 Y42.8260
G01 X31.1731 Y42.9037
G01 X31.1785 Y42.9122
G01 X31.2288 Y43.0043
G01 X31.2654 Y43.0928
G01 X31.2688 Y43.1023
G01 X31.2952 Y43.1939
G01 X31.2974 Y43.2038
G01 X31.3134 Y43.2978
G01 X31.3145 Y43.3078
G01 X31.3200 Y43.4080
G01 X31.3145 Y43.5082
G01 X31.3134 Y43.5182
G01 X31.2974 Y43.6122
G01 X31.2952 Y43.6221
G01 X31.2688 Y43.7137
G01 X31.2654 Y43.7232
G01 X31.2290 Y43.8112
G01 X31.2246 Y43.8203
G01 X31.1738 Y43.9113
G01 X31.1180 Y43.9900
G01 X31.1117 Y43.9979
G01 X31.0481 Y44.0690
G01 X31.0410 Y44.0761
G01 X30.9699 Y44.1397
G01 X30.9620 Y44.1460
G01 X30.8843 Y44.2011
G01 X30.8758 Y44.2065
G01 X30.7837 Y44.2568
G01 X30.6952 Y44.2934
G01 X30.6857 Y44.2968
G01 X30.5862 Y44.3251
G01 X30.4902 Y44.3414
G01 X30.4802 Y44.3425
G01 X30.3800 Y44.3480
G01 X30.2798 Y44.3425
G01 X30.2698 Y44.3414
G01 X30.1758 Y44.3254
G01 X30.1659 Y44.3232
G01 X30.0743 Y44.2968
G01 X30.0648 Y44.2934
G01 X29.9768 Y44.2570
G01 X29.9677 Y44.2526
G01 X29.8767 Y44.2018
G01 X29.7980 Y44.1460
G01 X29.7901 Y44.1397
G01 X29.7190 Y44.0761
G01 X29.7119 Y44.0690
G01 X29.6483 Y43.9979
G01 X29.6420 Y43.9900
G01 X29.5869 Y43.9123
G01 X29.5815 Y43.9038
G01 X29.5354 Y43.8203
G01 X29.5312 Y43.8117
G01 X29.4946 Y43.7232
G01 X29.4912 Y43.7137
G01 X29.4629 Y43.6142
G01 X29.4466 Y43.5182
G01 X29.4455 Y43.5082
G01 X29.4401 Y43.4130
G01 X29.4401 Y43.4030
G01 X29.4455 Y43.3078
G01 X29.4466 Y43.2978
G01 X29.4626 Y43.2038
G01 X29.4648 Y43.1939
G01 X29.4912 Y43.1023
G01 X29.4946 Y43.0928
G01 X29.5310 Y43.0048
G01 X29.5354 Y42.9957
G01 X29.5862 Y42.9047
G01 X29.6420 Y42.8260
G01 X29.6483 Y42.8181
G01 X29.7119 Y42.7470
G01 X29.7190 Y42.7399
G01 X29.7901 Y42.6763
G01 X29.7980 Y42.6700
G01 X29.8757 Y42.6149
G01 X29.8898 Y42.6064
G01 X29.8898 Y38.5310
G01 X25.9694 Y34.6106
G01 X25.9297 Y34.5656
G01 X25.9037 Y34.5290
G01 X25.8767 Y34.4812
G01 X25.8551 Y34.4306
G01 X25.8518 Y34.4211
G01 X25.8375 Y34.3701
G01 X25.8296 Y34.3239
G01 X25.8285 Y34.3139
G01 X25.8259 Y34.2590
G01 X25.8285 Y34.2141
G01 X25.8371 Y34.1599
G01 X25.8518 Y34.1069
G01 X25.8723 Y34.0559
G01 X25.8984 Y34.0075
G01 X25.9297 Y33.9624
G01 X25.9659 Y33.9210
G01 X25.9759 Y33.9114
G01 X25.9759 Y33.1071
G01 X25.9037 Y33.0766
G01 X25.8202 Y33.0305
G01 X25.8117 Y33.0251
G01 X25.7340 Y32.9700
G01 X25.7261 Y32.9637
G01 X25.6550 Y32.9001
G01 X25.6479 Y32.8930
G01 X25.5843 Y32.8219
G01 X25.5780 Y32.8140
G01 X25.5229 Y32.7363
G01 X25.5175 Y32.7278
G01 X25.4714 Y32.6443
G01 X25.4672 Y32.6357
G01 X25.4306 Y32.5472
G01 X25.4272 Y32.5377
G01 X25.3989 Y32.4382
G01 X25.3826 Y32.3422
G01 X25.3817 Y32.3322
G00 Z0.5000
G00 X27.9217 Y32.3322
G01 F200.00
G01 Z-0.1500
G01 F200.00
G01 X27.9161 Y32.2370
G01 X27.9161 Y32.2270
G01 X27.9215 Y32.1318
G01 X27.9226 Y32.1218
G01 X27.9386 Y32.0278
G01 X27.9408 Y32.0179
G01 X27.9672 Y31.9263
G01 X27.9706 Y31.9168
G01 X28.0070 Y31.8288
G01 X28.0114 Y31.8197
G01 X28.0622 Y31.7287
G01 X28.1180 Y31.6500
G01 X28.1243 Y31.6421
G01 X28.1879 Y31.5710
G01 X28.1950 Y31.5639
G01 X28.2661 Y31.5003
G01 X28.2740 Y31.4940
G01 X28.3517 Y31.4389
G01 X28.3602 Y31.4335
G01 X28.4437 Y31.3874
G01 X28.4523 Y31.3832
G01 X28.5408 Y31.3466
G01 X28.5503 Y31.3432
G01 X28.6419 Y31.3168
G01 X28.6518 Y31.3146
G01 X28.7458 Y31.2986
G01 X28.7558 Y31.2975
G01 X28.8510 Y31.2921
G01 X28.8610 Y31.2921
G01 X28.9562 Y31.2975
G01 X28.9662 Y31.2986
G01 X29.0602 Y31.3146
G01 X29.0701 Y31.3168
G01 X29.1617 Y31.3432
G01 X29.1712 Y31.3466
G01 X29.2592 Y31.3830
G01 X29.2683 Y31.3874
G01 X29.3593 Y31.4382
G01 X29.4380 Y31.4940
G01 X29.4459 Y31.5003
G01 X29.5170 Y31.5639
G01 X29.5241 Y31.5710
G01 X29.5877 Y31.6421
G01 X29.5940 Y31.6500
G01 X29.6491 Y31.7277
G01 X29.6545 Y31.7362
G01 X29.7006 Y31.8197
G01 X29.7048 Y31.8283
G01 X29.7414 Y31.9168
G01 X29.7448 Y31.9263
G01 X29.7731 Y32.0258
G01 X29.7894 Y32.1218
G01 X29.7905 Y32.1318
G01 X29.7960 Y32.2320
G01 X29.7905 Y32.3322
G01 X29.7894 Y32.3422
G01 X29.7734 Y32.4362
G01 X29.7712 Y32.4461
G01 X29.7448 Y32.5377
G01 X29.7414 Y32.5472
G01 X29.7050 Y32.6352
G01 X29.7006 Y32.6443
G01 X29.6498 Y32.7353
G01 X29.5940 Y32.8140
G01 X29.5877 Y32.8219
G01 X29.5241 Y32.8930
G01 X29.5170 Y32.9001
G01 X29.4459 Y32.9637
G01 X29.4380 Y32.9700
G01 X29.3603 Y33.0251
G01 X29.3389 Y33.0376
G01 X33.2666 Y36.9654
G01 X33.3000 Y37.0025
G01 X33.3323 Y37.0470
G01 X33.3376 Y37.0555
G01 X33.3635 Y37.1034
G01 X33.3842 Y37.1549
G01 X33.3985 Y37.2059
G01 X33.4075 Y37.2621
G01 X33.4102 Y37.3120
G01 X33.4102 Y42.6064
G01 X33.4233 Y42.6142
G01 X33.5020 Y42.6700
G01 X33.5099 Y42.6763
G01 X33.5810 Y42.7399
G01 X33.5881 Y42.7470
G01 X33.6517 Y42.8181
G01 X33.6580 Y42.8260
G01 X33.7131 Y42.9037
G01 X33.7185 Y42.9122
G01 X33.7688 Y43.0043
G01 X33.8054 Y43.0928
G01 X33.8088 Y43.1023
G01 X33.8352 Y43.1939
G01 X33.8374 Y43.2038
G01 X33.8534 Y43.2978
G01 X33.8545 Y43.3078
G01 X33.8600 Y43.4080
G01 X33.8545 Y43.5082
G01 X33.8534 Y43.5182
G01 X33.8374 Y43.6122
G01 X33.8352 Y43.6221
G01 X33.8088 Y43.7137
G01 X33.8054 Y43.7232
G01 X33.7690 Y43.8112
G01 X33.7646 Y43.8203
G01 X33.7138 Y43.9113
G01 X33.6580 Y43.9900
G01 X33.6517 Y43.9979
G01 X33.5881 Y44.0690
G01 X33.5810 Y44.0761
G01 X33.5099 Y44.1397
G01 X33.5020 Y44.1460
G01 X33.4243 Y44.2011
G01 X33.4158 Y44.2065
G01 X33.3237 Y44.2568
G01 X33.2352 Y44.2934
G01 X33.2257 Y44.2968
G01 X33.1262 Y44.3251
G01 X33.0302 Y44.3414
G01 X33.0202 Y44.3425
G01 X32.9200 Y44.3480
G01 X32.8198 Y44.3425
G01 X32.8098 Y44.3414
G01 X32.7158 Y44.3254
G01 X32.7059 Y44.3232
G01 X32.6143 Y44.2968
G01 X32.6048 Y44.2934
G01 X32.5168 Y44.2570
G01 X32.5077 Y44.2526
G01 X32.4167 Y44.2018
G01 X32.3380 Y44.1460
G01 X32.3301 Y44.1397
G01 X32.2590 Y44.0761
G01 X32.2519 Y44.0690
G01 X32.1883 Y43.9979
G01 X32.1820 Y43.9900
G01 X32.1269 Y43.9123
G01 X32.1215 Y43.9038
G01 X32.0754 Y43.8203
G01 X32.0712 Y43.8117
G01 X32.0346 Y43.7232
G01 X32.0312 Y43.7137
G01 X32.0029 Y43.6142
G01 X31.9866 Y43.5182
G01 X31.9855 Y43.5082
G01 X31.9801 Y43.4130
G01 X31.9801 Y43.4030
G01 X31.9855 Y43.3078
G01 X31.9866 Y43.2978
G01 X32.0026 Y43.2038
G01 X32.0048 Y43.1939
G01 X32.0312 Y43.1023
G01 X32.0346 Y43.0928
G01 X32.0710 Y43.0048
G01 X32.0754 Y42.9957
G01 X32.1262 Y42.9047
G01 X32.1820 Y42.8260
G01 X32.1883 Y42.8181
G01 X32.2519 Y42.7470
G01 X32.2590 Y42.7399
G01 X32.3301 Y42.6763
G01 X32.3380 Y42.6700
G01 X32.4157 Y42.6149
G01 X32.4298 Y42.6064
G01 X32.4298 Y37.5150
G01 X28.5094 Y33.5946
G01 X28.4760 Y33.5575
G01 X28.4437 Y33.5130
G01 X28.4384 Y33.5045
G01 X28.4125 Y33.4566
G01 X28.3918 Y33.4051
G01 X28.3775 Y33.3541
G01 X28.3696 Y33.3079
G01 X28.3658 Y33.2480
G01 X28.3696 Y33.1881
G01 X28.3794 Y33.1340
G01 X28.3918 Y33.0909
G01 X28.4058 Y33.0556
G01 X28.3527 Y33.0258
G01 X28.2740 Y32.9700
G01 X28.2661 Y32.9637
G01 X28.1950 Y32.9001
G01 X28.1879 Y32.8930
G01 X28.1243 Y32.8219
G01 X28.1180 Y32.8140
G01 X28.0629 Y32.7363
G01 X28.0575 Y32.7278
G01 X28.0072 Y32.6357
G01 X27.9706 Y32.5472
G01 X27.9672 Y32.5377
G01 X27.9389 Y32.4382
G01 X27.9226 Y32.3422
G01 X27.9217 Y32.3322
G00 Z0.5000
G00 X30.4617 Y32.3322
G01 F200.00
G01 Z-0.1500
G01 F200.00
G01 X30.4560 Y32.2320
G01 X30.4615 Y32.1318
G01 X30.4626 Y32.1218
G01 X30.4786 Y32.0278
G01 X30.4808 Y32.0179
G01 X30.5072 Y31.9263
G01 X30.5106 Y31.9168
G01 X30.5470 Y31.8288
G01 X30.5514 Y31.8197
G01 X30.6022 Y31.7287
G01 X30.6580 Y31.6500
G01 X30.6643 Y31.6421
G01 X30.7279 Y31.5710
G01 X30.7350 Y31.5639
G01 X30.8061 Y31.5003
G01 X30.8140 Y31.4940
G01 X30.8917 Y31.4389
G01 X30.9002 Y31.4335
G01 X30.9837 Y31.3874
G01 X30.9923 Y31.3832
G01 X31.0808 Y31.3466
G01 X31.0903 Y31.3432
G01 X31.1898 Y31.3149
G01 X31.2858 Y31.2986
G01 X31.2958 Y31.2975
G01 X31.3960 Y31.2920
G01 X31.4962 Y31.2975
G01 X31.5062 Y31.2986
G01 X31.6002 Y31.3146
G01 X31.6101 Y31.3168
G01 X31.7017 Y31.3432
G01 X31.7112 Y31.3466
G01 X31.7992 Y31.3830
G01 X31.8083 Y31.3874
G01 X31.8993 Y31.4382
G01 X31.9780 Y31.4940
G01 X31.9859 Y31.5003
G01 X32.0570 Y31.5639
G01 X32.0641 Y31.5710
G01 X32.1277 Y31.6421
G01 X32.1340 Y31.6500
G01 X32.1891 Y31.7277
G01 X32.1945 Y31.7362
G01 X32.2406 Y31.8197
G01 X32.2448 Y31.8283
G01 X32.2814 Y31.9168
G01 X32.2848 Y31.9263
G01 X32.3131 Y32.0258
G01 X32.3294 Y32.1218
G01 X32.3305 Y32.1318
G01 X32.3360 Y32.2320
G01 X32.3305 Y32.3322
G01 X32.3294 Y32.3422
G01 X32.3134 Y32.4362
G01 X32.3112 Y32.4461
G01 X32.2848 Y32.5377
G01 X32.2814 Y32.5472
G01 X32.2450 Y32.6352
G01 X32.2406 Y32.6443
G01 X32.1898 Y32.7353
G01 X32.1340 Y32.8140
G01 X32.1277 Y32.8219
G01 X32.0641 Y32.8930
G01 X32.0570 Y32.9001
G01 X31.9859 Y32.9637
G01 X31.9780 Y32.9700
G01 X31.9003 Y33.0251
G01 X31.8918 Y33.0305
G01 X31.8083 Y33.0766
G01 X31.7997 Y33.0808
G01 X31.7112 Y33.1174
G01 X31.7017 Y33.1208
G01 X31.6022 Y33.1491
G01 X31.5062 Y33.1654
G01 X31.4962 Y33.1665
G01 X31.3960 Y33.1720
G01 X31.2958 Y33.1665
G01 X31.2858 Y33.1654
G01 X31.1918 Y33.1494
G01 X31.1819 Y33.1472
G01 X31.0903 Y33.1208
G01 X31.0808 Y33.1174
G01 X30.9928 Y33.0810
G01 X30.9837 Y33.0766
G01 X30.8927 Y33.0258
G01 X30.8140 Y32.9700
G01 X30.8061 Y32.9637
G01 X30.7350 Y32.9001
G01 X30.7279 Y32.8930
G01 X30.6643 Y32.8219
G01 X30.6580 Y32.8140
G01 X30.6029 Y32.7363
G01 X30.5975 Y32.7278
G01 X30.5514 Y32.6443
G01 X30.5472 Y32.6357
G01 X30.5106 Y32.5472
G01 X30.5072 Y32.5377
G01 X30.4808 Y32.4461
G01 X30.4786 Y32.4362
G01 X30.4626 Y32.3422
G01 X30.4617 Y32.3322
G00 Z0.5000
G00 X33.0017 Y32.3322
G01 F200.00
G01 Z-0.1500
G01 F200.00
G01 X32.9961 Y32.2370
G01 X32.9961 Y32.2270
G01 X33.0015 Y32.1318
G01 X33.0026 Y32.1218
G01 X33.0186 Y32.0278
G01 X33.0208 Y32.0179
G01 X33.0472 Y31.9263
G01 X33.0506 Y31.9168
G01 X33.0870 Y31.8288
G01 X33.0914 Y31.8197
G01 X33.1422 Y31.7287
G01 X33.1980 Y31.6500
G01 X33.2043 Y31.6421
G01 X33.2679 Y31.5710
G01 X33.2750 Y31.5639
G01 X33.3461 Y31.5003
G01 X33.3540 Y31.4940
G01 X33.4317 Y31.4389
G01 X33.4402 Y31.4335
G01 X33.5323 Y31.3832
G01 X33.6208 Y31.3466
G01 X33.6303 Y31.3432
G01 X33.7219 Y31.3168
G01 X33.7318 Y31.3146
G01 X33.8258 Y31.2986
G01 X33.8358 Y31.2975
G01 X33.9310 Y31.2921
G01 X33.9410 Y31.2921
G01 X34.0362 Y31.2975
G01 X34.0462 Y31.2986
G01 X34.1402 Y31.3146
G01 X34.1501 Y31.3168
G01 X34.2417 Y31.3432
G01 X34.2512 Y31.3466
G01 X34.3392 Y31.3830
G01 X34.3483 Y31.3874
G01 X34.4393 Y31.4382
G01 X34.5180 Y31.4940
G01 X34.5259 Y31.5003
G01 X34.5970 Y31.5639
G01 X34.6041 Y31.5710
G01 X34.6677 Y31.6421
G01 X34.6740 Y31.6500
G01 X34.7291 Y31.7277
G01 X34.7345 Y31.7362
G01 X34.7848 Y31.8283
G01 X34.8214 Y31.9168
G01 X34.8248 Y31.9263
G01 X34.8531 Y32.0258
G01 X34.8694 Y32.1218
G01 X34.8705 Y32.1318
G01 X34.8759 Y32.2270
G01 X34.8759 Y32.2370
G01 X34.8705 Y32.3322
G01 X34.8694 Y32.3422
G01 X34.8534 Y32.4362
G01 X34.8512 Y32.4461
G01 X34.8248 Y32.5377
G01 X34.8214 Y32.5472
G01 X34.7850 Y32.6352
G01 X34.7806 Y32.6443
G01 X34.7345 Y32.7278
G01 X34.7291 Y32.7363
G01 X34.6740 Y32.8140
G01 X34.6677 Y32.8219
G01 X34.6041 Y32.8930
G01 X34.5970 Y32.9001
G01 X34.5259 Y32.9637
G01 X34.5180 Y32.9700
G01 X34.4403 Y33.0251
G01 X34.4262 Y33.0336
G01 X34.4262 Y34.5690
G01 X34.6470 Y34.7898
G01 X36.9840 Y34.7898
G01 X37.0439 Y34.7936
G01 X37.0980 Y34.8034
G01 X37.1411 Y34.8158
G01 X37.1921 Y34.8363
G01 X37.2405 Y34.8624
G01 X37.2856 Y34.8937
G01 X37.3306 Y34.9334
G01 X40.3786 Y37.9814
G01 X40.4120 Y38.0185
G01 X40.4443 Y38.0630
G01 X40.4496 Y38.0715
G01 X40.4755 Y38.1194
G01 X40.4962 Y38.1709
G01 X40.5105 Y38.2219
G01 X40.5195 Y38.2781
G01 X40.5222 Y38.3280
G01 X40.5222 Y40.1739
G01 X40.5184 Y40.2338
G01 X40.5109 Y40.2780
G01 X40.4962 Y40.3310
G01 X40.4757 Y40.3820
G01 X40.4713 Y40.3911
G01 X40.4450 Y40.4379
G01 X40.4120 Y40.4834
G01 X40.3786 Y40.5205
G01 X38.4902 Y42.4090
G01 X38.4902 Y42.6064
G01 X38.5033 Y42.6142
G01 X38.5820 Y42.6700
G01 X38.5899 Y42.6763
G01 X38.6610 Y42.7399
G01 X38.6681 Y42.7470
G01 X38.7317 Y42.8181
G01 X38.7380 Y42.8260
G01 X38.7931 Y42.9037
G01 X38.7985 Y42.9122
G01 X38.8488 Y43.0043
G01 X38.8854 Y43.0928
G01 X38.8888 Y43.1023
G01 X38.9171 Y43.2018
G01 X38.9334 Y43.2978
G01 X38.9345 Y43.3078
G01 X38.9399 Y43.4030
G01 X38.9399 Y43.4130
G01 X38.9345 Y43.5082
G01 X38.9334 Y43.5182
G01 X38.9174 Y43.6122
G01 X38.9152 Y43.6221
G01 X38.8888 Y43.7137
G01 X38.8854 Y43.7232
G01 X38.8490 Y43.8112
G01 X38.8446 Y43.8203
G01 X38.7938 Y43.9113
G01 X38.7380 Y43.9900
G01 X38.7317 Y43.9979
G01 X38.6681 Y44.0690
G01 X38.6610 Y44.0761
G01 X38.5899 Y44.1397
G01 X38.5820 Y44.1460
G01 X38.5043 Y44.2011
G01 X38.4958 Y44.2065
G01 X38.4037 Y44.2568
G01 X38.3152 Y44.2934
G01 X38.3057 Y44.2968
G01 X38.2141 Y44.3232
G01 X38.2042 Y44.3254
G01 X38.1102 Y44.3414
G01 X38.1002 Y44.3425
G01 X38.0050 Y44.3479
G01 X37.9950 Y44.3479
G01 X37.8998 Y44.3425
G01 X37.8898 Y44.3414
G01 X37.7958 Y44.3254
G01 X37.7859 Y44.3232
G01 X37.6943 Y44.2968
G01 X37.6848 Y44.2934
G01 X37.5968 Y44.2570
G01 X37.5877 Y44.2526
G01 X37.4967 Y44.2018
G01 X37.4180 Y44.1460
G01 X37.4101 Y44.1397
G01 X37.3390 Y44.0761
G01 X37.3319 Y44.0690
G01 X37.2683 Y43.9979
G01 X37.2620 Y43.9900
G01 X37.2069 Y43.9123
G01 X37.2015 Y43.9038
G01 X37.1554 Y43.8203
G01 X37.1512 Y43.8117
G01 X37.1146 Y43.7232
G01 X37.1112 Y43.7137
G01 X37.0829 Y43.6142
G01 X37.0666 Y43.5182
G01 X37.0655 Y43.5082
G01 X37.0601 Y43.4130
G01 X37.0601 Y43.4030
G01 X37.0655 Y43.3078
G01 X37.0666 Y43.2978
G01 X37.0826 Y43.2038
G01 X37.0848 Y43.1939
G01 X37.1112 Y43.1023
G01 X37.1146 Y43.0928
G01 X37.1510 Y43.0048
G01 X37.1554 Y42.9957
G01 X37.2062 Y42.9047
G01 X37.2620 Y42.8260
G01 X37.2683 Y42.8181
G01 X37.3319 Y42.7470
G01 X37.3390 Y42.7399
G01 X37.4101 Y42.6763
G01 X37.4180 Y42.6700
G01 X37.4957 Y42.6149
G01 X37.5098 Y42.6064
G01 X37.5098 Y42.2059
G01 X37.5136 Y42.1460
G01 X37.5211 Y42.1018
G01 X37.5358 Y42.0488
G01 X37.5563 Y41.9978
G01 X37.5824 Y41.9495
G01 X37.6137 Y41.9043
G01 X37.6534 Y41.8593
G01 X39.5418 Y39.9709
G01 X39.5418 Y38.5310
G01 X36.7810 Y35.7702
G01 X34.4390 Y35.7701
G01 X34.3941 Y35.7675
G01 X34.3399 Y35.7589
G01 X34.2869 Y35.7442
G01 X34.2359 Y35.7237
G01 X34.2268 Y35.7193
G01 X34.1790 Y35.6923
G01 X34.1345 Y35.6600
G01 X34.0974 Y35.6266
G01 X33.5859 Y35.1150
G01 X33.5497 Y35.0736
G01 X33.5184 Y35.0285
G01 X33.4925 Y34.9806
G01 X33.4718 Y34.9291
G01 X33.4575 Y34.8781
G01 X33.4496 Y34.8319
G01 X33.4458 Y34.7720
G01 X33.4458 Y33.0336
G01 X33.4327 Y33.0258
G01 X33.3540 Y32.9700
G01 X33.3461 Y32.9637
G01 X33.2750 Y32.9001
G01 X33.2679 Y32.8930
G01 X33.2043 Y32.8219
G01 X33.1980 Y32.8140
G01 X33.1429 Y32.7363
G01 X33.1375 Y32.7278
G01 X33.0872 Y32.6357
G01 X33.0506 Y32.5472
G01 X33.0472 Y32.5377
G01 X33.0189 Y32.4382
G01 X33.0026 Y32.3422
G01 X33.0017 Y32.3322
G00 Z0.5000
G00 X33.0017 Y29.7922
G01 F200.00
G01 Z-0.1500
G01 F200.00
G01 X32.9960 Y29.6920
G01 X33.0015 Y29.5918
G01 X33.0026 Y29.5818
G01 X33.0186 Y29.4878
G01 X33.0208 Y29.4779
G01 X33.0472 Y29.3863
G01 X33.0506 Y29.3768
G01 X33.0870 Y29.2888
G01 X33.0914 Y29.2797
G01 X33.1422 Y29.1887
G01 X33.1980 Y29.1100
G01 X33.2043 Y29.1021
G01 X33.2679 Y29.0310
G01 X33.2750 Y29.0239
G01 X33.3461 Y28.9603
G01 X33.3540 Y28.9540
G01 X33.4317 Y28.8989
G01 X33.4402 Y28.8935
G01 X33.5237 Y28.8474
G01 X33.5323 Y28.8432
G01 X33.6208 Y28.8066
G01 X33.6303 Y28.8032
G01 X33.7298 Y28.7749
G01 X33.8258 Y28.7586
G01 X33.8358 Y28.7575
G01 X33.9360 Y28.7520
G01 X34.0362 Y28.7575
G01 X34.0462 Y28.7586
G01 X34.1402 Y28.7746
G01 X34.1501 Y28.7768
G01 X34.2417 Y28.8032
G01 X34.2512 Y28.8066
G01 X34.3392 Y28.8430
G01 X34.3483 Y28.8474
G01 X34.4393 Y28.8982
G01 X34.5180 Y28.9540
G01 X34.5259 Y28.9603
G01 X34.5970 Y29.0239
G01 X34.6041 Y29.0310
G01 X34.6677 Y29.1021
G01 X34.6740 Y29.1100
G01 X34.7291 Y29.1877
G01 X34.7345 Y29.1962
G01 X34.7806 Y29.2797
G01 X34.7848 Y29.2883
G01 X34.8214 Y29.3768
G01 X34.8248 Y29.3863
G01 X34.8531 Y29.4858
G01 X34.8694 Y29.5818
G01 X34.8705 Y29.5918
G01 X34.8760 Y29.6920
G01 X34.8705 Y29.7922
G01 X34.8694 Y29.8022
G01 X34.8534 Y29.8962
G01 X34.8512 Y29.9061
G01 X34.8248 Y29.9977
G01 X34.8214 Y30.0072
G01 X34.7850 Y30.0952
G01 X34.7806 Y30.1043
G01 X34.7298 Y30.1953
G01 X34.6740 Y30.2740
G01 X34.6677 Y30.2819
G01 X34.6041 Y30.3530
G01 X34.5970 Y30.3601
G01 X34.5259 Y30.4237
G01 X34.5180 Y30.4300
G01 X34.4403 Y30.4851
G01 X34.4318 Y30.4905
G01 X34.3483 Y30.5366
G01 X34.3397 Y30.5408
G01 X34.2512 Y30.5774
G01 X34.2417 Y30.5808
G01 X34.1422 Y30.6091
G01 X34.0462 Y30.6254
G01 X34.0362 Y30.6265
G01 X33.9360 Y30.6320
G01 X33.8358 Y30.6265
G01 X33.8258 Y30.6254
G01 X33.7318 Y30.6094
G01 X33.7219 Y30.6072
G01 X33.6303 Y30.5808
G01 X33.6208 Y30.5774
G01 X33.5328 Y30.5410
G01 X33.5237 Y30.5366
G01 X33.4327 Y30.4858
G01 X33.3540 Y30.4300
G01 X33.3461 Y30.4237
G01 X33.2750 Y30.3601
G01 X33.2679 Y30.3530
G01 X33.2043 Y30.2819
G01 X33.1980 Y30.2740
G01 X33.1429 Y30.1963
G01 X33.1375 Y30.1878
G01 X33.0914 Y30.1043
G01 X33.0872 Y30.0957
G01 X33.0506 Y30.0072
G01 X33.0472 Y29.9977
G01 X33.0208 Y29.9061
G01 X33.0186 Y29.8962
G01 X33.0026 Y29.8022
G01 X33.0017 Y29.7922
G00 Z0.5000
G00 X35.5417 Y29.7922
G01 F200.00
G01 Z-0.1500
G01 F200.00
G01 X35.5360 Y29.6920
G01 X35.5415 Y29.5918
G01 X35.5426 Y29.5818
G01 X35.5586 Y29.4878
G01 X35.5608 Y29.4779
G01 X35.5872 Y29.3863
G01 X35.5906 Y29.3768
G01 X35.6270 Y29.2888
G01 X35.6314 Y29.2797
G01 X35.6822 Y29.1887
G01 X35.7380 Y29.1100
G01 X35.7443 Y29.1021
G01 X35.8079 Y29.0310
G01 X35.8150 Y29.0239
G01 X35.8861 Y28.9603
G01 X35.8940 Y28.9540
G01 X35.9717 Y28.8989
G01 X35.9802 Y28.8935
G01 X36.0637 Y28.8474
G01 X36.0723 Y28.8432
G01 X36.1608 Y28.8066
G01 X36.1703 Y28.8032
G01 X36.2698 Y28.7749
G01 X36.3658 Y28.7586
G01 X36.3758 Y28.7575
G01 X36.4760 Y28.7520
G01 X36.5762 Y28.7575
G01 X36.5862 Y28.7586
G01 X36.6802 Y28.7746
G01 X36.6901 Y28.7768
G01 X36.7817 Y28.8032
G01 X36.7912 Y28.8066
G01 X36.8792 Y28.8430
G01 X36.8883 Y28.8474
G01 X36.9793 Y28.8982
G01 X37.0580 Y28.9540
G01 X37.0659 Y28.9603
G01 X37.1370 Y29.0239
G01 X37.1441 Y29.0310
G01 X37.2077 Y29.1021
G01 X37.2140 Y29.1100
G01 X37.2691 Y29.1877
G01 X37.2745 Y29.1962
G01 X37.3206 Y29.2797
G01 X37.3248 Y29.2883
G01 X37.3614 Y29.3768
G01 X37.3648 Y29.3863
G01 X37.3931 Y29.4858
G01 X37.4094 Y29.5818
G01 X37.4105 Y29.5918
G01 X37.4160 Y29.6920
G01 X37.4105 Y29.7922
G01 X37.4094 Y29.8022
G01 X37.3934 Y29.8962
G01 X37.3912 Y29.9061
G01 X37.3648 Y29.9977
G01 X37.3614 Y30.0072
G01 X37.3250 Y30.0952
G01 X37.3206 Y30.1043
G01 X37.2698 Y30.1953
G01 X37.2140 Y30.2740
G01 X37.2077 Y30.2819
G01 X37.1441 Y30.3530
G01 X37.1370 Y30.3601
G01 X37.0659 Y30.4237
G01 X37.0580 Y30.4300
G01 X36.9803 Y30.4851
G01 X36.9718 Y30.4905
G01 X36.8883 Y30.5366
G01 X36.8797 Y30.5408
G01 X36.7912 Y30.5774
G01 X36.7817 Y30.5808
G01 X36.6822 Y30.6091
G01 X36.5862 Y30.6254
G01 X36.5762 Y30.6265
G01 X36.4760 Y30.6320
G01 X36.3758 Y30.6265
G01 X36.3658 Y30.6254
G01 X36.2718 Y30.6094
G01 X36.2619 Y30.6072
G01 X36.1703 Y30.5808
G01 X36.1608 Y30.5774
G01 X36.0728 Y30.5410
G01 X36.0637 Y30.5366
G01 X35.9727 Y30.4858
G01 X35.8940 Y30.4300
G01 X35.8861 Y30.4237
G01 X35.8150 Y30.3601
G01 X35.8079 Y30.3530
G01 X35.7443 Y30.2819
G01 X35.7380 Y30.2740
G01 X35.6829 Y30.1963
G01 X35.6775 Y30.1878
G01 X35.6314 Y30.1043
G01 X35.6272 Y30.0957
G01 X35.5906 Y30.0072
G01 X35.5872 Y29.9977
G01 X35.5608 Y29.9061
G01 X35.5586 Y29.8962
G01 X35.5426 Y29.8022
G01 X35.5417 Y29.7922
G00 Z0.5000
G00 X35.5417 Y32.3322
G01 F200.00
G01 Z-0.1500
G01 F200.00
G01 X35.5360 Y32.2320
G01 X35.5415 Y32.1318
G01 X35.5426 Y32.1218
G01 X35.5586 Y32.0278
G01 X35.5608 Y32.0179
G01 X35.5872 Y31.9263
G01 X35.5906 Y31.9168
G01 X35.6270 Y31.8288
G01 X35.6314 Y31.8197
G01 X35.6822 Y31.7287
G01 X35.7380 Y31.6500
G01 X35.7443 Y31.6421
G01 X35.8079 Y31.5710
G01 X35.8150 Y31.5639
G01 X35.8861 Y31.5003
G01 X35.8940 Y31.4940
G01 X35.9717 Y31.4389
G01 X35.9802 Y31.4335
G01 X36.0637 Y31.3874
G01 X36.0723 Y31.3832
G01 X36.1608 Y31.3466
G01 X36.1703 Y31.3432
G01 X36.2698 Y31.3149
G01 X36.3658 Y31.2986
G01 X36.3758 Y31.2975
G01 X36.4760 Y31.2920
G01 X36.5762 Y31.2975
G01 X36.5862 Y31.2986
G01 X36.6802 Y31.3146
G01 X36.6901 Y31.3168
G01 X36.7817 Y31.3432
G01 X36.7912 Y31.3466
G01 X36.8792 Y31.3830
G01 X36.8883 Y31.3874
G01 X36.9793 Y31.4382
G01 X37.0580 Y31.4940
G01 X37.0659 Y31.5003
G01 X37.1370 Y31.5639
G01 X37.1441 Y31.5710
G01 X37.2077 Y31.6421
G01 X37.2140 Y31.6500
G01 X37.2691 Y31.7277
G01 X37.2745 Y31.7362
G01 X37.3206 Y31.8197
G01 X37.3248 Y31.8283
G01 X37.3614 Y31.9168
G01 X37.3648 Y31.9263
G01 X37.3931 Y32.0258
G01 X37.4094 Y32.1218
G01 X37.4105 Y32.1318
G01 X37.4160 Y32.2320
G01 X37.4105 Y32.3322
G01 X37.4094 Y32.3422
G01 X37.3934 Y32.4362
G01 X37.3912 Y32.4461
G01 X37.3648 Y32.5377
G01 X37.3614 Y32.5472
G01 X37.3250 Y32.6352
G01 X37.3206 Y32.6443
G01 X37.2698 Y32.7353
G01 X37.2140 Y32.8140
G01 X37.2077 Y32.8219
G01 X37.1441 Y32.8930
G01 X37.1370 Y32.9001
G01 X37.0659 Y32.9637
G01 X37.0580 Y32.9700
G01 X36.9803 Y33.0251
G01 X36.9718 Y33.0305
G01 X36.8883 Y33.0766
G01 X36.8797 Y33.0808
G01 X36.7912 Y33.1174
G01 X36.7817 Y33.1208
G01 X36.6822 Y33.1491
G01 X36.5862 Y33.1654
G01 X36.5762 Y33.1665
G01 X36.4760 Y33.1720
G01 X36.3758 Y33.1665
G01 X36.3658 Y33.1654
G01 X36.2718 Y33.1494
G01 X36.2619 Y33.1472
G01 X36.1703 Y33.1208
G01 X36.1608 Y33.1174
G01 X36.0728 Y33.0810
G01 X36.0637 Y33.0766
G01 X35.9727 Y33.0258
G01 X35.8940 Y32.9700
G01 X35.8861 Y32.9637
G01 X35.8150 Y32.9001
G01 X35.8079 Y32.8930
G01 X35.7443 Y32.8219
G01 X35.7380 Y32.8140
G01 X35.6829 Y32.7363
G01 X35.6775 Y32.7278
G01 X35.6314 Y32.6443
G01 X35.6272 Y32.6357
G01 X35.5906 Y32.5472
G01 X35.5872 Y32.5377
G01 X35.5608 Y32.4461
G01 X35.5586 Y32.4362
G01 X35.5426 Y32.3422
G01 X35.5417 Y32.3322
G00 Z0.5000
G00 X38.0817 Y32.3322
G01 F200.00
G01 Z-0.1500
G01 F200.00
G01 X38.0760 Y32.2320
G01 X38.0815 Y32.1318
G01 X38.0826 Y32.1218
G01 X38.0986 Y32.0278
G01 X38.1008 Y32.0179
G01 X38.1272 Y31.9263
G01 X38.1306 Y31.9168
G01 X38.1670 Y31.8288
G01 X38.1714 Y31.8197
G01 X38.2222 Y31.7287
G01 X38.2780 Y31.6500
G01 X38.2843 Y31.6421
G01 X38.3479 Y31.5710
G01 X38.3550 Y31.5639
G01 X38.4261 Y31.5003
G01 X38.4340 Y31.4940
G01 X38.5117 Y31.4389
G01 X38.5202 Y31.4335
G01 X38.6037 Y31.3874
G01 X38.6123 Y31.3832
G01 X38.7008 Y31.3466
G01 X38.7103 Y31.3432
G01 X38.8098 Y31.3149
G01 X38.9058 Y31.2986
G01 X38.9158 Y31.2975
G01 X39.0160 Y31.2920
G01 X39.1162 Y31.2975
G01 X39.1262 Y31.2986
G01 X39.2202 Y31.3146
G01 X39.2301 Y31.3168
G01 X39.3217 Y31.3432
G01 X39.3312 Y31.3466
G01 X39.4192 Y31.3830
G01 X39.4283 Y31.3874
G01 X39.5193 Y31.4382
G01 X39.5980 Y31.4940
G01 X39.6059 Y31.5003
G01 X39.6770 Y31.5639
G01 X39.6841 Y31.5710
G01 X39.7477 Y31.6421
G01 X39.7540 Y31.6500
G01 X39.8091 Y31.7277
G01 X39.8145 Y31.7362
G01 X39.8606 Y31.8197
G01 X39.8648 Y31.8283
G01 X39.9014 Y31.9168
G01 X39.9048 Y31.9263
G01 X39.9331 Y32.0258
G01 X39.9494 Y32.1218
G01 X39.9505 Y32.1318
G01 X39.9560 Y32.2320
G01 X39.9505 Y32.3322
G01 X39.9494 Y32.3422
G01 X39.9334 Y32.4362
G01 X39.9312 Y32.4461
G01 X39.9048 Y32.5377
G01 X39.9014 Y32.5472
G01 X39.8650 Y32.6352
G01 X39.8606 Y32.6443
G01 X39.8098 Y32.7353
G01 X39.7540 Y32.8140
G01 X39.7477 Y32.8219
G01 X39.6841 Y32.8930
G01 X39.6770 Y32.9001
G01 X39.6059 Y32.9637
G01 X39.5980 Y32.9700
G01 X39.5203 Y33.0251
G01 X39.5118 Y33.0305
G01 X39.4283 Y33.0766
G01 X39.4197 Y33.0808
G01 X39.3312 Y33.1174
G01 X39.3217 Y33.1208
G01 X39.2222 Y33.1491
G01 X39.1262 Y33.1654
G01 X39.1162 Y33.1665
G01 X39.0160 Y33.1720
G01 X38.9158 Y33.1665
G01 X38.9058 Y33.1654
G01 X38.8118 Y33.1494
G01 X38.8019 Y33.1472
G01 X38.7103 Y33.1208
G01 X38.7008 Y33.1174
G01 X38.6128 Y33.0810
G01 X38.6037 Y33.0766
G01 X38.5127 Y33.0258
G01 X38.4340 Y32.9700
G01 X38.4261 Y32.9637
G01 X38.3550 Y32.9001
G01 X38.3479 Y32.8930
G01 X38.2843 Y32.8219
G01 X38.2780 Y32.8140
G01 X38.2229 Y32.7363
G01 X38.2175 Y32.7278
G01 X38.1714 Y32.6443
G01 X38.1672 Y32.6357
G01 X38.1306 Y32.5472
G01 X38.1272 Y32.5377
G01 X38.1008 Y32.4461
G01 X38.0986 Y32.4362
G01 X38.0826 Y32.3422
G01 X38.0817 Y32.3322
G00 Z0.5000
G00 X40.6217 Y32.3322
G01 F200.00
G01 Z-0.1500
G01 F200.00
G01 X40.6160 Y32.2320
G01 X40.6215 Y32.1318
G01 X40.6226 Y32.1218
G01 X40.6386 Y32.0278
G01 X40.6408 Y32.0179
G01 X40.6672 Y31.9263
G01 X40.6706 Y31.9168
G01 X40.7070 Y31.8288
G01 X40.7114 Y31.8197
G01 X40.7622 Y31.7287
G01 X40.8180 Y31.6500
G01 X40.8243 Y31.6421
G01 X40.8879 Y31.5710
G01 X40.8950 Y31.5639
G01 X40.9661 Y31.5003
G01 X40.9740 Y31.4940
G01 X41.0517 Y31.4389
G01 X41.0602 Y31.4335
G01 X41.1437 Y31.3874
G01 X41.1523 Y31.3832
G01 X41.2408 Y31.3466
G01 X41.2503 Y31.3432
G01 X41.3498 Y31.3149
G01 X41.4458 Y31.2986
G01 X41.4558 Y31.2975
G01 X41.5560 Y31.2920
G01 X41.6562 Y31.2975
G01 X41.6662 Y31.2986
G01 X41.7602 Y31.3146
G01 X41.7701 Y31.3168
G01 X41.8617 Y31.3432
G01 X41.8712 Y31.3466
G01 X41.9592 Y31.3830
G01 X41.9683 Y31.3874
G01 X42.0593 Y31.4382
G01 X42.1380 Y31.4940
G01 X42.1459 Y31.5003
G01 X42.2170 Y31.5639
G01 X42.2241 Y31.5710
G01 X42.2877 Y31.6421
G01 X42.2940 Y31.6500
G01 X42.3491 Y31.7277
G01 X42.3545 Y31.7362
G01 X42.4006 Y31.8197
G01 X42.4048 Y31.8283
G01 X42.4414 Y31.9168
G01 X42.4448 Y31.9263
G01 X42.4731 Y32.0258
G01 X42.4894 Y32.1218
G01 X42.4905 Y32.1318
G01 X42.4960 Y32.2320
G01 X42.4905 Y32.3322
G01 X42.4894 Y32.3422
G01 X42.4734 Y32.4362
G01 X42.4712 Y32.4461
G01 X42.4448 Y32.5377
G01 X42.4414 Y32.5472
G01 X42.4050 Y32.6352
G01 X42.4006 Y32.6443
G01 X42.3498 Y32.7353
G01 X42.2940 Y32.8140
G01 X42.2877 Y32.8219
G01 X42.2241 Y32.8930
G01 X42.2170 Y32.9001
G01 X42.1459 Y32.9637
G01 X42.1380 Y32.9700
G01 X42.0603 Y33.0251
G01 X42.0518 Y33.0305
G01 X41.9683 Y33.0766
G01 X41.9597 Y33.0808
G01 X41.8712 Y33.1174
G01 X41.8617 Y33.1208
G01 X41.7622 Y33.1491
G01 X41.6662 Y33.1654
G01 X41.6562 Y33.1665
G01 X41.5560 Y33.1720
G01 X41.4558 Y33.1665
G01 X41.4458 Y33.1654
G01 X41.3518 Y33.1494
G01 X41.3419 Y33.1472
G01 X41.2503 Y33.1208
G01 X41.2408 Y33.1174
G01 X41.1528 Y33.0810
G01 X41.1437 Y33.0766
G01 X41.0527 Y33.0258
G01 X40.9740 Y32.9700
G01 X40.9661 Y32.9637
G01 X40.8950 Y32.9001
G01 X40.8879 Y32.8930
G01 X40.8243 Y32.8219
G01 X40.8180 Y32.8140
G01 X40.7629 Y32.7363
G01 X40.7575 Y32.7278
G01 X40.7114 Y32.6443
G01 X40.7072 Y32.6357
G01 X40.6706 Y32.5472
G01 X40.6672 Y32.5377
G01 X40.6408 Y32.4461
G01 X40.6386 Y32.4362
G01 X40.6226 Y32.3422
G01 X40.6217 Y32.3322
G00 Z0.5000
G00 X43.1617 Y32.3322
G01 F200.00
G01 Z-0.1500
G01 F200.00
G01 X43.1560 Y32.2320
G01 X43.1615 Y32.1318
G01 X43.1626 Y32.1218
G01 X43.1786 Y32.0278
G01 X43.1808 Y32.0179
G01 X43.2072 Y31.9263
G01 X43.2106 Y31.9168
G01 X43.2470 Y31.8288
G01 X43.2514 Y31.8197
G01 X43.3022 Y31.7287
G01 X43.3580 Y31.6500
G01 X43.3643 Y31.6421
G01 X43.4279 Y31.5710
G01 X43.4350 Y31.5639
G01 X43.5061 Y31.5003
G01 X43.5140 Y31.4940
G01 X43.5917 Y31.4389
G01 X43.6002 Y31.4335
G01 X43.6837 Y31.3874
G01 X43.6923 Y31.3832
G01 X43.7808 Y31.3466
G01 X43.7903 Y31.3432
G01 X43.8898 Y31.3149
G01 X43.9858 Y31.2986
G01 X43.9958 Y31.2975
G01 X44.0960 Y31.2920
G01 X44.1962 Y31.2975
G01 X44.2062 Y31.2986
G01 X44.3002 Y31.3146
G01 X44.3101 Y31.3168
G01 X44.4017 Y31.3432
G01 X44.4112 Y31.3466
G01 X44.4992 Y31.3830
G01 X44.5083 Y31.3874
G01 X44.5993 Y31.4382
G01 X44.6780 Y31.4940
G01 X44.6859 Y31.5003
G01 X44.7570 Y31.5639
G01 X44.7641 Y31.5710
G01 X44.8277 Y31.6421
G01 X44.8340 Y31.6500
G01 X44.8891 Y31.7277
G01 X44.8945 Y31.7362
G01 X44.9406 Y31.8197
G01 X44.9448 Y31.8283
G01 X44.9814 Y31.9168
G01 X44.9848 Y31.9263
G01 X45.0131 Y32.0258
G01 X45.0294 Y32.1218
G01 X45.0305 Y32.1318
G01 X45.0360 Y32.2320
G01 X45.0305 Y32.3322
G01 X45.0294 Y32.3422
G01 X45.0134 Y32.4362
G01 X45.0112 Y32.4461
G01 X44.9848 Y32.5377
G01 X44.9814 Y32.5472
G01 X44.9450 Y32.6352
G01 X44.9406 Y32.6443
G01 X44.8898 Y32.7353
G01 X44.8340 Y32.8140
G01 X44.8277 Y32.8219
G01 X44.7641 Y32.8930
G01 X44.7570 Y32.9001
G01 X44.6859 Y32.9637
G01 X44.6780 Y32.9700
G01 X44.6003 Y33.0251
G01 X44.5918 Y33.0305
G01 X44.5083 Y33.0766
G01 X44.4997 Y33.0808
G01 X44.4112 Y33.1174
G01 X44.4017 Y33.1208
G01 X44.3022 Y33.1491
G01 X44.2062 Y33.1654
G01 X44.1962 Y33.1665
G01 X44.0960 Y33.1720
G01 X43.9958 Y33.1665
G01 X43.9858 Y33.1654
G01 X43.8918 Y33.1494
G01 X43.8819 Y33.1472
G01 X43.7903 Y33.1208
G01 X43.7808 Y33.1174
G01 X43.6928 Y33.0810
G01 X43.6837 Y33.0766
G01 X43.5927 Y33.0258
G01 X43.5140 Y32.9700
G01 X43.5061 Y32.9637
G01 X43.4350 Y32.9001
G01 X43.4279 Y32.8930
G01 X43.3643 Y32.8219
G01 X43.3580 Y32.8140
G01 X43.3029 Y32.7363
G01 X43.2975 Y32.7278
G01 X43.2514 Y32.6443
G01 X43.2472 Y32.6357
G01 X43.2106 Y32.5472
G01 X43.2072 Y32.5377
G01 X43.1808 Y32.4461
G01 X43.1786 Y32.4362
G01 X43.1626 Y32.3422
G01 X43.1617 Y32.3322
G00 Z0.5000
G00 X45.7017 Y32.3322
G01 F200.00
G01 Z-0.1500
G01 F200.00
G01 X45.6960 Y32.2320
G01 X45.7015 Y32.1318
G01 X45.7026 Y32.1218
G01 X45.7186 Y32.0278
G01 X45.7208 Y32.0179
G01 X45.7472 Y31.9263
G01 X45.7506 Y31.9168
G01 X45.7870 Y31.8288
G01 X45.7914 Y31.8197
G01 X45.8422 Y31.7287
G01 X45.8980 Y31.6500
G01 X45.9043 Y31.6421
G01 X45.9679 Y31.5710
G01 X45.9750 Y31.5639
G01 X46.0461 Y31.5003
G01 X46.0540 Y31.4940
G01 X46.1317 Y31.4389
G01 X46.1402 Y31.4335
G01 X46.2237 Y31.3874
G01 X46.2323 Y31.3832
G01 X46.3208 Y31.3466
G01 X46.3303 Y31.3432
G01 X46.4298 Y31.3149
G01 X46.5258 Y31.2986
G01 X46.5358 Y31.2975
G01 X46.6360 Y31.2920
G01 X46.7362 Y31.2975
G01 X46.7462 Y31.2986
G01 X46.8402 Y31.3146
G01 X46.8501 Y31.3168
G01 X46.9417 Y31.3432
G01 X46.9512 Y31.3466
G01 X47.0392 Y31.3830
G01 X47.0483 Y31.3874
G01 X47.1393 Y31.4382
G01 X47.2180 Y31.4940
G01 X47.2259 Y31.5003
G01 X47.2970 Y31.5639
G01 X47.3041 Y31.5710
G01 X47.3677 Y31.6421
G01 X47.3740 Y31.6500
G01 X47.4291 Y31.7277
G01 X47.4345 Y31.7362
G01 X47.4806 Y31.8197
G01 X47.4848 Y31.8283
G01 X47.5214 Y31.9168
G01 X47.5248 Y31.9263
G01 X47.5531 Y32.0258
G01 X47.5694 Y32.1218
G01 X47.5705 Y32.1318
G01 X47.5760 Y32.2320
G01 X47.5705 Y32.3322
G01 X47.5694 Y32.3422
G01 X47.5534 Y32.4362
G01 X47.5512 Y32.4461
G01 X47.5248 Y32.5377
G01 X47.5214 Y32.5472
G01 X47.4850 Y32.6352
G01 X47.4806 Y32.6443
G01 X47.4298 Y32.7353
G01 X47.3740 Y32.8140
G01 X47.3677 Y32.8219
G01 X47.3041 Y32.8930
G01 X47.2970 Y32.9001
G01 X47.2259 Y32.9637
G01 X47.2180 Y32.9700
G01 X47.1403 Y33.0251
G01 X47.1318 Y33.0305
G01 X47.0483 Y33.0766
G01 X47.0397 Y33.0808
G01 X46.9512 Y33.1174
G01 X46.9417 Y33.1208
G01 X46.8422 Y33.1491
G01 X46.7462 Y33.1654
G01 X46.7362 Y33.1665
G01 X46.6360 Y33.1720
G01 X46.5358 Y33.1665
G01 X46.5258 Y33.1654
G01 X46.4318 Y33.1494
G01 X46.4219 Y33.1472
G01 X46.3303 Y33.1208
G01 X46.3208 Y33.1174
G01 X46.2328 Y33.0810
G01 X46.2237 Y33.0766
G01 X46.1327 Y33.0258
G01 X46.0540 Y32.9700
G01 X46.0461 Y32.9637
G01 X45.9750 Y32.9001
G01 X45.9679 Y32.8930
G01 X45.9043 Y32.8219
G01 X45.8980 Y32.8140
G01 X45.8429 Y32.7363
G01 X45.8375 Y32.7278
G01 X45.7914 Y32.6443
G01 X45.7872 Y32.6357
G01 X45.7506 Y32.5472
G01 X45.7472 Y32.5377
G01 X45.7208 Y32.4461
G01 X45.7186 Y32.4362
G01 X45.7026 Y32.3422
G01 X45.7017 Y32.3322
G00 Z0.5000
G00 X45.7017 Y29.7922
G01 F200.00
G01 Z-0.1500
G01 F200.00
G01 X45.6960 Y29.6920
G01 X45.7015 Y29.5918
G01 X45.7026 Y29.5818
G01 X45.7186 Y29.4878
G01 X45.7208 Y29.4779
G01 X45.7472 Y29.3863
G01 X45.7506 Y29.3768
G01 X45.7870 Y29.2888
G01 X45.7914 Y29.2797
G01 X45.8422 Y29.1887
G01 X45.8980 Y29.1100
G01 X45.9043 Y29.1021
G01 X45.9679 Y29.0310
G01 X45.9750 Y29.0239
G01 X46.0461 Y28.9603
G01 X46.0540 Y28.9540
G01 X46.1317 Y28.8989
G01 X46.1402 Y28.8935
G01 X46.2237 Y28.8474
G01 X46.2323 Y28.8432
G01 X46.3208 Y28.8066
G01 X46.3303 Y28.8032
G01 X46.4298 Y28.7749
G01 X46.5258 Y28.7586
G01 X46.5358 Y28.7575
G01 X46.6360 Y28.7520
G01 X46.7362 Y28.7575
G01 X46.7462 Y28.7586
G01 X46.8402 Y28.7746
G01 X46.8501 Y28.7768
G01 X46.9417 Y28.8032
G01 X46.9512 Y28.8066
G01 X47.0392 Y28.8430
G01 X47.0483 Y28.8474
G01 X47.1393 Y28.8982
G01 X47.2180 Y28.9540
G01 X47.2259 Y28.9603
G01 X47.2970 Y29.0239
G01 X47.3041 Y29.0310
G01 X47.3677 Y29.1021
G01 X47.3740 Y29.1100
G01 X47.4291 Y29.1877
G01 X47.4345 Y29.1962
G01 X47.4806 Y29.2797
G01 X47.4848 Y29.2883
G01 X47.5214 Y29.3768
G01 X47.5248 Y29.3863
G01 X47.5531 Y29.4858
G01 X47.5694 Y29.5818
G01 X47.5705 Y29.5918
G01 X47.5760 Y29.6920
G01 X47.5705 Y29.7922
G01 X47.5694 Y29.8022
G01 X47.5534 Y29.8962
G01 X47.5512 Y29.9061
G01 X47.5248 Y29.9977
G01 X47.5214 Y30.0072
G01 X47.4850 Y30.0952
G01 X47.4806 Y30.1043
G01 X47.4298 Y30.1953
G01 X47.3740 Y30.2740
G01 X47.3677 Y30.2819
G01 X47.3041 Y30.3530
G01 X47.2970 Y30.3601
G01 X47.2259 Y30.4237
G01 X47.2180 Y30.4300
G01 X47.1403 Y30.4851
G01 X47.1318 Y30.4905
G01 X47.0483 Y30.5366
G01 X47.0397 Y30.5408
G01 X46.9512 Y30.5774
G01 X46.9417 Y30.5808
G01 X46.8422 Y30.6091
G01 X46.7462 Y30.6254
G01 X46.7362 Y30.6265
G01 X46.6360 Y30.6320
G01 X46.5358 Y30.6265
G01 X46.5258 Y30.6254
G01 X46.4318 Y30.6094
G01 X46.4219 Y30.6072
G01 X46.3303 Y30.5808
G01 X46.3208 Y30.5774
G01 X46.2328 Y30.5410
G01 X46.2237 Y30.5366
G01 X46.1327 Y30.4858
G01 X46.0540 Y30.4300
G01 X46.0461 Y30.4237
G01 X45.9750 Y30.3601
G01 X45.9679 Y30.3530
G01 X45.9043 Y30.2819
G01 X45.8980 Y30.2740
G01 X45.8429 Y30.1963
G01 X45.8375 Y30.1878
G01 X45.7914 Y30.1043
G01 X45.7872 Y30.0957
G01 X45.7506 Y30.0072
G01 X45.7472 Y29.9977
G01 X45.7208 Y29.9061
G01 X45.7186 Y29.8962
G01 X45.7026 Y29.8022
G01 X45.7017 Y29.7922
G00 Z0.5000
G00 X43.1617 Y29.7922
G01 F200.00
G01 Z-0.1500
G01 F200.00
G01 X43.1560 Y29.6920
G01 X43.1615 Y29.5918
G01 X43.1626 Y29.5818
G01 X43.1786 Y29.4878
G01 X43.1808 Y29.4779
G01 X43.2072 Y29.3863
G01 X43.2106 Y29.3768
G01 X43.2470 Y29.2888
G01 X43.2514 Y29.2797
G01 X43.3022 Y29.1887
G01 X43.3580 Y29.1100
G01 X43.3643 Y29.1021
G01 X43.4279 Y29.0310
G01 X43.4350 Y29.0239
G01 X43.5061 Y28.9603
G01 X43.5140 Y28.9540
G01 X43.5917 Y28.8989
G01 X43.6002 Y28.8935
G01 X43.6837 Y28.8474
G01 X43.6923 Y28.8432
G01 X43.7808 Y28.8066
G01 X43.7903 Y28.8032
G01 X43.8898 Y28.7749
G01 X43.9858 Y28.7586
G01 X43.9958 Y28.7575
G01 X44.0960 Y28.7520
G01 X44.1962 Y28.7575
G01 X44.2062 Y28.7586
G01 X44.3002 Y28.7746
G01 X44.3101 Y28.7768
G01 X44.4017 Y28.8032
G01 X44.4112 Y28.8066
G01 X44.4992 Y28.8430
G01 X44.5083 Y28.8474
G01 X44.5993 Y28.8982
G01 X44.6780 Y28.9540
G01 X44.6859 Y28.9603
G01 X44.7570 Y29.0239
G01 X44.7641 Y29.0310
G01 X44.8277 Y29.1021
G01 X44.8340 Y29.1100
G01 X44.8891 Y29.1877
G01 X44.8945 Y29.1962
G01 X44.9406 Y29.2797
G01 X44.9448 Y29.2883
G01 X44.9814 Y29.3768
G01 X44.9848 Y29.3863
G01 X45.0131 Y29.4858
G01 X45.0294 Y29.5818
G01 X45.0305 Y29.5918
G01 X45.0360 Y29.6920
G01 X45.0305 Y29.7922
G01 X45.0294 Y29.8022
G01 X45.0134 Y29.8962
G01 X45.0112 Y29.9061
G01 X44.9848 Y29.9977
G01 X44.9814 Y30.0072
G01 X44.9450 Y30.0952
G01 X44.9406 Y30.1043
G01 X44.8898 Y30.1953
G01 X44.8340 Y30.2740
G01 X44.8277 Y30.2819
G01 X44.7641 Y30.3530
G01 X44.7570 Y30.3601
G01 X44.6859 Y30.4237
G01 X44.6780 Y30.4300
G01 X44.6003 Y30.4851
G01 X44.5918 Y30.4905
G01 X44.5083 Y30.5366
G01 X44.4997 Y30.5408
G01 X44.4112 Y30.5774
G01 X44.4017 Y30.5808
G01 X44.3022 Y30.6091
G01 X44.2062 Y30.6254
G01 X44.1962 Y30.6265
G01 X44.0960 Y30.6320
G01 X43.9958 Y30.6265
G01 X43.9858 Y30.6254
G01 X43.8918 Y30.6094
G01 X43.8819 Y30.6072
G01 X43.7903 Y30.5808
G01 X43.7808 Y30.5774
G01 X43.6928 Y30.5410
G01 X43.6837 Y30.5366
G01 X43.5927 Y30.4858
G01 X43.5140 Y30.4300
G01 X43.5061 Y30.4237
G01 X43.4350 Y30.3601
G01 X43.4279 Y30.3530
G01 X43.3643 Y30.2819
G01 X43.3580 Y30.2740
G01 X43.3029 Y30.1963
G01 X43.2975 Y30.1878
G01 X43.2514 Y30.1043
G01 X43.2472 Y30.0957
G01 X43.2106 Y30.0072
G01 X43.2072 Y29.9977
G01 X43.1808 Y29.9061
G01 X43.1786 Y29.8962
G01 X43.1626 Y29.8022
G01 X43.1617 Y29.7922
G00 Z0.5000
G00 X40.6217 Y29.7922
G01 F200.00
G01 Z-0.1500
G01 F200.00
G01 X40.6161 Y29.6970
G01 X40.6161 Y29.6870
G01 X40.6215 Y29.5918
G01 X40.6226 Y29.5818
G01 X40.6386 Y29.4878
G01 X40.6408 Y29.4779
G01 X40.6672 Y29.3863
G01 X40.6706 Y29.3768
G01 X40.7070 Y29.2888
G01 X40.7114 Y29.2797
G01 X40.7622 Y29.1887
G01 X40.8180 Y29.1100
G01 X40.8243 Y29.1021
G01 X40.8879 Y29.0310
G01 X40.8950 Y29.0239
G01 X40.9661 Y28.9603
G01 X40.9740 Y28.9540
G01 X41.0517 Y28.8989
G01 X41.0658 Y28.8904
G01 X41.0659 Y28.1630
G01 X41.0696 Y28.1081
G01 X41.0794 Y28.0540
G01 X41.0951 Y28.0014
G01 X41.1167 Y27.9508
G01 X41.1430 Y27.9040
G01 X41.1697 Y27.8664
G01 X41.2094 Y27.8214
G01 X42.2955 Y26.7353
G01 X42.2900 Y26.6440
G01 X42.2945 Y26.5606
G01 X42.2957 Y26.5505
G01 X42.3088 Y26.4732
G01 X42.3111 Y26.4633
G01 X42.3328 Y26.3879
G01 X42.3361 Y26.3784
G01 X42.3662 Y26.3058
G01 X42.3706 Y26.2967
G01 X42.4132 Y26.2205
G01 X42.4593 Y26.1555
G01 X42.4656 Y26.1476
G01 X42.5179 Y26.0891
G01 X42.5251 Y26.0819
G01 X42.5836 Y26.0296
G01 X42.5915 Y26.0233
G01 X42.6555 Y25.9779
G01 X42.6640 Y25.9725
G01 X42.7414 Y25.9304
G01 X42.8144 Y25.9001
G01 X42.8239 Y25.8968
G01 X42.9072 Y25.8732
G01 X42.9865 Y25.8597
G01 X42.9966 Y25.8585
G01 X43.0800 Y25.8540
G01 X43.1634 Y25.8585
G01 X43.1735 Y25.8597
G01 X43.2508 Y25.8728
G01 X43.2607 Y25.8751
G01 X43.3361 Y25.8968
G01 X43.3456 Y25.9001
G01 X43.4182 Y25.9302
G01 X43.4273 Y25.9346
G01 X43.5035 Y25.9772
G01 X43.5685 Y26.0233
G01 X43.5764 Y26.0296
G01 X43.6349 Y26.0819
G01 X43.6421 Y26.0891
G01 X43.6944 Y26.1476
G01 X43.7007 Y26.1555
G01 X43.7461 Y26.2195
G01 X43.7515 Y26.2280
G01 X43.7936 Y26.3054
G01 X43.8239 Y26.3784
G01 X43.8272 Y26.3879
G01 X43.8489 Y26.4633
G01 X43.8512 Y26.4732
G01 X43.8643 Y26.5505
G01 X43.8655 Y26.5606
G01 X43.8700 Y26.6440
G01 X43.8655 Y26.7274
G01 X43.8643 Y26.7375
G01 X43.8512 Y26.8148
G01 X43.8489 Y26.8247
G01 X43.8272 Y26.9001
G01 X43.8239 Y26.9096
G01 X43.7938 Y26.9822
G01 X43.7894 Y26.9913
G01 X43.7468 Y27.0675
G01 X43.7007 Y27.1325
G01 X43.6944 Y27.1404
G01 X43.6421 Y27.1989
G01 X43.6349 Y27.2061
G01 X43.5764 Y27.2584
G01 X43.5685 Y27.2647
G01 X43.5045 Y27.3101
G01 X43.4960 Y27.3155
G01 X43.4186 Y27.3576
G01 X43.3456 Y27.3879
G01 X43.3361 Y27.3912
G01 X43.2528 Y27.4148
G01 X43.1735 Y27.4283
G01 X43.1634 Y27.4295
G01 X43.0800 Y27.4340
G01 X42.9887 Y27.4286
G01 X42.0462 Y28.3710
G01 X42.0462 Y28.8904
G01 X42.0593 Y28.8982
G01 X42.1380 Y28.9540
G01 X42.1459 Y28.9603
G01 X42.2170 Y29.0239
G01 X42.2241 Y29.0310
G01 X42.2877 Y29.1021
G01 X42.2940 Y29.1100
G01 X42.3491 Y29.1877
G01 X42.3545 Y29.1962
G01 X42.4006 Y29.2797
G01 X42.4048 Y29.2883
G01 X42.4414 Y29.3768
G01 X42.4448 Y29.3863
G01 X42.4731 Y29.4858
G01 X42.4894 Y29.5818
G01 X42.4905 Y29.5918
G01 X42.4959 Y29.6870
G01 X42.4959 Y29.6970
G01 X42.4905 Y29.7922
G01 X42.4894 Y29.8022
G01 X42.4734 Y29.8962
G01 X42.4712 Y29.9061
G01 X42.4448 Y29.9977
G01 X42.4414 Y30.0072
G01 X42.4050 Y30.0952
G01 X42.4006 Y30.1043
G01 X42.3498 Y30.1953
G01 X42.2940 Y30.2740
G01 X42.2877 Y30.2819
G01 X42.2241 Y30.3530
G01 X42.2170 Y30.3601
G01 X42.1459 Y30.4237
G01 X42.1380 Y30.4300
G01 X42.0603 Y30.4851
G01 X42.0518 Y30.4905
G01 X41.9683 Y30.5366
G01 X41.9597 Y30.5408
G01 X41.8712 Y30.5774
G01 X41.8617 Y30.5808
G01 X41.7622 Y30.6091
G01 X41.6662 Y30.6254
G01 X41.6562 Y30.6265
G01 X41.5560 Y30.6320
G01 X41.4558 Y30.6265
G01 X41.4458 Y30.6254
G01 X41.3518 Y30.6094
G01 X41.3419 Y30.6072
G01 X41.2503 Y30.5808
G01 X41.2408 Y30.5774
G01 X41.1528 Y30.5410
G01 X41.1437 Y30.5366
G01 X41.0527 Y30.4858
G01 X40.9740 Y30.4300
G01 X40.9661 Y30.4237
G01 X40.8950 Y30.3601
G01 X40.8879 Y30.3530
G01 X40.8243 Y30.2819
G01 X40.8180 Y30.2740
G01 X40.7629 Y30.1963
G01 X40.7575 Y30.1878
G01 X40.7114 Y30.1043
G01 X40.7072 Y30.0957
G01 X40.6706 Y30.0072
G01 X40.6672 Y29.9977
G01 X40.6389 Y29.8982
G01 X40.6226 Y29.8022
G01 X40.6217 Y29.7922
G00 Z0.5000
G00 X48.2417 Y32.3322
G01 F200.00
G01 Z-0.1500
G01 F200.00
G01 X48.2360 Y32.2320
G01 X48.2415 Y32.1318
G01 X48.2426 Y32.1218
G01 X48.2586 Y32.0278
G01 X48.2608 Y32.0179
G01 X48.2872 Y31.9263
G01 X48.2906 Y31.9168
G01 X48.3270 Y31.8288
G01 X48.3314 Y31.8197
G01 X48.3822 Y31.7287
G01 X48.4380 Y31.6500
G01 X48.4443 Y31.6421
G01 X48.5079 Y31.5710
G01 X48.5150 Y31.5639
G01 X48.5861 Y31.5003
G01 X48.5940 Y31.4940
G01 X48.6717 Y31.4389
G01 X48.6802 Y31.4335
G01 X48.7637 Y31.3874
G01 X48.7723 Y31.3832
G01 X48.8608 Y31.3466
G01 X48.8703 Y31.3432
G01 X48.9698 Y31.3149
G01 X49.0658 Y31.2986
G01 X49.0758 Y31.2975
G01 X49.1760 Y31.2920
G01 X49.2762 Y31.2975
G01 X49.2862 Y31.2986
G01 X49.3802 Y31.3146
G01 X49.3901 Y31.3168
G01 X49.4817 Y31.3432
G01 X49.4912 Y31.3466
G01 X49.5792 Y31.3830
G01 X49.5883 Y31.3874
G01 X49.6793 Y31.4382
G01 X49.7580 Y31.4940
G01 X49.7659 Y31.5003
G01 X49.8370 Y31.5639
G01 X49.8441 Y31.5710
G01 X49.9077 Y31.6421
G01 X49.9140 Y31.6500
G01 X49.9691 Y31.7277
G01 X49.9745 Y31.7362
G01 X50.0206 Y31.8197
G01 X50.0248 Y31.8283
G01 X50.0614 Y31.9168
G01 X50.0648 Y31.9263
G01 X50.0931 Y32.0258
G01 X50.1094 Y32.1218
G01 X50.1105 Y32.1318
G01 X50.1160 Y32.2320
G01 X50.1105 Y32.3322
G01 X50.1094 Y32.3422
G01 X50.0934 Y32.4362
G01 X50.0912 Y32.4461
G01 X50.0648 Y32.5377
G01 X50.0614 Y32.5472
G01 X50.0250 Y32.6352
G01 X50.0206 Y32.6443
G01 X49.9698 Y32.7353
G01 X49.9140 Y32.8140
G01 X49.9077 Y32.8219
G01 X49.8441 Y32.8930
G01 X49.8370 Y32.9001
G01 X49.7659 Y32.9637
G01 X49.7580 Y32.9700
G01 X49.6803 Y33.0251
G01 X49.6718 Y33.0305
G01 X49.5883 Y33.0766
G01 X49.5797 Y33.0808
G01 X49.4912 Y33.1174
G01 X49.4817 Y33.1208
G01 X49.3822 Y33.1491
G01 X49.2862 Y33.1654
G01 X49.2762 Y33.1665
G01 X49.1760 Y33.1720
G01 X49.0758 Y33.1665
G01 X49.0658 Y33.1654
G01 X48.9718 Y33.1494
G01 X48.9619 Y33.1472
G01 X48.8703 Y33.1208
G01 X48.8608 Y33.1174
G01 X48.7728 Y33.0810
G01 X48.7637 Y33.0766
G01 X48.6727 Y33.0258
G01 X48.5940 Y32.9700
G01 X48.5861 Y32.9637
G01 X48.5150 Y32.9001
G01 X48.5079 Y32.8930
G01 X48.4443 Y32.8219
G01 X48.4380 Y32.8140
G01 X48.3829 Y32.7363
G01 X48.3775 Y32.7278
G01 X48.3314 Y32.6443
G01 X48.3272 Y32.6357
G01 X48.2906 Y32.5472
G01 X48.2872 Y32.5377
G01 X48.2608 Y32.4461
G01 X48.2586 Y32.4362
G01 X48.2426 Y32.3422
G01 X48.2417 Y32.3322
G00 Z0.5000
G00 X50.7817 Y32.3322
G01 F200.00
G01 Z-0.1500
G01 F200.00
G01 X50.7760 Y32.2320
G01 X50.7815 Y32.1318
G01 X50.7826 Y32.1218
G01 X50.7986 Y32.0278
G01 X50.8008 Y32.0179
G01 X50.8272 Y31.9263
G01 X50.8306 Y31.9168
G01 X50.8670 Y31.8288
G01 X50.8714 Y31.8197
G01 X50.9222 Y31.7287
G01 X50.9780 Y31.6500
G01 X50.9843 Y31.6421
G01 X51.0479 Y31.5710
G01 X51.0550 Y31.5639
G01 X51.1261 Y31.5003
G01 X51.1340 Y31.4940
G01 X51.2117 Y31.4389
G01 X51.2202 Y31.4335
G01 X51.3037 Y31.3874
G01 X51.3123 Y31.3832
G01 X51.4008 Y31.3466
G01 X51.4103 Y31.3432
G01 X51.5098 Y31.3149
G01 X51.6058 Y31.2986
G01 X51.6158 Y31.2975
G01 X51.7160 Y31.2920
G01 X51.8162 Y31.2975
G01 X51.8262 Y31.2986
G01 X51.9202 Y31.3146
G01 X51.9301 Y31.3168
G01 X52.0217 Y31.3432
G01 X52.0312 Y31.3466
G01 X52.1192 Y31.3830
G01 X52.1283 Y31.3874
G01 X52.2193 Y31.4382
G01 X52.2980 Y31.4940
G01 X52.3059 Y31.5003
G01 X52.3770 Y31.5639
G01 X52.3841 Y31.5710
G01 X52.4477 Y31.6421
G01 X52.4540 Y31.6500
G01 X52.5091 Y31.7277
G01 X52.5145 Y31.7362
G01 X52.5606 Y31.8197
G01 X52.5648 Y31.8283
G01 X52.6014 Y31.9168
G01 X52.6048 Y31.9263
G01 X52.6331 Y32.0258
G01 X52.6494 Y32.1218
G01 X52.6505 Y32.1318
G01 X52.6560 Y32.2320
G01 X52.6505 Y32.3322
G01 X52.6494 Y32.3422
G01 X52.6334 Y32.4362
G01 X52.6312 Y32.4461
G01 X52.6048 Y32.5377
G01 X52.6014 Y32.5472
G01 X52.5650 Y32.6352
G01 X52.5606 Y32.6443
G01 X52.5098 Y32.7353
G01 X52.4540 Y32.8140
G01 X52.4477 Y32.8219
G01 X52.3841 Y32.8930
G01 X52.3770 Y32.9001
G01 X52.3059 Y32.9637
G01 X52.2980 Y32.9700
G01 X52.2203 Y33.0251
G01 X52.2118 Y33.0305
G01 X52.1283 Y33.0766
G01 X52.1197 Y33.0808
G01 X52.0312 Y33.1174
G01 X52.0217 Y33.1208
G01 X51.9222 Y33.1491
G01 X51.8262 Y33.1654
G01 X51.8162 Y33.1665
G01 X51.7160 Y33.1720
G01 X51.6158 Y33.1665
G01 X51.6058 Y33.1654
G01 X51.5118 Y33.1494
G01 X51.5019 Y33.1472
G01 X51.4103 Y33.1208
G01 X51.4008 Y33.1174
G01 X51.3128 Y33.0810
G01 X51.3037 Y33.0766
G01 X51.2127 Y33.0258
G01 X51.1340 Y32.9700
G01 X51.1261 Y32.9637
G01 X51.0550 Y32.9001
G01 X51.0479 Y32.8930
G01 X50.9843 Y32.8219
G01 X50.9780 Y32.8140
G01 X50.9229 Y32.7363
G01 X50.9175 Y32.7278
G01 X50.8714 Y32.6443
G01 X50.8672 Y32.6357
G01 X50.8306 Y32.5472
G01 X50.8272 Y32.5377
G01 X50.8008 Y32.4461
G01 X50.7986 Y32.4362
G01 X50.7826 Y32.3422
G01 X50.7817 Y32.3322
G00 Z0.5000
G00 X50.7817 Y23.1882
G01 F200.00
G01 Z-0.1500
G01 F200.00
G01 X50.7760 Y23.0880
G01 X50.7815 Y22.9878
G01 X50.7826 Y22.9778
G01 X50.7986 Y22.8838
G01 X50.8008 Y22.8739
G01 X50.8272 Y22.7823
G01 X50.8306 Y22.7728
G01 X50.8670 Y22.6848
G01 X50.8714 Y22.6757
G01 X50.9222 Y22.5847
G01 X50.9780 Y22.5060
G01 X50.9843 Y22.4981
G01 X51.0479 Y22.4270
G01 X51.0550 Y22.4199
G01 X51.1261 Y22.3563
G01 X51.1340 Y22.3500
G01 X51.2117 Y22.2949
G01 X51.2202 Y22.2895
G01 X51.3123 Y22.2392
G01 X51.4008 Y22.2026
G01 X51.4103 Y22.1992
G01 X51.5098 Y22.1709
G01 X51.6058 Y22.1546
G01 X51.6158 Y22.1535
G01 X51.7110 Y22.1481
G01 X51.7210 Y22.1481
G01 X51.8162 Y22.1535
G01 X51.8262 Y22.1546
G01 X51.9202 Y22.1706
G01 X51.9301 Y22.1728
G01 X52.0217 Y22.1992
G01 X52.0312 Y22.2026
G01 X52.1192 Y22.2390
G01 X52.1283 Y22.2434
G01 X52.2193 Y22.2942
G01 X52.2980 Y22.3500
G01 X52.3059 Y22.3563
G01 X52.3770 Y22.4199
G01 X52.3841 Y22.4270
G01 X52.4477 Y22.4981
G01 X52.4540 Y22.5060
G01 X52.5091 Y22.5837
G01 X52.5145 Y22.5922
G01 X52.5648 Y22.6843
G01 X52.6014 Y22.7728
G01 X52.6048 Y22.7823
G01 X52.6331 Y22.8818
G01 X52.6494 Y22.9778
G01 X52.6505 Y22.9878
G01 X52.6559 Y23.0830
G01 X52.6559 Y23.0930
G01 X52.6505 Y23.1882
G01 X52.6494 Y23.1982
G01 X52.6334 Y23.2922
G01 X52.6312 Y23.3021
G01 X52.6048 Y23.3937
G01 X52.6014 Y23.4032
G01 X52.5650 Y23.4912
G01 X52.5606 Y23.5003
G01 X52.5098 Y23.5913
G01 X52.4540 Y23.6700
G01 X52.4477 Y23.6779
G01 X52.3841 Y23.7490
G01 X52.3770 Y23.7561
G01 X52.3059 Y23.8197
G01 X52.2980 Y23.8260
G01 X52.2203 Y23.8811
G01 X52.2062 Y23.8896
G01 X52.2062 Y28.8904
G01 X52.2193 Y28.8982
G01 X52.2980 Y28.9540
G01 X52.3059 Y28.9603
G01 X52.3770 Y29.0239
G01 X52.3841 Y29.0310
G01 X52.4477 Y29.1021
G01 X52.4540 Y29.1100
G01 X52.5091 Y29.1877
G01 X52.5145 Y29.1962
G01 X52.5606 Y29.2797
G01 X52.5648 Y29.2883
G01 X52.6014 Y29.3768
G01 X52.6048 Y29.3863
G01 X52.6312 Y29.4779
G01 X52.6334 Y29.4878
G01 X52.6494 Y29.5818
G01 X52.6505 Y29.5918
G01 X52.6559 Y29.6870
G01 X52.6559 Y29.6970
G01 X52.6505 Y29.7922
G01 X52.6494 Y29.8022
G01 X52.6334 Y29.8962
G01 X52.6312 Y29.9061
G01 X52.6048 Y29.9977
G01 X52.6014 Y30.0072
G01 X52.5650 Y30.0952
G01 X52.5606 Y30.1043
G01 X52.5145 Y30.1878
G01 X52.5091 Y30.1963
G01 X52.4540 Y30.2740
G01 X52.4477 Y30.2819
G01 X52.3841 Y30.3530
G01 X52.3770 Y30.3601
G01 X52.3059 Y30.4237
G01 X52.2980 Y30.4300
G01 X52.2203 Y30.4851
G01 X52.2118 Y30.4905
G01 X52.1283 Y30.5366
G01 X52.1197 Y30.5408
G01 X52.0312 Y30.5774
G01 X52.0217 Y30.5808
G01 X51.9222 Y30.6091
G01 X51.8262 Y30.6254
G01 X51.8162 Y30.6265
G01 X51.7210 Y30.6319
G01 X51.7110 Y30.6319
G01 X51.6158 Y30.6265
G01 X51.6058 Y30.6254
G01 X51.5118 Y30.6094
G01 X51.5019 Y30.6072
G01 X51.4103 Y30.5808
G01 X51.4008 Y30.5774
G01 X51.3128 Y30.5410
G01 X51.3037 Y30.5366
G01 X51.2127 Y30.4858
G01 X51.1340 Y30.4300
G01 X51.1261 Y30.4237
G01 X51.0550 Y30.3601
G01 X51.0479 Y30.3530
G01 X50.9843 Y30.2819
G01 X50.9780 Y30.2740
G01 X50.9229 Y30.1963
G01 X50.9175 Y30.1878
G01 X50.8672 Y30.0957
G01 X50.8306 Y30.0072
G01 X50.8272 Y29.9977
G01 X50.7989 Y29.8982
G01 X50.7826 Y29.8022
G01 X50.7815 Y29.7922
G01 X50.7761 Y29.6970
G01 X50.7761 Y29.6870
G01 X50.7815 Y29.5918
G01 X50.7826 Y29.5818
G01 X50.7986 Y29.4878
G01 X50.8008 Y29.4779
G01 X50.8272 Y29.3863
G01 X50.8306 Y29.3768
G01 X50.8670 Y29.2888
G01 X50.8714 Y29.2797
G01 X50.9222 Y29.1887
G01 X50.9780 Y29.1100
G01 X50.9843 Y29.1021
G01 X51.0479 Y29.0310
G01 X51.0550 Y29.0239
G01 X51.1261 Y28.9603
G01 X51.1340 Y28.9540
G01 X51.2117 Y28.8989
G01 X51.2258 Y28.8904
G01 X51.2258 Y23.8896
G01 X51.2127 Y23.8818
G01 X51.1340 Y23.8260
G01 X51.1261 Y23.8197
G01 X51.0550 Y23.7561
G01 X51.0479 Y23.7490
G01 X50.9843 Y23.6779
G01 X50.9780 Y23.6700
G01 X50.9229 Y23.5923
G01 X50.9175 Y23.5838
G01 X50.8672 Y23.4917
G01 X50.8306 Y23.4032
G01 X50.8272 Y23.3937
G01 X50.7989 Y23.2942
G01 X50.7826 Y23.1982
G01 X50.7817 Y23.1882
G00 Z0.5000
G00 X48.2417 Y23.1882
G01 F200.00
G01 Z-0.1500
G01 F200.00
G01 X48.2360 Y23.0880
G01 X48.2415 Y22.9878
G01 X48.2426 Y22.9778
G01 X48.2586 Y22.8838
G01 X48.2608 Y22.8739
G01 X48.2872 Y22.7823
G01 X48.2906 Y22.7728
G01 X48.3270 Y22.6848
G01 X48.3314 Y22.6757
G01 X48.3822 Y22.5847
G01 X48.4380 Y22.5060
G01 X48.4443 Y22.4981
G01 X48.5079 Y22.4270
G01 X48.5150 Y22.4199
G01 X48.5861 Y22.3563
G01 X48.5940 Y22.3500
G01 X48.6717 Y22.2949
G01 X48.6802 Y22.2895
G01 X48.7723 Y22.2392
G01 X48.8608 Y22.2026
G01 X48.8703 Y22.1992
G01 X48.9698 Y22.1709
G01 X49.0658 Y22.1546
G01 X49.0758 Y22.1535
G01 X49.1710 Y22.1481
G01 X49.1810 Y22.1481
G01 X49.2762 Y22.1535
G01 X49.2862 Y22.1546
G01 X49.3802 Y22.1706
G01 X49.3901 Y22.1728
G01 X49.4817 Y22.1992
G01 X49.4912 Y22.2026
G01 X49.5792 Y22.2390
G01 X49.5883 Y22.2434
G01 X49.6793 Y22.2942
G01 X49.7580 Y22.3500
G01 X49.7659 Y22.3563
G01 X49.8370 Y22.4199
G01 X49.8441 Y22.4270
G01 X49.9077 Y22.4981
G01 X49.9140 Y22.5060
G01 X49.9691 Y22.5837
G01 X49.9745 Y22.5922
G01 X50.0248 Y22.6843
G01 X50.0614 Y22.7728
G01 X50.0648 Y22.7823
G01 X50.0931 Y22.8818
G01 X50.1094 Y22.9778
G01 X50.1105 Y22.9878
G01 X50.1159 Y23.0830
G01 X50.1159 Y23.0930
G01 X50.1105 Y23.1882
G01 X50.1094 Y23.1982
G01 X50.0934 Y23.2922
G01 X50.0912 Y23.3021
G01 X50.0648 Y23.3937
G01 X50.0614 Y23.4032
G01 X50.0250 Y23.4912
G01 X50.0206 Y23.5003
G01 X49.9698 Y23.5913
G01 X49.9140 Y23.6700
G01 X49.9077 Y23.6779
G01 X49.8441 Y23.7490
G01 X49.8370 Y23.7561
G01 X49.7659 Y23.8197
G01 X49.7580 Y23.8260
G01 X49.6803 Y23.8811
G01 X49.6662 Y23.8896
G01 X49.6662 Y28.8904
G01 X49.6793 Y28.8982
G01 X49.7580 Y28.9540
G01 X49.7659 Y28.9603
G01 X49.8370 Y29.0239
G01 X49.8441 Y29.0310
G01 X49.9077 Y29.1021
G01 X49.9140 Y29.1100
G01 X49.9691 Y29.1877
G01 X49.9745 Y29.1962
G01 X50.0206 Y29.2797
G01 X50.0248 Y29.2883
G01 X50.0614 Y29.3768
G01 X50.0648 Y29.3863
G01 X50.0912 Y29.4779
G01 X50.0934 Y29.4878
G01 X50.1094 Y29.5818
G01 X50.1105 Y29.5918
G01 X50.1159 Y29.6870
G01 X50.1159 Y29.6970
G01 X50.1105 Y29.7922
G01 X50.1094 Y29.8022
G01 X50.0934 Y29.8962
G01 X50.0912 Y29.9061
G01 X50.0648 Y29.9977
G01 X50.0614 Y30.0072
G01 X50.0250 Y30.0952
G01 X50.0206 Y30.1043
G01 X49.9745 Y30.1878
G01 X49.9691 Y30.1963
G01 X49.9140 Y30.2740
G01 X49.9077 Y30.2819
G01 X49.8441 Y30.3530
G01 X49.8370 Y30.3601
G01 X49.7659 Y30.4237
