(G-CODE GENERATED BY FLATCAM v8.911 - www.flatcam.org - Version Date: 2019/03/4)

(Name: Thermostat-PTH.drl_cnc)
(Type: G-code from Excellon)
(Units: MM)

(Created on Thursday, 13 February 2020 at 16:07)

(Feedrate: 76.2 mm/min)
(Feedrate rapids 76.2 mm/min)

(Z_Cut: -3.0 mm)
(Z_Move: 0.5 mm)
(Z Toolchange: 25.4 mm)
(X,Y Toolchange: 0.0000, 0.0000 mm)
(Z Start: None mm)
(Z End: 50.8 mm)
(Steps per circle: 64)
(Postprocessor Excellon: default)

(X range:    5.4956 ...   78.6324  mm)
(Y range:    1.3773 ...   43.9084  mm)

(Spindle Speed: None RPM)

G21
G90
G94

G01 F76.20
M03
G00 X31.3960 Y24.1040
G01 Z-3.0000
G01 Z0
G00 Z0.5000
G00 X31.3960 Y16.4840
G01 Z-3.0000
G01 Z0
G00 Z0.5000
M03
G00 X57.8120 Y4.2920
G01 Z-3.0000
G01 Z0
G00 Z0.5000
G00 X57.8120 Y3.0220
G01 Z-3.0000
G01 Z0
G00 Z0.5000
G00 X57.8120 Y1.7520
G01 Z-3.0000
G01 Z0
G00 Z0.5000
M03
G00 X23.2680 Y36.8040
G01 Z-3.0000
G01 Z0
G00 Z0.5000
G00 X26.3160 Y37.3120
G01 Z-3.0000
G01 Z0
G00 Z0.5000
G00 X35.4600 Y39.8520
G01 Z-3.0000
G01 Z0
G00 Z0.5000
G00 X43.0800 Y26.6440
G01 Z-3.0000
G01 Z0
G00 Z0.5000
G00 X29.3640 Y26.6440
G01 Z-3.0000
G01 Z0
G00 Z0.5000
G00 X25.3000 Y26.6440
G01 Z-3.0000
G01 Z0
G00 Z0.5000
M03
G00 X58.0660 Y18.2620
G01 Z-3.0000
G01 Z0
G00 Z0.5000
G00 X58.0660 Y10.6420
G01 Z-3.0000
G01 Z0
G00 Z0.5000
M03
G00 X44.0960 Y23.0880
G01 Z-3.0000
G01 Z0
G00 Z0.5000
G00 X39.0160 Y29.6920
G01 Z-3.0000
G01 Z0
G00 Z0.5000
G00 X36.4760 Y29.6920
G01 Z-3.0000
G01 Z0
G00 Z0.5000
G00 X36.4760 Y32.2320
G01 Z-3.0000
G01 Z0
G00 Z0.5000
G00 X33.9360 Y32.2320
G01 Z-3.0000
G01 Z0
G00 Z0.5000
G00 X33.9360 Y29.6920
G01 Z-3.0000
G01 Z0
G00 Z0.5000
G00 X31.3960 Y29.6920
G01 Z-3.0000
G01 Z0
G00 Z0.5000
G00 X31.3960 Y32.2320
G01 Z-3.0000
G01 Z0
G00 Z0.5000
G00 X28.8560 Y32.2320
G01 Z-3.0000
G01 Z0
G00 Z0.5000
G00 X28.8560 Y29.6920
G01 Z-3.0000
G01 Z0
G00 Z0.5000
G00 X26.3160 Y29.6920
G01 Z-3.0000
G01 Z0
G00 Z0.5000
G00 X23.2680 Y21.5640
G01 Z-3.0000
G01 Z0
G00 Z0.5000
G00 X20.7280 Y21.5640
G01 Z-3.0000
G01 Z0
G00 Z0.5000
G00 X18.1880 Y21.5640
G01 Z-3.0000
G01 Z0
G00 Z0.5000
G00 X15.6480 Y21.5640
G01 Z-3.0000
G01 Z0
G00 Z0.5000
G00 X13.1080 Y21.5640
G01 Z-3.0000
G01 Z0
G00 Z0.5000
G00 X10.5680 Y21.5640
G01 Z-3.0000
G01 Z0
G00 Z0.5000
G00 X8.5360 Y29.6920
G01 Z-3.0000
G01 Z0
G00 Z0.5000
G00 X5.9960 Y29.6920
G01 Z-3.0000
G01 Z0
G00 Z0.5000
G00 X5.9960 Y32.2320
G01 Z-3.0000
G01 Z0
G00 Z0.5000
G00 X8.5360 Y32.2320
G01 Z-3.0000
G01 Z0
G00 Z0.5000
G00 X11.0760 Y32.2320
G01 Z-3.0000
G01 Z0
G00 Z0.5000
G00 X11.0760 Y29.6920
G01 Z-3.0000
G01 Z0
G00 Z0.5000
G00 X13.6160 Y29.6920
G01 Z-3.0000
G01 Z0
G00 Z0.5000
G00 X13.6160 Y32.2320
G01 Z-3.0000
G01 Z0
G00 Z0.5000
G00 X16.1560 Y32.2320
G01 Z-3.0000
G01 Z0
G00 Z0.5000
G00 X16.1560 Y29.6920
G01 Z-3.0000
G01 Z0
G00 Z0.5000
G00 X18.6960 Y29.6920
G01 Z-3.0000
G01 Z0
G00 Z0.5000
G00 X18.6960 Y32.2320
G01 Z-3.0000
G01 Z0
G00 Z0.5000
G00 X21.2360 Y32.2320
G01 Z-3.0000
G01 Z0
G00 Z0.5000
G00 X21.2360 Y29.6920
G01 Z-3.0000
G01 Z0
G00 Z0.5000
G00 X23.7760 Y29.6920
G01 Z-3.0000
G01 Z0
G00 Z0.5000
G00 X23.7760 Y32.2320
G01 Z-3.0000
G01 Z0
G00 Z0.5000
G00 X26.3160 Y32.2320
G01 Z-3.0000
G01 Z0
G00 Z0.5000
G00 X20.2200 Y43.4080
G01 Z-3.0000
G01 Z0
G00 Z0.5000
G00 X22.7600 Y43.4080
G01 Z-3.0000
G01 Z0
G00 Z0.5000
G00 X25.3000 Y43.4080
G01 Z-3.0000
G01 Z0
G00 Z0.5000
G00 X27.8400 Y43.4080
G01 Z-3.0000
G01 Z0
G00 Z0.5000
G00 X30.3800 Y43.4080
G01 Z-3.0000
G01 Z0
G00 Z0.5000
G00 X32.9200 Y43.4080
G01 Z-3.0000
G01 Z0
G00 Z0.5000
G00 X35.4600 Y43.4080
G01 Z-3.0000
G01 Z0
G00 Z0.5000
G00 X38.0000 Y43.4080
G01 Z-3.0000
G01 Z0
G00 Z0.5000
G00 X39.0160 Y32.2320
G01 Z-3.0000
G01 Z0
G00 Z0.5000
G00 X41.5560 Y32.2320
G01 Z-3.0000
G01 Z0
G00 Z0.5000
G00 X41.5560 Y29.6920
G01 Z-3.0000
G01 Z0
G00 Z0.5000
G00 X44.0960 Y29.6920
G01 Z-3.0000
G01 Z0
G00 Z0.5000
G00 X44.0960 Y32.2320
G01 Z-3.0000
G01 Z0
G00 Z0.5000
G00 X46.6360 Y32.2320
G01 Z-3.0000
G01 Z0
G00 Z0.5000
G00 X46.6360 Y29.6920
G01 Z-3.0000
G01 Z0
G00 Z0.5000
G00 X49.1760 Y29.6920
G01 Z-3.0000
G01 Z0
G00 Z0.5000
G00 X49.1760 Y32.2320
G01 Z-3.0000
G01 Z0
G00 Z0.5000
G00 X51.7160 Y32.2320
G01 Z-3.0000
G01 Z0
G00 Z0.5000
G00 X54.2560 Y32.2320
G01 Z-3.0000
G01 Z0
G00 Z0.5000
G00 X51.7160 Y29.6920
G01 Z-3.0000
G01 Z0
G00 Z0.5000
G00 X54.2560 Y29.6920
G01 Z-3.0000
G01 Z0
G00 Z0.5000
G00 X65.7317 Y20.7842
G01 Z-3.0000
G01 Z0
G00 Z0.5000
G00 X65.7317 Y8.7827
G01 Z-3.0000
G01 Z0
G00 Z0.5000
G00 X51.7160 Y23.0880
G01 Z-3.0000
G01 Z0
G00 Z0.5000
G00 X49.1760 Y23.0880
G01 Z-3.0000
G01 Z0
G00 Z0.5000
G00 X46.6360 Y23.0880
G01 Z-3.0000
G01 Z0
G00 Z0.5000
M03
G00 X63.7810 Y14.8330
G01 Z-3.0000
G01 Z0
G00 Z0.5000
G00 X77.9821 Y20.8325
G01 Z-3.0000
G01 Z0
G00 Z0.5000
G00 X77.9313 Y8.7827
G01 Z-3.0000
G01 Z0
G00 Z0.5000
M03
G00 X38.5080 Y9.2933
G01 Z-3.0000
G01 Z0
G00 Z0.5000
G00 X38.5080 Y4.2920
G01 Z-3.0000
G01 Z0
G00 Z0.5000
G00 X68.0507 Y30.2000
G01 Z-3.0000
G01 Z0
G00 Z0.5000
G00 X73.0520 Y30.2000
G01 Z-3.0000
G01 Z0
G00 Z0.5000
M05
G00 Z50.80
G00 X0.0 Y0.0

