(G-CODE GENERATED BY FLATCAM v8.911 - www.flatcam.org - Version Date: 2019/03/4)

(Name: Thermostat-B_Cu.gbr_iso_cnc)
(Type: G-code from Geometry)
(Units: MM)

(Created on Saturday, 08 February 2020 at 17:40)

(TOOL DIAMETER: 0.3 mm)
(Feedrate: 76.2 mm/min)
(Feedrate_Z: 76.2 mm/min)
(Feedrate rapids 76.2 mm/min)

(Z_Cut: -0.15 mm)
(Z_Move: 0.5 mm)
(Z Toolchange: 25.4 mm)
(X,Y Toolchange: 0.0000, 0.0000 mm)
(Z Start: None mm)
(Z End: 50.8 mm)
(Steps per circle: 64)
(Postprocessor Geometry: default)

(X range:    2.0239 ...   84.6121  mm)
(Y range:    1.0770 ...   47.3641  mm)

(Spindle Speed: None RPM)

G21
G90
G94

G01 F76.20
G00 Z0.5000

M03
G00 X2.0241 Y22.0636
G01 F76.20
G01 Z-0.1500
G01 F76.20
G01 X2.0257 Y22.0356
G01 X2.0276 Y22.0189
G01 X2.0323 Y21.9912
G01 X2.0360 Y21.9748
G01 X2.0438 Y21.9479
G01 X2.0493 Y21.9320
G01 X2.0601 Y21.9061
G01 X2.0674 Y21.8909
G01 X2.0887 Y21.8538
G01 X2.1061 Y21.8292
G01 X2.1166 Y21.8161
G01 X2.1411 Y21.7891
G01 X7.7291 Y16.2011
G01 X7.7561 Y16.1766
G01 X7.7692 Y16.1661
G01 X7.7921 Y16.1499
G01 X7.8064 Y16.1409
G01 X7.8309 Y16.1274
G01 X7.8453 Y16.1204
G01 X7.8720 Y16.1093
G01 X7.8879 Y16.1038
G01 X7.9279 Y16.0929
G01 X7.9589 Y16.0876
G01 X7.9756 Y16.0857
G01 X8.0120 Y16.0839
G01 X21.2200 Y16.0839
G01 X21.2564 Y16.0857
G01 X21.2731 Y16.0876
G01 X21.3008 Y16.0923
G01 X21.3172 Y16.0960
G01 X21.3441 Y16.1038
G01 X21.3600 Y16.1093
G01 X21.3859 Y16.1201
G01 X21.4011 Y16.1274
G01 X21.4256 Y16.1409
G01 X21.4382 Y16.1487
G01 X21.4628 Y16.1661
G01 X21.4759 Y16.1766
G01 X21.5029 Y16.2011
G01 X24.5509 Y19.2491
G01 X24.5754 Y19.2761
G01 X24.5859 Y19.2892
G01 X24.6021 Y19.3121
G01 X24.6111 Y19.3264
G01 X24.6246 Y19.3509
G01 X24.6316 Y19.3653
G01 X24.6427 Y19.3920
G01 X24.6482 Y19.4079
G01 X24.6591 Y19.4479
G01 X24.6644 Y19.4789
G01 X24.6663 Y19.4956
G01 X24.6681 Y19.5320
G01 X24.6681 Y20.5640
G01 X25.1180 Y20.5640
G01 X25.1345 Y20.5649
G01 X25.1509 Y20.5676
G01 X25.1668 Y20.5722
G01 X25.1821 Y20.5784
G01 X25.1972 Y20.5866
G01 X25.2112 Y20.5965
G01 X25.2241 Y20.6079
G01 X25.2355 Y20.6208
G01 X25.2454 Y20.6348
G01 X25.2536 Y20.6499
G01 X25.2598 Y20.6652
G01 X25.2644 Y20.6811
G01 X25.2671 Y20.6975
G01 X25.2680 Y20.7140
G01 X25.2680 Y21.1639
G01 X25.4523 Y21.1639
G01 X25.8431 Y20.7731
G01 X25.8701 Y20.7486
G01 X25.8832 Y20.7381
G01 X25.9061 Y20.7219
G01 X25.9204 Y20.7129
G01 X25.9449 Y20.6994
G01 X25.9593 Y20.6924
G01 X25.9860 Y20.6813
G01 X26.0019 Y20.6758
G01 X26.0419 Y20.6649
G01 X26.0729 Y20.6596
G01 X26.0896 Y20.6577
G01 X26.1260 Y20.6559
G01 X44.5880 Y20.6559
G01 X44.6244 Y20.6577
G01 X44.6411 Y20.6596
G01 X44.6688 Y20.6643
G01 X44.6852 Y20.6680
G01 X44.7121 Y20.6758
G01 X44.7280 Y20.6813
G01 X44.7539 Y20.6921
G01 X44.7691 Y20.6994
G01 X44.8062 Y20.7207
G01 X44.8308 Y20.7381
G01 X44.8439 Y20.7486
G01 X44.8709 Y20.7731
G01 X45.1830 Y21.0851
G01 X45.4951 Y20.7731
G01 X45.5221 Y20.7486
G01 X45.5352 Y20.7381
G01 X45.5581 Y20.7219
G01 X45.5724 Y20.7129
G01 X45.5969 Y20.6994
G01 X45.6113 Y20.6924
G01 X45.6380 Y20.6813
G01 X45.6539 Y20.6758
G01 X45.6939 Y20.6649
G01 X45.7249 Y20.6596
G01 X45.7416 Y20.6577
G01 X45.7696 Y20.6561
G01 X54.2400 Y20.6559
G01 X54.2764 Y20.6577
G01 X54.2931 Y20.6596
G01 X54.3208 Y20.6643
G01 X54.3372 Y20.6680
G01 X54.3641 Y20.6758
G01 X54.3800 Y20.6813
G01 X54.4059 Y20.6921
G01 X54.4211 Y20.6994
G01 X54.4582 Y20.7207
G01 X54.4828 Y20.7381
G01 X54.4959 Y20.7486
G01 X54.5229 Y20.7731
G01 X55.5447 Y21.7952
G01 X55.5634 Y21.8161
G01 X55.5739 Y21.8292
G01 X55.5901 Y21.8521
G01 X55.5991 Y21.8664
G01 X55.6126 Y21.8909
G01 X55.6196 Y21.9053
G01 X55.6307 Y21.9320
G01 X55.6362 Y21.9479
G01 X55.6471 Y21.9879
G01 X55.6524 Y22.0189
G01 X55.6543 Y22.0356
G01 X55.6561 Y22.0720
G01 X55.6561 Y28.6920
G01 X56.1060 Y28.6920
G01 X56.1225 Y28.6929
G01 X56.1389 Y28.6956
G01 X56.1548 Y28.7002
G01 X56.1701 Y28.7064
G01 X56.1852 Y28.7146
G01 X56.1992 Y28.7245
G01 X56.2121 Y28.7359
G01 X56.2235 Y28.7487
G01 X56.2334 Y28.7628
G01 X56.2416 Y28.7779
G01 X56.2478 Y28.7932
G01 X56.2524 Y28.8091
G01 X56.2551 Y28.8255
G01 X56.2560 Y28.8420
G01 X56.2560 Y30.5420
G01 X56.2551 Y30.5585
G01 X56.2524 Y30.5749
G01 X56.2478 Y30.5908
G01 X56.2416 Y30.6061
G01 X56.2334 Y30.6212
G01 X56.2235 Y30.6353
G01 X56.2121 Y30.6481
G01 X56.1992 Y30.6595
G01 X56.1852 Y30.6694
G01 X56.1701 Y30.6776
G01 X56.1548 Y30.6838
G01 X56.1389 Y30.6884
G01 X56.1225 Y30.6911
G01 X56.1060 Y30.6920
G01 X54.4060 Y30.6920
G01 X54.3895 Y30.6911
G01 X54.3731 Y30.6884
G01 X54.3572 Y30.6838
G01 X54.3419 Y30.6776
G01 X54.3268 Y30.6694
G01 X54.3128 Y30.6595
G01 X54.2999 Y30.6481
G01 X54.2885 Y30.6353
G01 X54.2786 Y30.6212
G01 X54.2704 Y30.6061
G01 X54.2642 Y30.5908
G01 X54.2596 Y30.5749
G01 X54.2569 Y30.5585
G01 X54.2560 Y30.5420
G01 X54.2560 Y28.8420
G01 X54.2569 Y28.8255
G01 X54.2596 Y28.8091
G01 X54.2642 Y28.7932
G01 X54.2704 Y28.7779
G01 X54.2786 Y28.7628
G01 X54.2885 Y28.7487
G01 X54.2999 Y28.7359
G01 X54.3128 Y28.7245
G01 X54.3268 Y28.7146
G01 X54.3419 Y28.7064
G01 X54.3572 Y28.7002
G01 X54.3731 Y28.6956
G01 X54.3895 Y28.6929
G01 X54.4060 Y28.6920
G01 X54.8559 Y28.6920
G01 X54.8559 Y22.2377
G01 X54.0743 Y21.4561
G01 X45.9437 Y21.4561
G01 X45.4961 Y21.9037
G01 X45.4961 Y22.0880
G01 X45.9460 Y22.0880
G01 X45.9625 Y22.0889
G01 X45.9789 Y22.0916
G01 X45.9948 Y22.0962
G01 X46.0101 Y22.1024
G01 X46.0252 Y22.1106
G01 X46.0392 Y22.1205
G01 X46.0521 Y22.1319
G01 X46.0635 Y22.1447
G01 X46.0734 Y22.1588
G01 X46.0816 Y22.1739
G01 X46.0878 Y22.1892
G01 X46.0924 Y22.2051
G01 X46.0951 Y22.2215
G01 X46.0960 Y22.2380
G01 X46.0960 Y23.9380
G01 X46.0951 Y23.9545
G01 X46.0924 Y23.9709
G01 X46.0878 Y23.9868
G01 X46.0816 Y24.0021
G01 X46.0734 Y24.0172
G01 X46.0635 Y24.0313
G01 X46.0521 Y24.0441
G01 X46.0392 Y24.0555
G01 X46.0252 Y24.0654
G01 X46.0101 Y24.0736
G01 X45.9948 Y24.0798
G01 X45.9789 Y24.0844
G01 X45.9625 Y24.0871
G01 X45.9460 Y24.0880
G01 X44.2460 Y24.0880
G01 X44.2295 Y24.0871
G01 X44.2131 Y24.0844
G01 X44.1972 Y24.0798
G01 X44.1819 Y24.0736
G01 X44.1668 Y24.0654
G01 X44.1528 Y24.0555
G01 X44.1399 Y24.0441
G01 X44.1285 Y24.0313
G01 X44.1186 Y24.0172
G01 X44.1104 Y24.0021
G01 X44.1042 Y23.9868
G01 X44.0996 Y23.9709
G01 X44.0969 Y23.9545
G01 X44.0960 Y23.9380
G01 X44.0960 Y22.2380
G01 X44.0969 Y22.2215
G01 X44.0996 Y22.2051
G01 X44.1042 Y22.1892
G01 X44.1104 Y22.1739
G01 X44.1186 Y22.1588
G01 X44.1285 Y22.1447
G01 X44.1399 Y22.1319
G01 X44.1528 Y22.1205
G01 X44.1668 Y22.1106
G01 X44.1819 Y22.1024
G01 X44.1972 Y22.0962
G01 X44.2131 Y22.0916
G01 X44.2295 Y22.0889
G01 X44.2460 Y22.0880
G01 X44.6959 Y22.0880
G01 X44.6959 Y21.7297
G01 X44.4223 Y21.4561
G01 X26.2917 Y21.4561
G01 X25.8948 Y21.8527
G01 X25.8739 Y21.8714
G01 X25.8608 Y21.8819
G01 X25.8379 Y21.8981
G01 X25.8236 Y21.9071
G01 X25.7991 Y21.9206
G01 X25.7847 Y21.9276
G01 X25.7580 Y21.9387
G01 X25.7421 Y21.9442
G01 X25.7021 Y21.9551
G01 X25.6711 Y21.9604
G01 X25.6544 Y21.9623
G01 X25.6180 Y21.9641
G01 X25.2680 Y21.9641
G01 X25.2680 Y22.4140
G01 X25.2671 Y22.4305
G01 X25.2644 Y22.4469
G01 X25.2598 Y22.4628
G01 X25.2536 Y22.4781
G01 X25.2454 Y22.4932
G01 X25.2355 Y22.5072
G01 X25.2241 Y22.5201
G01 X25.2112 Y22.5315
G01 X25.1972 Y22.5414
G01 X25.1821 Y22.5496
G01 X25.1668 Y22.5558
G01 X25.1509 Y22.5604
G01 X25.1345 Y22.5631
G01 X25.1180 Y22.5640
G01 X23.4180 Y22.5640
G01 X23.4015 Y22.5631
G01 X23.3851 Y22.5604
G01 X23.3692 Y22.5558
G01 X23.3539 Y22.5496
G01 X23.3388 Y22.5414
G01 X23.3248 Y22.5315
G01 X23.3119 Y22.5201
G01 X23.3005 Y22.5072
G01 X23.2906 Y22.4932
G01 X23.2824 Y22.4781
G01 X23.2762 Y22.4628
G01 X23.2716 Y22.4469
G01 X23.2689 Y22.4305
G01 X23.2680 Y22.4140
G01 X23.2680 Y20.7140
G01 X23.2689 Y20.6975
G01 X23.2716 Y20.6811
G01 X23.2762 Y20.6652
G01 X23.2824 Y20.6499
G01 X23.2906 Y20.6348
G01 X23.3005 Y20.6208
G01 X23.3119 Y20.6079
G01 X23.3248 Y20.5965
G01 X23.3388 Y20.5866
G01 X23.3539 Y20.5784
G01 X23.3692 Y20.5722
G01 X23.3851 Y20.5676
G01 X23.4015 Y20.5649
G01 X23.4180 Y20.5640
G01 X23.8679 Y20.5640
G01 X23.8679 Y19.6977
G01 X21.0543 Y16.8841
G01 X8.1777 Y16.8841
G01 X2.8241 Y22.2377
G01 X2.8241 Y37.1463
G01 X8.6857 Y43.0079
G01 X20.2200 Y43.0079
G01 X20.2200 Y42.5580
G01 X20.2209 Y42.5415
G01 X20.2236 Y42.5251
G01 X20.2282 Y42.5092
G01 X20.2344 Y42.4939
G01 X20.2426 Y42.4788
G01 X20.2525 Y42.4648
G01 X20.2639 Y42.4519
G01 X20.2768 Y42.4405
G01 X20.2908 Y42.4306
G01 X20.3059 Y42.4224
G01 X20.3212 Y42.4162
G01 X20.3371 Y42.4116
G01 X20.3535 Y42.4089
G01 X20.3700 Y42.4080
G01 X22.0700 Y42.4080
G01 X22.0865 Y42.4089
G01 X22.1029 Y42.4116
G01 X22.1188 Y42.4162
G01 X22.1341 Y42.4224
G01 X22.1492 Y42.4306
G01 X22.1632 Y42.4405
G01 X22.1761 Y42.4519
G01 X22.1875 Y42.4648
G01 X22.1974 Y42.4788
G01 X22.2056 Y42.4939
G01 X22.2118 Y42.5092
G01 X22.2164 Y42.5251
G01 X22.2191 Y42.5415
G01 X22.2200 Y42.5580
G01 X22.2200 Y44.2580
G01 X22.2191 Y44.2745
G01 X22.2164 Y44.2909
G01 X22.2118 Y44.3068
G01 X22.2056 Y44.3221
G01 X22.1974 Y44.3372
G01 X22.1875 Y44.3512
G01 X22.1761 Y44.3641
G01 X22.1632 Y44.3755
G01 X22.1492 Y44.3854
G01 X22.1341 Y44.3936
G01 X22.1188 Y44.3998
G01 X22.1029 Y44.4044
G01 X22.0865 Y44.4071
G01 X22.0700 Y44.4080
G01 X20.3700 Y44.4080
G01 X20.3535 Y44.4071
G01 X20.3371 Y44.4044
G01 X20.3212 Y44.3998
G01 X20.3059 Y44.3936
G01 X20.2908 Y44.3854
G01 X20.2768 Y44.3755
G01 X20.2639 Y44.3641
G01 X20.2525 Y44.3512
G01 X20.2426 Y44.3372
G01 X20.2344 Y44.3221
G01 X20.2282 Y44.3068
G01 X20.2236 Y44.2909
G01 X20.2209 Y44.2745
G01 X20.2200 Y44.2580
G01 X20.2200 Y43.8081
G01 X8.5200 Y43.8081
G01 X8.4836 Y43.8063
G01 X8.4669 Y43.8044
G01 X8.4392 Y43.7997
G01 X8.4228 Y43.7960
G01 X8.3959 Y43.7882
G01 X8.3800 Y43.7827
G01 X8.3541 Y43.7719
G01 X8.3389 Y43.7646
G01 X8.3018 Y43.7433
G01 X8.2772 Y43.7259
G01 X8.2641 Y43.7154
G01 X8.2371 Y43.6909
G01 X2.1411 Y37.5949
G01 X2.1166 Y37.5679
G01 X2.1061 Y37.5548
G01 X2.0899 Y37.5319
G01 X2.0809 Y37.5176
G01 X2.0674 Y37.4931
G01 X2.0604 Y37.4787
G01 X2.0493 Y37.4520
G01 X2.0438 Y37.4361
G01 X2.0329 Y37.3961
G01 X2.0276 Y37.3651
G01 X2.0257 Y37.3484
G01 X2.0239 Y37.3120
G01 X2.0241 Y22.0636
G00 Z0.5000
G00 X4.0561 Y30.1916
G01 F76.20
G01 Z-0.1500
G01 F76.20
G01 X4.0577 Y30.1636
G01 X4.0596 Y30.1469
G01 X4.0643 Y30.1192
G01 X4.0680 Y30.1028
G01 X4.0758 Y30.0759
G01 X4.0813 Y30.0600
G01 X4.0921 Y30.0341
G01 X4.0994 Y30.0189
G01 X4.1129 Y29.9944
G01 X4.1207 Y29.9818
G01 X4.1381 Y29.9572
G01 X4.1486 Y29.9441
G01 X4.1731 Y29.9171
G01 X4.6811 Y29.4091
G01 X4.7081 Y29.3846
G01 X4.7212 Y29.3741
G01 X4.7441 Y29.3579
G01 X4.7584 Y29.3489
G01 X4.7829 Y29.3354
G01 X4.7973 Y29.3284
G01 X4.8240 Y29.3173
G01 X4.8399 Y29.3118
G01 X4.8668 Y29.3040
G01 X4.8799 Y29.3009
G01 X4.9109 Y29.2956
G01 X4.9276 Y29.2937
G01 X4.9556 Y29.2921
G01 X6.0808 Y29.2919
G01 X6.0916 Y29.2658
G01 X6.0989 Y29.2506
G01 X6.1450 Y29.1672
G01 X6.1528 Y29.1547
G01 X6.2091 Y29.0752
G01 X6.2196 Y29.0621
G01 X6.2831 Y28.9910
G01 X6.2950 Y28.9791
G01 X6.3661 Y28.9156
G01 X6.3792 Y28.9051
G01 X6.4570 Y28.8500
G01 X6.4712 Y28.8410
G01 X6.5546 Y28.7949
G01 X6.5690 Y28.7879
G01 X6.5959 Y28.7768
G01 X6.5959 Y20.5480
G01 X6.5977 Y20.5116
G01 X6.5996 Y20.4949
G01 X6.6043 Y20.4672
G01 X6.6080 Y20.4508
G01 X6.6158 Y20.4239
G01 X6.6213 Y20.4080
G01 X6.6321 Y20.3821
G01 X6.6394 Y20.3669
G01 X6.6607 Y20.3298
G01 X6.6781 Y20.3052
G01 X6.6886 Y20.2921
G01 X6.7131 Y20.2651
G01 X8.7451 Y18.2331
G01 X8.7721 Y18.2086
G01 X8.7852 Y18.1981
G01 X8.8081 Y18.1819
G01 X8.8224 Y18.1729
G01 X8.8469 Y18.1594
G01 X8.8613 Y18.1524
G01 X8.8880 Y18.1413
G01 X8.9039 Y18.1358
G01 X8.9439 Y18.1249
G01 X8.9749 Y18.1196
G01 X8.9916 Y18.1177
G01 X9.0280 Y18.1159
G01 X20.2040 Y18.1159
G01 X20.2404 Y18.1177
G01 X20.2571 Y18.1196
G01 X20.2848 Y18.1243
G01 X20.3012 Y18.1280
G01 X20.3281 Y18.1358
G01 X20.3440 Y18.1413
G01 X20.3699 Y18.1521
G01 X20.3851 Y18.1594
G01 X20.4222 Y18.1807
G01 X20.4468 Y18.1981
G01 X20.4599 Y18.2086
G01 X20.4869 Y18.2331
G01 X22.0109 Y19.7571
G01 X22.0354 Y19.7841
G01 X22.0459 Y19.7972
G01 X22.0621 Y19.8201
G01 X22.0711 Y19.8344
G01 X22.0846 Y19.8589
G01 X22.0916 Y19.8733
G01 X22.1027 Y19.9000
G01 X22.1082 Y19.9159
G01 X22.1191 Y19.9559
G01 X22.1244 Y19.9869
G01 X22.1263 Y20.0036
G01 X22.1281 Y20.0400
G01 X22.1281 Y20.6488
G01 X22.1542 Y20.6596
G01 X22.1694 Y20.6669
G01 X22.2528 Y20.7130
G01 X22.2653 Y20.7208
G01 X22.3448 Y20.7771
G01 X22.3579 Y20.7876
G01 X22.4290 Y20.8511
G01 X22.4409 Y20.8630
G01 X22.5044 Y20.9341
G01 X22.5149 Y20.9472
G01 X22.5700 Y21.0250
G01 X22.5790 Y21.0392
G01 X22.6251 Y21.1226
G01 X22.6321 Y21.1370
G01 X22.6689 Y21.2259
G01 X22.6744 Y21.2417
G01 X22.7008 Y21.3333
G01 X22.7040 Y21.3464
G01 X22.7205 Y21.4437
G01 X22.7224 Y21.4604
G01 X22.7278 Y21.5556
G01 X22.7278 Y21.5724
G01 X22.7224 Y21.6676
G01 X22.7205 Y21.6843
G01 X22.7046 Y21.7783
G01 X22.7008 Y21.7947
G01 X22.6744 Y21.8863
G01 X22.6689 Y21.9021
G01 X22.6324 Y21.9902
G01 X22.6251 Y22.0054
G01 X22.5790 Y22.0888
G01 X22.5712 Y22.1013
G01 X22.5149 Y22.1808
G01 X22.5044 Y22.1939
G01 X22.4409 Y22.2650
G01 X22.4290 Y22.2769
G01 X22.3579 Y22.3404
G01 X22.3448 Y22.3509
G01 X22.2670 Y22.4060
G01 X22.2528 Y22.4150
G01 X22.1694 Y22.4611
G01 X22.1550 Y22.4681
G01 X22.1281 Y22.4792
G01 X22.1281 Y23.4303
G01 X22.9097 Y24.2119
G01 X29.1823 Y24.2119
G01 X31.0971 Y22.2971
G01 X31.1241 Y22.2726
G01 X31.1372 Y22.2621
G01 X31.1601 Y22.2459
G01 X31.1744 Y22.2369
G01 X31.1989 Y22.2234
G01 X31.2133 Y22.2164
G01 X31.2400 Y22.2053
G01 X31.2559 Y22.1998
G01 X31.2959 Y22.1889
G01 X31.3269 Y22.1836
G01 X31.3436 Y22.1817
G01 X31.3800 Y22.1799
G01 X34.4280 Y22.1799
G01 X34.4644 Y22.1817
G01 X34.4811 Y22.1836
G01 X34.5088 Y22.1883
G01 X34.5252 Y22.1920
G01 X34.5521 Y22.1998
G01 X34.5680 Y22.2053
G01 X34.5939 Y22.2161
G01 X34.6091 Y22.2234
G01 X34.6462 Y22.2447
G01 X34.6708 Y22.2621
G01 X34.6839 Y22.2726
G01 X34.7048 Y22.2913
G01 X37.1337 Y24.7199
G01 X46.9623 Y24.7199
G01 X47.2359 Y24.4463
G01 X47.2359 Y24.0032
G01 X47.2098 Y23.9924
G01 X47.1946 Y23.9851
G01 X47.1112 Y23.9390
G01 X47.0987 Y23.9312
G01 X47.0192 Y23.8749
G01 X47.0061 Y23.8644
G01 X46.9350 Y23.8009
G01 X46.9231 Y23.7890
G01 X46.8596 Y23.7179
G01 X46.8491 Y23.7048
G01 X46.7940 Y23.6270
G01 X46.7850 Y23.6128
G01 X46.7389 Y23.5294
G01 X46.7319 Y23.5150
G01 X46.6951 Y23.4261
G01 X46.6896 Y23.4103
G01 X46.6632 Y23.3187
G01 X46.6600 Y23.3056
G01 X46.6435 Y23.2083
G01 X46.6416 Y23.1916
G01 X46.6362 Y23.0964
G01 X46.6362 Y23.0796
G01 X46.6416 Y22.9844
G01 X46.6435 Y22.9677
G01 X46.6594 Y22.8737
G01 X46.6632 Y22.8573
G01 X46.6896 Y22.7657
G01 X46.6951 Y22.7499
G01 X46.7316 Y22.6618
G01 X46.7389 Y22.6466
G01 X46.7850 Y22.5632
G01 X46.7928 Y22.5507
G01 X46.8491 Y22.4712
G01 X46.8596 Y22.4581
G01 X46.9231 Y22.3870
G01 X46.9350 Y22.3751
G01 X47.0061 Y22.3116
G01 X47.0192 Y22.3011
G01 X47.0970 Y22.2460
G01 X47.1112 Y22.2370
G01 X47.1946 Y22.1909
G01 X47.2090 Y22.1839
G01 X47.2979 Y22.1471
G01 X47.3137 Y22.1416
G01 X47.4053 Y22.1152
G01 X47.4184 Y22.1120
G01 X47.5157 Y22.0955
G01 X47.5324 Y22.0936
G01 X47.6276 Y22.0882
G01 X47.6444 Y22.0882
G01 X47.7396 Y22.0936
G01 X47.7563 Y22.0955
G01 X47.8503 Y22.1114
G01 X47.8667 Y22.1152
G01 X47.9583 Y22.1416
G01 X47.9741 Y22.1471
G01 X48.0622 Y22.1836
G01 X48.0774 Y22.1909
G01 X48.1608 Y22.2370
G01 X48.1733 Y22.2448
G01 X48.2528 Y22.3011
G01 X48.2659 Y22.3116
G01 X48.3370 Y22.3751
G01 X48.3489 Y22.3870
G01 X48.4124 Y22.4581
G01 X48.4229 Y22.4712
G01 X48.4780 Y22.5490
G01 X48.4870 Y22.5632
G01 X48.5331 Y22.6466
G01 X48.5401 Y22.6610
G01 X48.5769 Y22.7499
G01 X48.5824 Y22.7657
G01 X48.6088 Y22.8573
G01 X48.6120 Y22.8704
G01 X48.6285 Y22.9677
G01 X48.6304 Y22.9844
G01 X48.6358 Y23.0796
G01 X48.6358 Y23.0964
G01 X48.6304 Y23.1916
G01 X48.6285 Y23.2083
G01 X48.6126 Y23.3023
G01 X48.6088 Y23.3187
G01 X48.5824 Y23.4103
G01 X48.5769 Y23.4261
G01 X48.5404 Y23.5142
G01 X48.5331 Y23.5294
G01 X48.4870 Y23.6128
G01 X48.4792 Y23.6253
G01 X48.4229 Y23.7048
G01 X48.4124 Y23.7179
G01 X48.3489 Y23.7890
G01 X48.3370 Y23.8009
G01 X48.2659 Y23.8644
G01 X48.2528 Y23.8749
G01 X48.1750 Y23.9300
G01 X48.1608 Y23.9390
G01 X48.0774 Y23.9851
G01 X48.0630 Y23.9921
G01 X48.0361 Y24.0032
G01 X48.0361 Y24.6120
G01 X48.0343 Y24.6484
G01 X48.0324 Y24.6651
G01 X48.0277 Y24.6928
