(G-CODE GENERATED BY FLATCAM v8.911 - www.flatcam.org - Version Date: 2019/03/4)

(Name: Thermostat-B_Cu.gbr_iso_cnc)
(Type: G-code from Geometry)
(Units: MM)

(Created on Thursday, 13 February 2020 at 16:06)

(TOOL DIAMETER: 0.3 mm)
(Feedrate: 76.2 mm/min)
(Feedrate_Z: 76.2 mm/min)
(Feedrate rapids 76.2 mm/min)

(Z_Cut: -0.2 mm)
(Z_Move: 0.5 mm)
(Z Toolchange: 25.4 mm)
(X,Y Toolchange: 0.0000, 0.0000 mm)
(Z Start: None mm)
(Z End: 50.8 mm)
(Steps per circle: 64)
(Postprocessor Geometry: default)

(X range:    0.7737 ...   83.8623  mm)
(Y range:    1.0770 ...   47.6143  mm)

(Spindle Speed: None RPM)

G21
G90
G94

G01 F76.20
G00 Z0.5000

M03
G00 X0.7740 Y22.0636
G01 F76.20
G01 Z-0.2000
G01 F76.20
G01 X0.7771 Y22.0076
G01 X0.7790 Y21.9909
G01 X0.7884 Y21.9356
G01 X0.7922 Y21.9192
G01 X0.8077 Y21.8653
G01 X0.8132 Y21.8494
G01 X0.8347 Y21.7975
G01 X0.8420 Y21.7824
G01 X0.8691 Y21.7333
G01 X0.8769 Y21.7208
G01 X0.9106 Y21.6733
G01 X0.9210 Y21.6601
G01 X0.9642 Y21.6122
G01 X6.5522 Y16.0242
G01 X6.6001 Y15.9810
G01 X6.6133 Y15.9706
G01 X6.6591 Y15.9381
G01 X6.6733 Y15.9291
G01 X6.7224 Y15.9020
G01 X6.7367 Y15.8950
G01 X6.7894 Y15.8732
G01 X6.8053 Y15.8677
G01 X6.8722 Y15.8490
G01 X6.9309 Y15.8390
G01 X6.9476 Y15.8371
G01 X7.0036 Y15.8340
G01 X20.2200 Y15.8337
G01 X20.2844 Y15.8371
G01 X20.3011 Y15.8390
G01 X20.3564 Y15.8484
G01 X20.3728 Y15.8522
G01 X20.4267 Y15.8677
G01 X20.4426 Y15.8732
G01 X20.4945 Y15.8947
G01 X20.5096 Y15.9020
G01 X20.5587 Y15.9291
G01 X20.5712 Y15.9369
G01 X20.6187 Y15.9706
G01 X20.6319 Y15.9810
G01 X20.6798 Y16.0242
G01 X23.7278 Y19.0722
G01 X23.7710 Y19.1201
G01 X23.7814 Y19.1333
G01 X23.8139 Y19.1791
G01 X23.8229 Y19.1933
G01 X23.8500 Y19.2424
G01 X23.8570 Y19.2567
G01 X23.8788 Y19.3094
G01 X23.8843 Y19.3253
G01 X23.9030 Y19.3922
G01 X23.9130 Y19.4509
G01 X23.9149 Y19.4676
G01 X23.9183 Y19.5320
G01 X23.9183 Y20.5640
G01 X24.1180 Y20.5640
G01 X24.1345 Y20.5649
G01 X24.1509 Y20.5676
G01 X24.1668 Y20.5722
G01 X24.1821 Y20.5784
G01 X24.1972 Y20.5866
G01 X24.2112 Y20.5965
G01 X24.2241 Y20.6079
G01 X24.2355 Y20.6208
G01 X24.2454 Y20.6348
G01 X24.2536 Y20.6499
G01 X24.2598 Y20.6652
G01 X24.2644 Y20.6811
G01 X24.2671 Y20.6975
G01 X24.2680 Y20.7140
G01 X24.2680 Y20.9137
G01 X24.3487 Y20.9137
G01 X24.6723 Y20.5904
G01 X24.7141 Y20.5530
G01 X24.7273 Y20.5426
G01 X24.7731 Y20.5101
G01 X24.7873 Y20.5011
G01 X24.8364 Y20.4740
G01 X24.8507 Y20.4670
G01 X24.9034 Y20.4452
G01 X24.9193 Y20.4397
G01 X24.9732 Y20.4242
G01 X24.9862 Y20.4210
G01 X25.0449 Y20.4110
G01 X25.0616 Y20.4091
G01 X25.1260 Y20.4057
G01 X43.5880 Y20.4057
G01 X43.6524 Y20.4091
G01 X43.6691 Y20.4110
G01 X43.7244 Y20.4204
G01 X43.7408 Y20.4242
G01 X43.7947 Y20.4397
G01 X43.8106 Y20.4452
G01 X43.8625 Y20.4667
G01 X43.8776 Y20.4740
G01 X43.9267 Y20.5011
G01 X43.9392 Y20.5089
G01 X43.9867 Y20.5426
G01 X43.9999 Y20.5530
G01 X44.0417 Y20.5904
G01 X44.0536 Y20.6023
G01 X44.0910 Y20.6441
G01 X44.1014 Y20.6573
G01 X44.1339 Y20.7031
G01 X44.1429 Y20.7173
G01 X44.1622 Y20.7522
G01 X44.3243 Y20.5904
G01 X44.3661 Y20.5530
G01 X44.3793 Y20.5426
G01 X44.4251 Y20.5101
G01 X44.4393 Y20.5011
G01 X44.4884 Y20.4740
G01 X44.5027 Y20.4670
G01 X44.5554 Y20.4452
G01 X44.5713 Y20.4397
G01 X44.6252 Y20.4242
G01 X44.6382 Y20.4210
G01 X44.6969 Y20.4110
G01 X44.7136 Y20.4091
G01 X44.7696 Y20.4060
G01 X53.2400 Y20.4057
G01 X53.3044 Y20.4091
G01 X53.3211 Y20.4110
G01 X53.3764 Y20.4204
G01 X53.3928 Y20.4242
G01 X53.4467 Y20.4397
G01 X53.4626 Y20.4452
G01 X53.5145 Y20.4667
G01 X53.5296 Y20.4740
G01 X53.5787 Y20.5011
G01 X53.5912 Y20.5089
G01 X53.6387 Y20.5426
G01 X53.6519 Y20.5530
G01 X53.6998 Y20.5962
G01 X54.7158 Y21.6122
G01 X54.7590 Y21.6601
G01 X54.7694 Y21.6733
G01 X54.8019 Y21.7191
G01 X54.8109 Y21.7333
G01 X54.8380 Y21.7824
G01 X54.8450 Y21.7967
G01 X54.8668 Y21.8494
G01 X54.8723 Y21.8653
G01 X54.8910 Y21.9322
G01 X54.9010 Y21.9909
G01 X54.9029 Y22.0076
G01 X54.9063 Y22.0720
G01 X54.9063 Y28.6920
G01 X55.1060 Y28.6920
G01 X55.1225 Y28.6929
G01 X55.1389 Y28.6956
G01 X55.1548 Y28.7002
G01 X55.1701 Y28.7064
G01 X55.1852 Y28.7146
G01 X55.1992 Y28.7245
G01 X55.2121 Y28.7359
G01 X55.2235 Y28.7487
G01 X55.2334 Y28.7628
G01 X55.2416 Y28.7779
G01 X55.2478 Y28.7932
G01 X55.2524 Y28.8091
G01 X55.2551 Y28.8255
G01 X55.2560 Y28.8420
G01 X55.2560 Y30.5420
G01 X55.2551 Y30.5585
G01 X55.2524 Y30.5749
G01 X55.2478 Y30.5908
G01 X55.2416 Y30.6061
G01 X55.2334 Y30.6212
G01 X55.2235 Y30.6353
G01 X55.2121 Y30.6481
G01 X55.1992 Y30.6595
G01 X55.1852 Y30.6694
G01 X55.1701 Y30.6776
G01 X55.1548 Y30.6838
G01 X55.1389 Y30.6884
G01 X55.1225 Y30.6911
G01 X55.1060 Y30.6920
G01 X53.4060 Y30.6920
G01 X53.3895 Y30.6911
G01 X53.3731 Y30.6884
G01 X53.3572 Y30.6838
G01 X53.3419 Y30.6776
G01 X53.3268 Y30.6694
G01 X53.3128 Y30.6595
G01 X53.2999 Y30.6481
G01 X53.2885 Y30.6353
G01 X53.2786 Y30.6212
G01 X53.2704 Y30.6061
G01 X53.2642 Y30.5908
G01 X53.2596 Y30.5749
G01 X53.2569 Y30.5585
G01 X53.2560 Y30.5420
G01 X53.2560 Y28.8420
G01 X53.2569 Y28.8255
G01 X53.2596 Y28.8091
G01 X53.2642 Y28.7932
G01 X53.2704 Y28.7779
G01 X53.2786 Y28.7628
G01 X53.2885 Y28.7487
G01 X53.2999 Y28.7359
G01 X53.3128 Y28.7245
G01 X53.3268 Y28.7146
G01 X53.3419 Y28.7064
G01 X53.3572 Y28.7002
G01 X53.3731 Y28.6956
G01 X53.3895 Y28.6929
G01 X53.4060 Y28.6920
G01 X53.6057 Y28.6920
G01 X53.6057 Y22.3413
G01 X52.9707 Y21.7063
G01 X45.0473 Y21.7063
G01 X44.7463 Y22.0073
G01 X44.7463 Y22.0720
G01 X44.7456 Y22.0880
G01 X44.9460 Y22.0880
G01 X44.9625 Y22.0889
G01 X44.9789 Y22.0916
G01 X44.9948 Y22.0962
G01 X45.0101 Y22.1024
G01 X45.0252 Y22.1106
G01 X45.0392 Y22.1205
G01 X45.0521 Y22.1319
G01 X45.0635 Y22.1447
G01 X45.0734 Y22.1588
G01 X45.0816 Y22.1739
G01 X45.0878 Y22.1892
G01 X45.0924 Y22.2051
G01 X45.0951 Y22.2215
G01 X45.0960 Y22.2380
G01 X45.0960 Y23.9380
G01 X45.0951 Y23.9545
G01 X45.0924 Y23.9709
G01 X45.0878 Y23.9868
G01 X45.0816 Y24.0021
G01 X45.0734 Y24.0172
G01 X45.0635 Y24.0313
G01 X45.0521 Y24.0441
G01 X45.0392 Y24.0555
G01 X45.0252 Y24.0654
G01 X45.0101 Y24.0736
G01 X44.9948 Y24.0798
G01 X44.9789 Y24.0844
G01 X44.9625 Y24.0871
G01 X44.9460 Y24.0880
G01 X43.2460 Y24.0880
G01 X43.2295 Y24.0871
G01 X43.2131 Y24.0844
G01 X43.1972 Y24.0798
G01 X43.1819 Y24.0736
G01 X43.1668 Y24.0654
G01 X43.1528 Y24.0555
G01 X43.1399 Y24.0441
G01 X43.1285 Y24.0313
G01 X43.1186 Y24.0172
G01 X43.1104 Y24.0021
G01 X43.1042 Y23.9868
G01 X43.0996 Y23.9709
G01 X43.0969 Y23.9545
G01 X43.0960 Y23.9380
G01 X43.0960 Y22.2380
G01 X43.0969 Y22.2215
G01 X43.0996 Y22.2051
G01 X43.1042 Y22.1892
G01 X43.1104 Y22.1739
G01 X43.1186 Y22.1588
G01 X43.1285 Y22.1447
G01 X43.1399 Y22.1319
G01 X43.1528 Y22.1205
G01 X43.1668 Y22.1106
G01 X43.1819 Y22.1024
G01 X43.1971 Y22.0962
G01 X43.2130 Y22.0917
G01 X43.2292 Y22.0889
G01 X43.2457 Y22.0880
G01 X43.4464 Y22.0876
G01 X43.4457 Y22.0720
G01 X43.4457 Y21.8880
G01 X43.4491 Y21.8236
G01 X43.4504 Y21.8125
G01 X43.4491 Y21.8024
G01 X43.4460 Y21.7464
G01 X43.4460 Y21.7296
G01 X43.4473 Y21.7063
G01 X25.3953 Y21.7063
G01 X25.0778 Y22.0238
G01 X25.0299 Y22.0670
G01 X25.0167 Y22.0774
G01 X24.9709 Y22.1099
G01 X24.9567 Y22.1189
G01 X24.9076 Y22.1460
G01 X24.8933 Y22.1530
G01 X24.8406 Y22.1748
G01 X24.8247 Y22.1803
G01 X24.7708 Y22.1958
G01 X24.7544 Y22.1996
G01 X24.6991 Y22.2090
G01 X24.6824 Y22.2109
G01 X24.6180 Y22.2143
G01 X24.2680 Y22.2143
G01 X24.2680 Y22.4140
G01 X24.2671 Y22.4305
G01 X24.2644 Y22.4469
G01 X24.2598 Y22.4628
G01 X24.2536 Y22.4781
G01 X24.2454 Y22.4932
G01 X24.2355 Y22.5072
G01 X24.2241 Y22.5201
G01 X24.2112 Y22.5315
G01 X24.1972 Y22.5414
G01 X24.1821 Y22.5496
G01 X24.1668 Y22.5558
G01 X24.1509 Y22.5604
G01 X24.1345 Y22.5631
G01 X24.1180 Y22.5640
G01 X22.4180 Y22.5640
G01 X22.4015 Y22.5631
G01 X22.3851 Y22.5604
G01 X22.3692 Y22.5558
G01 X22.3539 Y22.5496
G01 X22.3388 Y22.5414
G01 X22.3248 Y22.5315
G01 X22.3119 Y22.5201
G01 X22.3005 Y22.5072
G01 X22.2906 Y22.4932
G01 X22.2824 Y22.4781
G01 X22.2762 Y22.4628
G01 X22.2716 Y22.4469
G01 X22.2689 Y22.4305
G01 X22.2680 Y22.4140
G01 X22.2680 Y20.7140
G01 X22.2689 Y20.6975
G01 X22.2716 Y20.6811
G01 X22.2762 Y20.6652
G01 X22.2824 Y20.6499
G01 X22.2906 Y20.6348
G01 X22.3005 Y20.6208
G01 X22.3119 Y20.6079
G01 X22.3248 Y20.5965
G01 X22.3388 Y20.5866
G01 X22.3539 Y20.5784
G01 X22.3692 Y20.5722
G01 X22.3851 Y20.5676
G01 X22.4015 Y20.5649
G01 X22.4180 Y20.5640
G01 X22.6177 Y20.5640
G01 X22.6177 Y19.8013
G01 X19.9507 Y17.1343
G01 X7.2813 Y17.1343
G01 X2.0743 Y22.3413
G01 X2.0743 Y37.0427
G01 X7.7893 Y42.7577
G01 X19.2200 Y42.7577
G01 X19.2200 Y42.5580
G01 X19.2209 Y42.5415
G01 X19.2236 Y42.5251
G01 X19.2282 Y42.5092
G01 X19.2344 Y42.4939
G01 X19.2426 Y42.4788
G01 X19.2525 Y42.4648
G01 X19.2639 Y42.4519
G01 X19.2768 Y42.4405
G01 X19.2908 Y42.4306
G01 X19.3059 Y42.4224
G01 X19.3212 Y42.4162
G01 X19.3371 Y42.4116
G01 X19.3535 Y42.4089
G01 X19.3700 Y42.4080
G01 X21.0700 Y42.4080
G01 X21.0865 Y42.4089
G01 X21.1029 Y42.4116
G01 X21.1188 Y42.4162
G01 X21.1341 Y42.4224
G01 X21.1492 Y42.4306
G01 X21.1632 Y42.4405
G01 X21.1761 Y42.4519
G01 X21.1875 Y42.4648
G01 X21.1974 Y42.4788
G01 X21.2056 Y42.4939
G01 X21.2118 Y42.5092
G01 X21.2164 Y42.5251
G01 X21.2191 Y42.5415
G01 X21.2200 Y42.5580
G01 X21.2200 Y44.2580
G01 X21.2191 Y44.2745
G01 X21.2164 Y44.2909
G01 X21.2118 Y44.3068
G01 X21.2056 Y44.3221
G01 X21.1974 Y44.3372
G01 X21.1875 Y44.3512
G01 X21.1761 Y44.3641
G01 X21.1632 Y44.3755
G01 X21.1492 Y44.3854
G01 X21.1341 Y44.3936
G01 X21.1188 Y44.3998
G01 X21.1029 Y44.4044
G01 X21.0865 Y44.4071
G01 X21.0700 Y44.4080
G01 X19.3700 Y44.4080
G01 X19.3535 Y44.4071
G01 X19.3371 Y44.4044
G01 X19.3212 Y44.3998
G01 X19.3059 Y44.3936
G01 X19.2908 Y44.3854
G01 X19.2768 Y44.3755
G01 X19.2639 Y44.3641
G01 X19.2525 Y44.3512
G01 X19.2426 Y44.3372
G01 X19.2344 Y44.3221
G01 X19.2282 Y44.3068
G01 X19.2236 Y44.2909
G01 X19.2209 Y44.2745
G01 X19.2200 Y44.2580
G01 X19.2200 Y44.0583
G01 X7.5200 Y44.0583
G01 X7.4556 Y44.0549
G01 X7.4389 Y44.0530
G01 X7.3836 Y44.0436
G01 X7.3672 Y44.0398
G01 X7.3133 Y44.0243
G01 X7.2974 Y44.0188
G01 X7.2455 Y43.9973
G01 X7.2304 Y43.9900
G01 X7.1813 Y43.9629
G01 X7.1688 Y43.9551
G01 X7.1213 Y43.9214
G01 X7.1081 Y43.9110
G01 X7.0602 Y43.8678
G01 X0.9642 Y37.7718
G01 X0.9210 Y37.7239
G01 X0.9106 Y37.7107
G01 X0.8781 Y37.6649
G01 X0.8691 Y37.6507
G01 X0.8420 Y37.6016
G01 X0.8350 Y37.5873
G01 X0.8132 Y37.5346
G01 X0.8077 Y37.5187
G01 X0.7890 Y37.4518
G01 X0.7790 Y37.3931
G01 X0.7771 Y37.3764
G01 X0.7737 Y37.3120
G01 X0.7740 Y22.0636
G00 Z0.5000
G00 X2.8060 Y30.1916
G01 F76.20
G01 Z-0.2000
G01 F76.20
G01 X2.8091 Y30.1356
G01 X2.8110 Y30.1189
G01 X2.8204 Y30.0636
G01 X2.8242 Y30.0472
G01 X2.8397 Y29.9933
G01 X2.8452 Y29.9774
G01 X2.8667 Y29.9255
G01 X2.8740 Y29.9104
G01 X2.9011 Y29.8613
G01 X2.9101 Y29.8471
G01 X2.9426 Y29.8013
G01 X2.9530 Y29.7881
G01 X2.9962 Y29.7402
G01 X3.5103 Y29.2264
G01 X3.5521 Y29.1890
G01 X3.5653 Y29.1786
G01 X3.6111 Y29.1461
G01 X3.6253 Y29.1371
G01 X3.6744 Y29.1100
G01 X3.6887 Y29.1030
G01 X3.7414 Y29.0812
G01 X3.7573 Y29.0757
G01 X3.8112 Y29.0602
G01 X3.8242 Y29.0570
G01 X3.8829 Y29.0470
G01 X3.8996 Y29.0451
G01 X3.9556 Y29.0420
G01 X5.2378 Y29.0417
G01 X5.2831 Y28.9910
G01 X5.2950 Y28.9791
G01 X5.3661 Y28.9156
G01 X5.3792 Y28.9051
G01 X5.4458 Y28.8579
G01 X5.4458 Y20.5480
G01 X5.4486 Y20.4948
G01 X5.4504 Y20.4781
G01 X5.4580 Y20.4338
G01 X5.4617 Y20.4174
G01 X5.4741 Y20.3743
G01 X5.4797 Y20.3584
G01 X5.4969 Y20.3170
G01 X5.5041 Y20.3018
G01 X5.5259 Y20.2625
G01 X5.5336 Y20.2500
G01 X5.5608 Y20.2117
G01 X5.5713 Y20.1985
G01 X5.6069 Y20.1589
G01 X7.6389 Y18.1269
G01 X7.6785 Y18.0913
G01 X7.6917 Y18.0808
G01 X7.7283 Y18.0548
G01 X7.7425 Y18.0459
G01 X7.7818 Y18.0241
G01 X7.7962 Y18.0172
G01 X7.8384 Y17.9997
G01 X7.8543 Y17.9941
G01 X7.9105 Y17.9786
G01 X7.9581 Y17.9704
G01 X7.9748 Y17.9686
G01 X8.0280 Y17.9658
G01 X19.2040 Y17.9658
G01 X19.2572 Y17.9686
G01 X19.2739 Y17.9704
G01 X19.3182 Y17.9780
G01 X19.3346 Y17.9817
G01 X19.3777 Y17.9941
G01 X19.3936 Y17.9997
G01 X19.4350 Y18.0169
G01 X19.4502 Y18.0241
G01 X19.4895 Y18.0459
G01 X19.5020 Y18.0536
G01 X19.5403 Y18.0808
G01 X19.5535 Y18.0913
G01 X19.5931 Y18.1269
G01 X21.1171 Y19.6509
G01 X21.1527 Y19.6905
G01 X21.1632 Y19.7037
G01 X21.1892 Y19.7403
G01 X21.1981 Y19.7545
G01 X21.2199 Y19.7938
G01 X21.2268 Y19.8082
G01 X21.2443 Y19.8504
G01 X21.2499 Y19.8663
G01 X21.2654 Y19.9225
G01 X21.2736 Y19.9701
G01 X21.2754 Y19.9868
G01 X21.2780 Y20.0316
G01 X21.2782 Y20.7299
G01 X21.3448 Y20.7771
G01 X21.3579 Y20.7876
G01 X21.4290 Y20.8511
G01 X21.4409 Y20.8630
G01 X21.5044 Y20.9341
G01 X21.5149 Y20.9472
G01 X21.5700 Y21.0250
G01 X21.5790 Y21.0392
G01 X21.6251 Y21.1226
G01 X21.6321 Y21.1370
G01 X21.6689 Y21.2259
G01 X21.6744 Y21.2417
G01 X21.7008 Y21.3333
G01 X21.7040 Y21.3464
G01 X21.7205 Y21.4437
G01 X21.7224 Y21.4604
G01 X21.7280 Y21.5640
G01 X21.7224 Y21.6676
G01 X21.7205 Y21.6843
G01 X21.7046 Y21.7783
G01 X21.7008 Y21.7947
G01 X21.6744 Y21.8863
G01 X21.6689 Y21.9021
G01 X21.6324 Y21.9902
G01 X21.6251 Y22.0054
G01 X21.5790 Y22.0888
G01 X21.5712 Y22.1013
G01 X21.5149 Y22.1808
G01 X21.5044 Y22.1939
G01 X21.4409 Y22.2650
G01 X21.4290 Y22.2769
G01 X21.3579 Y22.3404
G01 X21.3448 Y22.3509
G01 X21.2782 Y22.3981
G01 X21.2782 Y23.3681
G01 X21.9719 Y24.0618
G01 X28.1201 Y24.0618
G01 X29.9909 Y22.1909
G01 X30.0305 Y22.1553
G01 X30.0437 Y22.1448
G01 X30.0803 Y22.1188
G01 X30.0945 Y22.1099
G01 X30.1338 Y22.0881
G01 X30.1482 Y22.0812
G01 X30.1904 Y22.0637
G01 X30.2063 Y22.0581
G01 X30.2494 Y22.0457
G01 X30.2658 Y22.0420
G01 X30.3101 Y22.0344
G01 X30.3268 Y22.0326
G01 X30.3800 Y22.0298
G01 X33.4280 Y22.0298
G01 X33.4812 Y22.0326
G01 X33.4979 Y22.0344
G01 X33.5422 Y22.0420
G01 X33.5586 Y22.0457
G01 X33.6017 Y22.0581
G01 X33.6176 Y22.0637
G01 X33.6590 Y22.0809
G01 X33.6742 Y22.0881
G01 X33.7135 Y22.1099
G01 X33.7260 Y22.1176
G01 X33.7643 Y22.1448
G01 X33.7775 Y22.1553
G01 X33.8109 Y22.1852
G01 X36.1959 Y24.5698
G01 X45.9001 Y24.5698
G01 X46.0858 Y24.3841
G01 X46.0858 Y23.9221
G01 X46.0192 Y23.8749
G01 X46.0061 Y23.8644
G01 X45.9350 Y23.8009
G01 X45.9231 Y23.7890
G01 X45.8596 Y23.7179
G01 X45.8491 Y23.7048
G01 X45.7940 Y23.6270
G01 X45.7850 Y23.6128
G01 X45.7389 Y23.5294
G01 X45.7319 Y23.5150
G01 X45.6951 Y23.4261
G01 X45.6896 Y23.4103
G01 X45.6632 Y23.3187
G01 X45.6594 Y23.3023
G01 X45.6435 Y23.2083
G01 X45.6416 Y23.1916
G01 X45.6360 Y23.0880
G01 X45.6416 Y22.9844
G01 X45.6435 Y22.9677
G01 X45.6594 Y22.8737
G01 X45.6632 Y22.8573
G01 X45.6896 Y22.7657
G01 X45.6951 Y22.7499
G01 X45.7316 Y22.6618
G01 X45.7389 Y22.6466
G01 X45.7850 Y22.5632
G01 X45.7928 Y22.5507
G01 X45.8491 Y22.4712
G01 X45.8596 Y22.4581
G01 X45.9231 Y22.3870
G01 X45.9350 Y22.3751
G01 X46.0061 Y22.3116
G01 X46.0192 Y22.3011
G01 X46.0970 Y22.2460
G01 X46.1112 Y22.2370
G01 X46.1946 Y22.1909
G01 X46.2090 Y22.1839
G01 X46.2979 Y22.1471
G01 X46.3137 Y22.1416
G01 X46.4053 Y22.1152
G01 X46.4217 Y22.1114
G01 X46.5157 Y22.0955
G01 X46.5324 Y22.0936
G01 X46.6360 Y22.0880
G01 X46.7396 Y22.0936
G01 X46.7563 Y22.0955
G01 X46.8503 Y22.1114
G01 X46.8667 Y22.1152
G01 X46.9583 Y22.1416
G01 X46.9741 Y22.1471
G01 X47.0622 Y22.1836
G01 X47.0774 Y22.1909
G01 X47.1608 Y22.2370
G01 X47.1733 Y22.2448
G01 X47.2528 Y22.3011
G01 X47.2659 Y22.3116
G01 X47.3370 Y22.3751
G01 X47.3489 Y22.3870
G01 X47.4124 Y22.4581
G01 X47.4229 Y22.4712
G01 X47.4780 Y22.5490
G01 X47.4870 Y22.5632
G01 X47.5331 Y22.6466
G01 X47.5401 Y22.6610
G01 X47.5769 Y22.7499
G01 X47.5824 Y22.7657
G01 X47.6088 Y22.8573
G01 X47.6120 Y22.8704
G01 X47.6285 Y22.9677
G01 X47.6304 Y22.9844
G01 X47.6358 Y23.0796
G01 X47.6358 Y23.0964
G01 X47.6304 Y23.1916
G01 X47.6285 Y23.2083
G01 X47.6126 Y23.3023
G01 X47.6088 Y23.3187
G01 X47.5824 Y23.4103
G01 X47.5769 Y23.4261
G01 X47.5404 Y23.5142
G01 X47.5331 Y23.5294
G01 X47.4870 Y23.6128
G01 X47.4792 Y23.6253
G01 X47.4229 Y23.7048
G01 X47.4124 Y23.7179
G01 X47.3489 Y23.7890
G01 X47.3370 Y23.8009
G01 X47.2659 Y23.8644
G01 X47.2528 Y23.8749
G01 X47.1862 Y23.9221
G01 X47.1862 Y24.6120
G01 X47.1834 Y24.6652
G01 X47.1816 Y24.6819
G01 X47.1740 Y24.7262
G01 X47.1703 Y24.7426
G01 X47.1579 Y24.7857
G01 X47.1523 Y24.8016
G01 X47.1351 Y24.8430
G01 X47.1279 Y24.8582
G01 X47.1061 Y24.8975
G01 X47.0984 Y24.9100
G01 X47.0712 Y24.9483
G01 X47.0607 Y24.9615
G01 X47.0251 Y25.0011
G01 X46.5171 Y25.5091
G01 X46.4775 Y25.5447
G01 X46.4643 Y25.5552
G01 X46.4277 Y25.5812
G01 X46.4135 Y25.5901
G01 X46.3742 Y25.6119
G01 X46.3598 Y25.6188
G01 X46.3176 Y25.6363
G01 X46.3017 Y25.6419
G01 X46.2455 Y25.6574
G01 X46.1979 Y25.6656
G01 X46.1812 Y25.6674
G01 X46.1280 Y25.6702
G01 X35.9680 Y25.6702
G01 X35.9148 Y25.6674
G01 X35.8981 Y25.6656
G01 X35.8538 Y25.6580
G01 X35.8374 Y25.6543
G01 X35.7943 Y25.6419
G01 X35.7784 Y25.6363
G01 X35.7370 Y25.6191
G01 X35.7218 Y25.6119
G01 X35.6825 Y25.5901
G01 X35.6700 Y25.5824
G01 X35.6317 Y25.5552
G01 X35.6185 Y25.5447
G01 X35.5789 Y25.5091
G01 X33.2001 Y23.1302
G01 X30.6079 Y23.1302
G01 X28.7309 Y25.0068
G01 X28.6975 Y25.0367
G01 X28.6843 Y25.0472
G01 X28.6477 Y25.0732
G01 X28.6335 Y25.0821
G01 X28.5942 Y25.1039
G01 X28.5798 Y25.1108
G01 X28.5376 Y25.1283
G01 X28.5217 Y25.1339
G01 X28.4786 Y25.1463
G01 X28.4622 Y25.1500
G01 X28.4179 Y25.1576
G01 X28.4012 Y25.1594
G01 X28.3480 Y25.1622
G01 X21.7440 Y25.1622
G01 X21.6908 Y25.1594
G01 X21.6741 Y25.1576
G01 X21.6298 Y25.1500
G01 X21.6134 Y25.1463
G01 X21.5703 Y25.1339
G01 X21.5544 Y25.1283
G01 X21.5130 Y25.1111
G01 X21.4978 Y25.1039
G01 X21.4585 Y25.0821
G01 X21.4460 Y25.0744
G01 X21.4077 Y25.0472
G01 X21.3945 Y25.0367
G01 X21.3611 Y25.0068
G01 X20.3389 Y23.9851
G01 X20.3033 Y23.9455
G01 X20.2928 Y23.9323
G01 X20.2668 Y23.8957
G01 X20.2579 Y23.8815
G01 X20.2361 Y23.8422
G01 X20.2292 Y23.8278
G01 X20.2117 Y23.7856
G01 X20.2061 Y23.7697
G01 X20.1906 Y23.7135
G01 X20.1824 Y23.6659
G01 X20.1806 Y23.6492
G01 X20.1780 Y23.6044
G01 X20.1778 Y22.3981
G01 X20.1112 Y22.3509
G01 X20.0981 Y22.3404
G01 X20.0270 Y22.2769
G01 X20.0151 Y22.2650
G01 X19.9516 Y22.1939
G01 X19.9411 Y22.1808
G01 X19.8860 Y22.1030
G01 X19.8770 Y22.0888
G01 X19.8309 Y22.0054
G01 X19.8239 Y21.9910
G01 X19.7871 Y21.9021
G01 X19.7816 Y21.8863
G01 X19.7552 Y21.7947
G01 X19.7520 Y21.7816
G01 X19.7355 Y21.6843
G01 X19.7336 Y21.6676
G01 X19.7280 Y21.5640
G01 X19.7336 Y21.4604
G01 X19.7355 Y21.4437
G01 X19.7514 Y21.3497
G01 X19.7552 Y21.3333
G01 X19.7816 Y21.2417
G01 X19.7871 Y21.2259
G01 X19.8236 Y21.1378
G01 X19.8309 Y21.1226
G01 X19.8770 Y21.0392
G01 X19.8848 Y21.0267
G01 X19.9411 Y20.9472
G01 X19.9516 Y20.9341
G01 X20.0151 Y20.8630
G01 X20.0270 Y20.8511
G01 X20.0981 Y20.7876
G01 X20.1112 Y20.7771
G01 X20.1778 Y20.7299
G01 X20.1778 Y20.2679
G01 X18.9761 Y19.0662
G01 X8.2559 Y19.0662
G01 X6.5462 Y20.7759
G01 X6.5462 Y28.8579
G01 X6.6128 Y28.9051
G01 X6.6259 Y28.9156
G01 X6.6970 Y28.9791
G01 X6.7089 Y28.9910
G01 X6.7724 Y29.0621
G01 X6.7829 Y29.0752
G01 X6.8380 Y29.1530
G01 X6.8470 Y29.1672
G01 X6.8931 Y29.2506
G01 X6.9001 Y29.2650
G01 X6.9369 Y29.3539
G01 X6.9424 Y29.3697
G01 X6.9688 Y29.4613
G01 X6.9720 Y29.4744
G01 X6.9885 Y29.5717
G01 X6.9904 Y29.5884
G01 X6.9960 Y29.6920
G01 X6.9904 Y29.7956
G01 X6.9885 Y29.8123
G01 X6.9726 Y29.9063
G01 X6.9688 Y29.9227
G01 X6.9424 Y30.0143
G01 X6.9369 Y30.0301
G01 X6.9004 Y30.1182
G01 X6.8931 Y30.1334
G01 X6.8470 Y30.2168
G01 X6.8392 Y30.2293
G01 X6.7829 Y30.3088
G01 X6.7724 Y30.3219
G01 X6.7089 Y30.3930
G01 X6.6970 Y30.4049
G01 X6.6259 Y30.4684
G01 X6.6128 Y30.4789
G01 X6.5350 Y30.5340
G01 X6.5208 Y30.5430
G01 X6.4374 Y30.5891
G01 X6.4230 Y30.5961
G01 X6.3341 Y30.6329
G01 X6.3183 Y30.6384
G01 X6.2267 Y30.6648
G01 X6.2136 Y30.6680
G01 X6.1163 Y30.6845
G01 X6.0996 Y30.6864
G01 X5.9960 Y30.6920
G01 X5.8924 Y30.6864
G01 X5.8757 Y30.6845
G01 X5.7817 Y30.6686
G01 X5.7653 Y30.6648
G01 X5.6737 Y30.6384
G01 X5.6579 Y30.6329
G01 X5.5698 Y30.5964
G01 X5.5546 Y30.5891
G01 X5.4712 Y30.5430
G01 X5.4587 Y30.5352
G01 X5.3792 Y30.4789
G01 X5.3661 Y30.4684
G01 X5.2950 Y30.4049
G01 X5.2831 Y30.3930
G01 X5.2378 Y30.3423
G01 X4.2333 Y30.3423
G01 X4.1063 Y30.4693
G01 X4.1063 Y33.4867
G01 X5.7573 Y35.1377
G01 X19.7120 Y35.1377
G01 X19.7764 Y35.1411
G01 X19.7931 Y35.1430
G01 X19.8484 Y35.1524
G01 X19.8648 Y35.1562
G01 X19.9187 Y35.1717
G01 X19.9346 Y35.1772
G01 X19.9865 Y35.1987
G01 X20.0016 Y35.2060
G01 X20.0507 Y35.2331
G01 X20.0632 Y35.2409
G01 X20.1107 Y35.2746
G01 X20.1239 Y35.2850
G01 X20.1718 Y35.3282
G01 X23.2198 Y38.3762
G01 X23.2630 Y38.4241
G01 X23.2734 Y38.4373
G01 X23.3059 Y38.4831
G01 X23.3149 Y38.4973
G01 X23.3420 Y38.5464
G01 X23.3490 Y38.5607
G01 X23.3708 Y38.6134
G01 X23.3763 Y38.6293
G01 X23.3918 Y38.6832
G01 X23.3956 Y38.6996
G01 X23.4050 Y38.7549
G01 X23.4069 Y38.7716
G01 X23.4103 Y38.8360
G01 X23.4103 Y42.6498
G01 X23.4610 Y42.6951
G01 X23.4729 Y42.7070
G01 X23.5364 Y42.7781
G01 X23.5469 Y42.7912
G01 X23.6020 Y42.8690
G01 X23.6110 Y42.8832
G01 X23.6571 Y42.9666
G01 X23.6641 Y42.9810
G01 X23.7009 Y43.0699
G01 X23.7064 Y43.0857
G01 X23.7328 Y43.1773
G01 X23.7360 Y43.1904
G01 X23.7525 Y43.2877
G01 X23.7544 Y43.3044
G01 X23.7600 Y43.4080
G01 X23.7544 Y43.5116
G01 X23.7525 Y43.5283
G01 X23.7366 Y43.6223
G01 X23.7328 Y43.6387
G01 X23.7064 Y43.7303
G01 X23.7009 Y43.7461
G01 X23.6644 Y43.8342
G01 X23.6571 Y43.8494
G01 X23.6110 Y43.9328
G01 X23.6032 Y43.9453
G01 X23.5469 Y44.0248
G01 X23.5364 Y44.0379
G01 X23.4729 Y44.1090
G01 X23.4610 Y44.1209
G01 X23.4103 Y44.1662
G01 X23.4103 Y45.6787
G01 X24.0453 Y46.3137
G01 X46.8747 Y46.3137
G01 X57.3522 Y35.8362
G01 X57.4001 Y35.7930
G01 X57.4133 Y35.7826
G01 X57.4591 Y35.7501
G01 X57.4733 Y35.7411
G01 X57.5224 Y35.7140
G01 X57.5367 Y35.7070
G01 X57.5894 Y35.6852
G01 X57.6053 Y35.6797
G01 X57.6592 Y35.6642
G01 X57.6722 Y35.6610
G01 X57.7309 Y35.6510
G01 X57.7476 Y35.6491
G01 X57.8120 Y35.6457
G01 X72.7827 Y35.6457
G01 X82.5617 Y25.8667
G01 X82.5617 Y7.6093
G01 X77.3547 Y2.4023
G01 X58.3025 Y2.4023
G01 X58.3222 Y2.4104
G01 X58.3373 Y2.4177
G01 X58.3889 Y2.4462
G01 X58.4014 Y2.4539
G01 X58.4511 Y2.4892
G01 X58.4643 Y2.4997
G01 X58.5082 Y2.5389
G01 X58.5201 Y2.5508
G01 X58.5593 Y2.5947
G01 X58.5698 Y2.6079
G01 X58.6039 Y2.6559
G01 X58.6128 Y2.6701
G01 X58.6413 Y2.7217
G01 X58.6483 Y2.7360
G01 X58.6711 Y2.7912
G01 X58.6767 Y2.8071
G01 X58.6961 Y2.8767
G01 X58.7066 Y2.9381
G01 X58.7085 Y2.9548
G01 X58.7120 Y3.0220
G01 X58.7085 Y3.0892
G01 X58.7066 Y3.1059
G01 X58.6967 Y3.1639
G01 X58.6930 Y3.1803
G01 X58.6767 Y3.2369
G01 X58.6711 Y3.2528
G01 X58.6486 Y3.3072
G01 X58.6413 Y3.3223
G01 X58.6128 Y3.3739
G01 X58.6051 Y3.3864
G01 X58.5698 Y3.4361
G01 X58.5593 Y3.4493
G01 X58.5201 Y3.4932
G01 X58.5082 Y3.5051
G01 X58.4643 Y3.5443
G01 X58.4511 Y3.5548
G01 X58.4031 Y3.5889
G01 X58.3889 Y3.5978
G01 X58.3542 Y3.6170
G01 X58.5620 Y3.6170
G01 X58.5785 Y3.6179
G01 X58.5949 Y3.6206
G01 X58.6108 Y3.6252
G01 X58.6261 Y3.6314
G01 X58.6412 Y3.6396
G01 X58.6553 Y3.6495
G01 X58.6681 Y3.6609
G01 X58.6795 Y3.6738
G01 X58.6894 Y3.6878
G01 X58.6976 Y3.7029
G01 X58.7038 Y3.7182
G01 X58.7084 Y3.7341
G01 X58.7111 Y3.7505
G01 X58.7120 Y3.7670
G01 X58.7120 Y4.8170
G01 X58.7111 Y4.8335
G01 X58.7084 Y4.8499
G01 X58.7038 Y4.8658
G01 X58.6976 Y4.8811
G01 X58.6894 Y4.8962
G01 X58.6795 Y4.9102
G01 X58.6681 Y4.9231
G01 X58.6553 Y4.9345
G01 X58.6412 Y4.9444
G01 X58.6261 Y4.9526
G01 X58.6108 Y4.9588
G01 X58.5949 Y4.9634
G01 X58.5785 Y4.9661
G01 X58.5620 Y4.9670
G01 X58.4623 Y4.9670
G01 X58.4623 Y8.2138
G01 X58.4854 Y8.2010
G01 X58.4997 Y8.1940
G01 X58.5524 Y8.1722
G01 X58.5683 Y8.1667
G01 X58.6222 Y8.1512
G01 X58.6352 Y8.1480
G01 X58.6939 Y8.1380
G01 X58.7106 Y8.1361
G01 X58.7750 Y8.1327
G01 X64.4930 Y8.1327
G01 X64.5413 Y8.0454
G01 X64.5491 Y8.0329
G01 X64.6314 Y7.9168
G01 X64.6419 Y7.9037
G01 X64.7353 Y7.7992
G01 X64.7472 Y7.7873
G01 X64.8517 Y7.6939
G01 X64.8648 Y7.6834
G01 X64.9792 Y7.6023
G01 X64.9934 Y7.5933
G01 X65.1161 Y7.5255
G01 X65.1304 Y7.5185
G01 X65.2607 Y7.4646
G01 X65.2766 Y7.4590
G01 X65.4113 Y7.4202
G01 X65.4277 Y7.4165
G01 X65.5659 Y7.3930
G01 X65.5826 Y7.3911
G01 X65.7226 Y7.3832
G01 X65.7394 Y7.3832
G01 X65.8794 Y7.3911
G01 X65.8961 Y7.3930
G01 X66.0343 Y7.4165
G01 X66.0507 Y7.4202
G01 X66.1854 Y7.4590
G01 X66.2013 Y7.4646
G01 X66.3308 Y7.5182
G01 X66.3459 Y7.5255
G01 X66.4686 Y7.5933
G01 X66.4828 Y7.6023
G01 X66.5972 Y7.6834
G01 X66.6103 Y7.6939
G01 X66.7148 Y7.7873
G01 X66.7267 Y7.7992
G01 X66.8201 Y7.9037
G01 X66.8306 Y7.9168
G01 X66.9117 Y8.0312
G01 X66.9207 Y8.0454
G01 X66.9885 Y8.1681
G01 X66.9955 Y8.1824
G01 X67.0494 Y8.3127
G01 X67.0550 Y8.3286
G01 X67.0938 Y8.4633
G01 X67.0975 Y8.4797
G01 X67.1210 Y8.6179
G01 X67.1229 Y8.6346
G01 X67.1308 Y8.7746
G01 X67.1308 Y8.7914
G01 X67.1229 Y8.9314
G01 X67.1210 Y8.9481
G01 X67.0975 Y9.0863
G01 X67.0938 Y9.1027
G01 X67.0550 Y9.2374
G01 X67.0494 Y9.2533
G01 X66.9958 Y9.3828
G01 X66.9885 Y9.3979
G01 X66.9207 Y9.5206
G01 X66.9129 Y9.5331
G01 X66.8306 Y9.6492
G01 X66.8201 Y9.6623
G01 X66.7267 Y9.7668
G01 X66.7148 Y9.7787
G01 X66.6103 Y9.8721
G01 X66.5972 Y9.8826
G01 X66.4828 Y9.9637
G01 X66.4686 Y9.9727
G01 X66.3459 Y10.0405
G01 X66.3316 Y10.0475
G01 X66.2013 Y10.1014
G01 X66.1854 Y10.1070
G01 X66.0507 Y10.1458
G01 X66.0343 Y10.1495
G01 X65.8961 Y10.1730
G01 X65.8794 Y10.1749
G01 X65.7394 Y10.1828
G01 X65.7226 Y10.1828
G01 X65.5826 Y10.1749
G01 X65.5659 Y10.1730
G01 X65.4277 Y10.1495
G01 X65.4113 Y10.1458
G01 X65.2766 Y10.1070
G01 X65.2607 Y10.1014
G01 X65.1312 Y10.0478
G01 X65.1161 Y10.0405
G01 X64.9934 Y9.9727
G01 X64.9809 Y9.9649
G01 X64.8648 Y9.8826
G01 X64.8517 Y9.8721
G01 X64.7472 Y9.7787
G01 X64.7353 Y9.7668
G01 X64.6419 Y9.6623
G01 X64.6314 Y9.6492
G01 X64.5503 Y9.5348
G01 X64.5413 Y9.5206
G01 X64.4930 Y9.4333
G01 X59.0443 Y9.4333
G01 X58.8856 Y9.5920
G01 X58.9660 Y9.5920
G01 X58.9825 Y9.5929
G01 X58.9989 Y9.5956
G01 X59.0148 Y9.6002
G01 X59.0301 Y9.6064
G01 X59.0452 Y9.6146
G01 X59.0593 Y9.6245
G01 X59.0721 Y9.6359
G01 X59.0835 Y9.6488
G01 X59.0934 Y9.6628
G01 X59.1016 Y9.6779
G01 X59.1078 Y9.6932
G01 X59.1124 Y9.7091
G01 X59.1151 Y9.7255
G01 X59.1160 Y9.7420
G01 X59.1160 Y11.5420
G01 X59.1151 Y11.5585
G01 X59.1124 Y11.5749
G01 X59.1078 Y11.5908
G01 X59.1016 Y11.6061
G01 X59.0934 Y11.6212
G01 X59.0835 Y11.6352
G01 X59.0721 Y11.6481
G01 X59.0592 Y11.6595
G01 X59.0452 Y11.6694
G01 X59.0301 Y11.6776
G01 X59.0148 Y11.6838
G01 X58.9989 Y11.6884
G01 X58.9825 Y11.6911
G01 X58.9660 Y11.6920
G01 X57.1660 Y11.6920
G01 X57.1495 Y11.6911
G01 X57.1331 Y11.6884
G01 X57.1172 Y11.6838
G01 X57.1019 Y11.6776
G01 X57.0868 Y11.6694
G01 X57.0728 Y11.6595
G01 X57.0599 Y11.6481
G01 X57.0485 Y11.6353
G01 X57.0386 Y11.6212
G01 X57.0304 Y11.6061
G01 X57.0242 Y11.5908
G01 X57.0196 Y11.5749
G01 X57.0169 Y11.5585
G01 X57.0160 Y11.5420
G01 X57.0160 Y9.7420
G01 X57.0169 Y9.7255
G01 X57.0196 Y9.7091
G01 X57.0242 Y9.6932
G01 X57.0304 Y9.6779
G01 X57.0386 Y9.6628
G01 X57.0485 Y9.6488
G01 X57.0599 Y9.6359
G01 X57.0727 Y9.6245
G01 X57.0868 Y9.6146
G01 X57.1019 Y9.6064
G01 X57.1172 Y9.6002
G01 X57.1331 Y9.5956
G01 X57.1495 Y9.5929
G01 X57.1617 Y9.5922
G01 X57.1617 Y4.9670
G01 X57.0620 Y4.9670
G01 X57.0455 Y4.9661
G01 X57.0291 Y4.9634
G01 X57.0132 Y4.9588
G01 X56.9979 Y4.9526
G01 X56.9828 Y4.9444
G01 X56.9687 Y4.9345
G01 X56.9559 Y4.9231
G01 X56.9445 Y4.9102
G01 X56.9346 Y4.8962
G01 X56.9264 Y4.8811
G01 X56.9202 Y4.8658
G01 X56.9156 Y4.8499
G01 X56.9129 Y4.8335
G01 X56.9120 Y4.8170
G01 X56.9120 Y3.7670
G01 X56.9129 Y3.7505
G01 X56.9156 Y3.7341
G01 X56.9202 Y3.7182
G01 X56.9264 Y3.7029
G01 X56.9346 Y3.6878
G01 X56.9445 Y3.6738
G01 X56.9559 Y3.6609
G01 X56.9687 Y3.6495
G01 X56.9828 Y3.6396
G01 X56.9979 Y3.6314
G01 X57.0132 Y3.6252
G01 X57.0291 Y3.6206
G01 X57.0455 Y3.6179
G01 X57.0620 Y3.6170
G01 X57.2698 Y3.6170
G01 X57.2351 Y3.5978
G01 X57.2226 Y3.5901
G01 X57.1974 Y3.5722
G01 X45.5939 Y3.5722
G01 X41.9451 Y7.2211
G01 X41.9055 Y7.2567
G01 X41.8923 Y7.2672
G01 X41.8557 Y7.2932
G01 X41.8415 Y7.3021
G01 X41.8022 Y7.3239
G01 X41.7878 Y7.3308
G01 X41.7456 Y7.3483
G01 X41.7297 Y7.3539
G01 X41.6735 Y7.3694
G01 X41.6259 Y7.3776
G01 X41.6092 Y7.3794
G01 X41.5560 Y7.3822
G01 X34.1639 Y7.3822
G01 X31.9462 Y9.5999
G01 X31.9462 Y15.8372
G01 X31.9909 Y15.8772
G01 X32.0028 Y15.8891
G01 X32.0551 Y15.9476
G01 X32.0656 Y15.9608
G01 X32.1110 Y16.0248
G01 X32.1200 Y16.0390
G01 X32.1580 Y16.1077
G01 X32.1649 Y16.1221
G01 X32.1953 Y16.1954
G01 X32.2009 Y16.2113
G01 X32.2226 Y16.2867
G01 X32.2257 Y16.2998
G01 X32.2395 Y16.3805
G01 X32.2414 Y16.3972
G01 X32.2460 Y16.4840
G01 X32.2414 Y16.5708
G01 X32.2395 Y16.5875
G01 X32.2263 Y16.6649
G01 X32.2226 Y16.6813
G01 X32.2009 Y16.7567
G01 X32.1953 Y16.7726
G01 X32.1653 Y16.8451
G01 X32.1580 Y16.8603
G01 X32.1200 Y16.9290
G01 X32.1122 Y16.9415
G01 X32.0656 Y17.0072
G01 X32.0551 Y17.0204
G01 X32.0028 Y17.0789
G01 X31.9909 Y17.0908
G01 X31.9324 Y17.1431
G01 X31.9192 Y17.1536
G01 X31.8552 Y17.1990
G01 X31.8410 Y17.2080
G01 X31.7723 Y17.2460
G01 X31.7579 Y17.2529
G01 X31.6846 Y17.2833
G01 X31.6687 Y17.2889
G01 X31.5933 Y17.3106
G01 X31.5802 Y17.3137
G01 X31.4995 Y17.3275
G01 X31.4828 Y17.3294
G01 X31.3960 Y17.3340
G01 X31.3092 Y17.3294
G01 X31.2925 Y17.3275
G01 X31.2151 Y17.3143
G01 X31.1987 Y17.3106
G01 X31.1233 Y17.2889
G01 X31.1074 Y17.2833
G01 X31.0349 Y17.2533
G01 X31.0197 Y17.2460
G01 X30.9510 Y17.2080
G01 X30.9385 Y17.2002
G01 X30.8728 Y17.1536
G01 X30.8596 Y17.1431
G01 X30.8011 Y17.0908
G01 X30.7892 Y17.0789
G01 X30.7369 Y17.0204
G01 X30.7264 Y17.0072
G01 X30.6810 Y16.9432
G01 X30.6720 Y16.9290
G01 X30.6340 Y16.8603
G01 X30.6267 Y16.8451
G01 X30.5967 Y16.7726
G01 X30.5911 Y16.7567
G01 X30.5694 Y16.6813
G01 X30.5657 Y16.6649
G01 X30.5525 Y16.5875
G01 X30.5506 Y16.5708
G01 X30.5462 Y16.4924
G01 X30.5462 Y16.4756
G01 X30.5506 Y16.3972
G01 X30.5525 Y16.3805
G01 X30.5657 Y16.3031
G01 X30.5694 Y16.2867
G01 X30.5911 Y16.2113
G01 X30.5967 Y16.1954
G01 X30.6267 Y16.1229
G01 X30.6340 Y16.1077
G01 X30.6720 Y16.0390
G01 X30.6798 Y16.0265
G01 X30.7264 Y15.9608
G01 X30.7369 Y15.9476
G01 X30.7892 Y15.8891
G01 X30.8011 Y15.8772
G01 X30.8458 Y15.8372
G01 X30.8458 Y9.3720
G01 X30.8486 Y9.3188
G01 X30.8504 Y9.3021
G01 X30.8580 Y9.2578
G01 X30.8617 Y9.2414
G01 X30.8741 Y9.1983
G01 X30.8797 Y9.1824
G01 X30.8969 Y9.1410
G01 X30.9041 Y9.1258
G01 X30.9259 Y9.0865
G01 X30.9336 Y9.0740
G01 X30.9608 Y9.0357
G01 X30.9713 Y9.0225
G01 X31.0069 Y8.9829
G01 X33.5469 Y6.4429
G01 X33.5865 Y6.4073
G01 X33.5997 Y6.3968
G01 X33.6363 Y6.3708
G01 X33.6505 Y6.3619
G01 X33.6898 Y6.3401
G01 X33.7042 Y6.3332
G01 X33.7464 Y6.3157
G01 X33.7623 Y6.3101
G01 X33.8054 Y6.2977
G01 X33.8185 Y6.2946
G01 X33.8661 Y6.2864
G01 X33.8828 Y6.2846
G01 X33.9360 Y6.2818
G01 X41.3281 Y6.2818
G01 X44.9769 Y2.6329
G01 X45.0165 Y2.5973
G01 X45.0297 Y2.5868
G01 X45.0663 Y2.5608
G01 X45.0805 Y2.5519
G01 X45.1198 Y2.5301
G01 X45.1342 Y2.5232
G01 X45.1764 Y2.5057
G01 X45.1923 Y2.5001
G01 X45.2485 Y2.4846
G01 X45.2961 Y2.4764
G01 X45.3128 Y2.4746
G01 X45.3660 Y2.4718
G01 X57.1974 Y2.4718
G01 X57.2209 Y2.4551
G01 X57.2351 Y2.4462
G01 X57.2867 Y2.4177
G01 X57.3010 Y2.4107
G01 X57.3215 Y2.4023
G01 X39.2853 Y2.4023
G01 X39.1583 Y2.5293
G01 X39.1583 Y3.1520
G01 X40.4880 Y3.1520
G01 X40.5045 Y3.1529
G01 X40.5209 Y3.1556
G01 X40.5368 Y3.1602
G01 X40.5521 Y3.1664
G01 X40.5672 Y3.1746
G01 X40.5812 Y3.1845
G01 X40.5941 Y3.1959
G01 X40.6055 Y3.2088
G01 X40.6154 Y3.2228
G01 X40.6236 Y3.2379
G01 X40.6298 Y3.2532
G01 X40.6344 Y3.2691
G01 X40.6371 Y3.2855
G01 X40.6380 Y3.3020
G01 X40.6380 Y5.2820
G01 X40.6371 Y5.2985
G01 X40.6344 Y5.3149
G01 X40.6298 Y5.3308
G01 X40.6236 Y5.3461
G01 X40.6154 Y5.3612
G01 X40.6055 Y5.3753
G01 X40.5941 Y5.3881
G01 X40.5812 Y5.3995
G01 X40.5672 Y5.4094
G01 X40.5521 Y5.4176
G01 X40.5368 Y5.4238
G01 X40.5209 Y5.4284
G01 X40.5045 Y5.4311
G01 X40.4880 Y5.4320
G01 X36.5280 Y5.4320
G01 X36.5115 Y5.4311
G01 X36.4951 Y5.4284
G01 X36.4792 Y5.4238
G01 X36.4639 Y5.4176
G01 X36.4488 Y5.4094
G01 X36.4348 Y5.3995
G01 X36.4219 Y5.3881
G01 X36.4105 Y5.3752
G01 X36.4006 Y5.3612
G01 X36.3924 Y5.3461
G01 X36.3862 Y5.3308
G01 X36.3816 Y5.3149
G01 X36.3789 Y5.2985
G01 X36.3780 Y5.2820
G01 X36.3780 Y3.3020
G01 X36.3789 Y3.2855
G01 X36.3816 Y3.2691
G01 X36.3862 Y3.2532
G01 X36.3924 Y3.2379
G01 X36.4006 Y3.2228
G01 X36.4105 Y3.2088
G01 X36.4219 Y3.1959
G01 X36.4348 Y3.1845
G01 X36.4488 Y3.1746
G01 X36.4639 Y3.1664
G01 X36.4792 Y3.1602
G01 X36.4951 Y3.1556
G01 X36.5115 Y3.1529
G01 X36.5280 Y3.1520
G01 X37.8577 Y3.1520
G01 X37.8577 Y2.2600
G01 X37.8611 Y2.1956
G01 X37.8630 Y2.1789
G01 X37.8724 Y2.1236
G01 X37.8762 Y2.1072
G01 X37.8917 Y2.0533
G01 X37.8972 Y2.0374
G01 X37.9187 Y1.9855
G01 X37.9260 Y1.9704
G01 X37.9531 Y1.9213
G01 X37.9609 Y1.9088
G01 X37.9946 Y1.8613
G01 X38.0050 Y1.8481
G01 X38.0482 Y1.8002
G01 X38.5562 Y1.2922
G01 X38.6041 Y1.2490
G01 X38.6173 Y1.2386
G01 X38.6631 Y1.2061
G01 X38.6773 Y1.1971
G01 X38.7264 Y1.1700
G01 X38.7407 Y1.1630
G01 X38.7934 Y1.1412
G01 X38.8093 Y1.1357
G01 X38.8762 Y1.1170
G01 X38.9349 Y1.1070
G01 X38.9516 Y1.1051
G01 X39.0076 Y1.1020
G01 X57.4088 Y1.1017
G01 X57.4417 Y1.0929
G01 X57.5031 Y1.0824
G01 X57.5198 Y1.0805
G01 X57.5786 Y1.0772
G01 X58.0370 Y1.0770
G01 X58.1042 Y1.0805
G01 X58.1209 Y1.0824
G01 X58.1789 Y1.0923
G01 X58.1953 Y1.0960
G01 X58.2152 Y1.1017
G01 X77.6240 Y1.1017
G01 X77.6884 Y1.1051
G01 X77.7051 Y1.1070
G01 X77.7604 Y1.1164
G01 X77.7768 Y1.1202
G01 X77.8307 Y1.1357
G01 X77.8466 Y1.1412
G01 X77.8985 Y1.1627
G01 X77.9136 Y1.1700
G01 X77.9627 Y1.1971
G01 X77.9752 Y1.2049
G01 X78.0227 Y1.2386
G01 X78.0359 Y1.2490
G01 X78.0838 Y1.2922
G01 X83.6718 Y6.8802
G01 X83.7150 Y6.9281
G01 X83.7254 Y6.9413
G01 X83.7579 Y6.9871
G01 X83.7669 Y7.0013
G01 X83.7940 Y7.0504
G01 X83.8010 Y7.0647
G01 X83.8228 Y7.1174
G01 X83.8283 Y7.1333
G01 X83.8438 Y7.1872
G01 X83.8470 Y7.2002
G01 X83.8570 Y7.2589
G01 X83.8589 Y7.2756
G01 X83.8623 Y7.3400
G01 X83.8623 Y26.1360
G01 X83.8589 Y26.2004
G01 X83.8570 Y26.2171
G01 X83.8476 Y26.2724
G01 X83.8438 Y26.2888
G01 X83.8283 Y26.3427
G01 X83.8228 Y26.3586
G01 X83.8013 Y26.4105
G01 X83.7940 Y26.4256
G01 X83.7669 Y26.4747
G01 X83.7591 Y26.4872
G01 X83.7254 Y26.5347
G01 X83.7150 Y26.5479
G01 X83.6776 Y26.5897
G01 X73.5118 Y36.7558
G01 X73.4639 Y36.7990
G01 X73.4507 Y36.8094
G01 X73.4049 Y36.8419
G01 X73.3907 Y36.8509
G01 X73.3416 Y36.8780
G01 X73.3273 Y36.8850
G01 X73.2746 Y36.9068
G01 X73.2587 Y36.9123
G01 X73.2048 Y36.9278
G01 X73.1884 Y36.9316
G01 X73.1331 Y36.9410
G01 X73.1164 Y36.9429
G01 X73.0520 Y36.9463
G01 X58.0813 Y36.9463
G01 X47.6038 Y47.4238
G01 X47.5559 Y47.4670
G01 X47.5427 Y47.4774
G01 X47.4969 Y47.5099
G01 X47.4827 Y47.5189
G01 X47.4336 Y47.5460
G01 X47.4193 Y47.5530
G01 X47.3666 Y47.5748
G01 X47.3507 Y47.5803
G01 X47.2968 Y47.5958
G01 X47.2838 Y47.5990
G01 X47.2251 Y47.6090
G01 X47.2084 Y47.6109
G01 X47.1440 Y47.6143
G01 X23.7760 Y47.6143
G01 X23.7116 Y47.6109
G01 X23.6949 Y47.6090
G01 X23.6396 Y47.5996
G01 X23.6232 Y47.5958
G01 X23.5693 Y47.5803
G01 X23.5534 Y47.5748
G01 X23.5015 Y47.5533
G01 X23.4864 Y47.5460
G01 X23.4373 Y47.5189
G01 X23.4248 Y47.5111
G01 X23.3773 Y47.4774
G01 X23.3641 Y47.4670
G01 X23.3223 Y47.4296
G01 X22.3002 Y46.4078
G01 X22.2570 Y46.3599
G01 X22.2466 Y46.3467
G01 X22.2141 Y46.3009
G01 X22.2051 Y46.2867
G01 X22.1780 Y46.2376
G01 X22.1710 Y46.2233
G01 X22.1492 Y46.1706
G01 X22.1437 Y46.1547
G01 X22.1282 Y46.1008
G01 X22.1244 Y46.0844
G01 X22.1150 Y46.0291
G01 X22.1131 Y46.0124
G01 X22.1097 Y45.9480
G01 X22.1097 Y44.1662
G01 X22.0590 Y44.1209
G01 X22.0471 Y44.1090
G01 X21.9836 Y44.0379
G01 X21.9731 Y44.0248
G01 X21.9180 Y43.9470
G01 X21.9090 Y43.9328
G01 X21.8629 Y43.8494
G01 X21.8559 Y43.8350
G01 X21.8191 Y43.7461
G01 X21.8136 Y43.7303
G01 X21.7872 Y43.6387
G01 X21.7840 Y43.6256
G01 X21.7675 Y43.5283
G01 X21.7656 Y43.5116
G01 X21.7600 Y43.4080
G01 X21.7656 Y43.3044
G01 X21.7675 Y43.2877
G01 X21.7834 Y43.1937
G01 X21.7872 Y43.1773
G01 X21.8136 Y43.0857
G01 X21.8191 Y43.0699
G01 X21.8556 Y42.9818
G01 X21.8629 Y42.9666
G01 X21.9090 Y42.8832
G01 X21.9168 Y42.8707
G01 X21.9731 Y42.7912
G01 X21.9836 Y42.7781
G01 X22.0471 Y42.7070
G01 X22.0590 Y42.6951
G01 X22.1097 Y42.6498
G01 X22.1097 Y39.1053
G01 X19.4427 Y36.4383
G01 X5.4880 Y36.4383
G01 X5.4236 Y36.4349
G01 X5.4069 Y36.4330
G01 X5.3516 Y36.4236
G01 X5.3352 Y36.4198
G01 X5.2813 Y36.4043
G01 X5.2654 Y36.3988
G01 X5.2135 Y36.3773
G01 X5.1984 Y36.3700
G01 X5.1493 Y36.3429
G01 X5.1368 Y36.3351
G01 X5.0893 Y36.3014
G01 X5.0761 Y36.2910
G01 X5.0282 Y36.2478
G01 X2.9962 Y34.2158
G01 X2.9530 Y34.1679
G01 X2.9426 Y34.1547
G01 X2.9101 Y34.1089
G01 X2.9011 Y34.0947
G01 X2.8740 Y34.0456
G01 X2.8670 Y34.0313
G01 X2.8452 Y33.9786
G01 X2.8397 Y33.9627
G01 X2.8242 Y33.9088
G01 X2.8204 Y33.8924
G01 X2.8110 Y33.8371
G01 X2.8091 Y33.8204
G01 X2.8057 Y33.7560
G01 X2.8060 Y30.1916
G00 Z0.5000
G00 X5.0019 Y32.3356
G01 F76.20
G01 Z-0.2000
G01 F76.20
G01 X4.9960 Y32.2320
G01 X5.0016 Y32.1284
G01 X5.0035 Y32.1117
G01 X5.0194 Y32.0177
G01 X5.0232 Y32.0013
G01 X5.0496 Y31.9097
G01 X5.0551 Y31.8939
G01 X5.0916 Y31.8058
G01 X5.0989 Y31.7906
G01 X5.1450 Y31.7072
G01 X5.1528 Y31.6947
G01 X5.2091 Y31.6152
G01 X5.2196 Y31.6021
G01 X5.2831 Y31.5310
G01 X5.2950 Y31.5191
G01 X5.3661 Y31.4556
G01 X5.3792 Y31.4451
G01 X5.4570 Y31.3900
G01 X5.4712 Y31.3810
G01 X5.5546 Y31.3349
G01 X5.5690 Y31.3279
G01 X5.6579 Y31.2911
G01 X5.6737 Y31.2856
G01 X5.7653 Y31.2592
G01 X5.7784 Y31.2560
G01 X5.8757 Y31.2395
G01 X5.8924 Y31.2376
G01 X5.9960 Y31.2320
G01 X6.0996 Y31.2376
G01 X6.1163 Y31.2395
G01 X6.2103 Y31.2554
G01 X6.2267 Y31.2592
G01 X6.3183 Y31.2856
G01 X6.3341 Y31.2911
G01 X6.4222 Y31.3276
G01 X6.4374 Y31.3349
G01 X6.5208 Y31.3810
G01 X6.5333 Y31.3888
G01 X6.6128 Y31.4451
G01 X6.6259 Y31.4556
G01 X6.6970 Y31.5191
G01 X6.7089 Y31.5310
G01 X6.7724 Y31.6021
G01 X6.7829 Y31.6152
G01 X6.8380 Y31.6930
G01 X6.8470 Y31.7072
G01 X6.8931 Y31.7906
G01 X6.9001 Y31.8050
G01 X6.9369 Y31.8939
G01 X6.9424 Y31.9097
G01 X6.9688 Y32.0013
G01 X6.9720 Y32.0144
G01 X6.9885 Y32.1117
G01 X6.9904 Y32.1284
G01 X6.9960 Y32.2320
G01 X6.9904 Y32.3356
G01 X6.9885 Y32.3523
G01 X6.9726 Y32.4463
G01 X6.9688 Y32.4627
G01 X6.9424 Y32.5543
G01 X6.9369 Y32.5701
G01 X6.9004 Y32.6582
G01 X6.8931 Y32.6734
G01 X6.8470 Y32.7568
G01 X6.8392 Y32.7693
G01 X6.7829 Y32.8488
G01 X6.7724 Y32.8619
G01 X6.7089 Y32.9330
G01 X6.6970 Y32.9449
G01 X6.6259 Y33.0084
G01 X6.6128 Y33.0189
G01 X6.5350 Y33.0740
G01 X6.5208 Y33.0830
G01 X6.4374 Y33.1291
G01 X6.4230 Y33.1361
G01 X6.3341 Y33.1729
G01 X6.3183 Y33.1784
G01 X6.2267 Y33.2048
G01 X6.2136 Y33.2080
G01 X6.1163 Y33.2245
G01 X6.0996 Y33.2264
G01 X5.9960 Y33.2320
G01 X5.8924 Y33.2264
G01 X5.8757 Y33.2245
G01 X5.7817 Y33.2086
G01 X5.7653 Y33.2048
G01 X5.6737 Y33.1784
G01 X5.6579 Y33.1729
G01 X5.5698 Y33.1364
G01 X5.5546 Y33.1291
G01 X5.4712 Y33.0830
G01 X5.4587 Y33.0752
G01 X5.3792 Y33.0189
G01 X5.3661 Y33.0084
G01 X5.2950 Y32.9449
G01 X5.2831 Y32.9330
G01 X5.2196 Y32.8619
G01 X5.2091 Y32.8488
G01 X5.1540 Y32.7710
G01 X5.1450 Y32.7568
G01 X5.0989 Y32.6734
G01 X5.0919 Y32.6590
G01 X5.0551 Y32.5701
G01 X5.0496 Y32.5543
G01 X5.0232 Y32.4627
G01 X5.0194 Y32.4463
G01 X5.0035 Y32.3523
G01 X5.0019 Y32.3356
G00 Z0.5000
G00 X7.5419 Y32.3356
G01 F76.20
G01 Z-0.2000
G01 F76.20
G01 X7.5360 Y32.2320
G01 X7.5416 Y32.1284
G01 X7.5435 Y32.1117
G01 X7.5594 Y32.0177
G01 X7.5632 Y32.0013
G01 X7.5896 Y31.9097
G01 X7.5951 Y31.8939
G01 X7.6316 Y31.8058
G01 X7.6389 Y31.7906
G01 X7.6850 Y31.7072
G01 X7.6928 Y31.6947
G01 X7.7491 Y31.6152
G01 X7.7596 Y31.6021
G01 X7.8231 Y31.5310
G01 X7.8350 Y31.5191
G01 X7.9061 Y31.4556
G01 X7.9192 Y31.4451
G01 X7.9970 Y31.3900
G01 X8.0112 Y31.3810
G01 X8.0946 Y31.3349
G01 X8.1090 Y31.3279
G01 X8.1979 Y31.2911
G01 X8.2137 Y31.2856
G01 X8.3053 Y31.2592
G01 X8.3184 Y31.2560
G01 X8.4157 Y31.2395
G01 X8.4324 Y31.2376
G01 X8.5360 Y31.2320
G01 X8.6396 Y31.2376
G01 X8.6563 Y31.2395
G01 X8.7503 Y31.2554
G01 X8.7667 Y31.2592
G01 X8.8583 Y31.2856
G01 X8.8741 Y31.2911
G01 X8.9622 Y31.3276
G01 X8.9774 Y31.3349
G01 X9.0608 Y31.3810
G01 X9.0733 Y31.3888
G01 X9.1528 Y31.4451
G01 X9.1659 Y31.4556
G01 X9.2370 Y31.5191
G01 X9.2489 Y31.5310
G01 X9.3124 Y31.6021
G01 X9.3229 Y31.6152
G01 X9.3780 Y31.6930
G01 X9.3870 Y31.7072
G01 X9.4331 Y31.7906
G01 X9.4401 Y31.8050
G01 X9.4769 Y31.8939
G01 X9.4824 Y31.9097
G01 X9.5088 Y32.0013
G01 X9.5120 Y32.0144
G01 X9.5285 Y32.1117
G01 X9.5304 Y32.1284
G01 X9.5360 Y32.2320
G01 X9.5304 Y32.3356
G01 X9.5285 Y32.3523
G01 X9.5126 Y32.4463
G01 X9.5088 Y32.4627
G01 X9.4824 Y32.5543
G01 X9.4769 Y32.5701
G01 X9.4404 Y32.6582
G01 X9.4331 Y32.6734
G01 X9.3870 Y32.7568
G01 X9.3792 Y32.7693
G01 X9.3229 Y32.8488
G01 X9.3124 Y32.8619
G01 X9.2489 Y32.9330
G01 X9.2370 Y32.9449
G01 X9.1659 Y33.0084
G01 X9.1528 Y33.0189
G01 X9.0750 Y33.0740
G01 X9.0608 Y33.0830
G01 X8.9774 Y33.1291
G01 X8.9630 Y33.1361
G01 X8.8741 Y33.1729
G01 X8.8583 Y33.1784
G01 X8.7667 Y33.2048
G01 X8.7536 Y33.2080
G01 X8.6563 Y33.2245
G01 X8.6396 Y33.2264
G01 X8.5360 Y33.2320
G01 X8.4324 Y33.2264
G01 X8.4157 Y33.2245
G01 X8.3217 Y33.2086
G01 X8.3053 Y33.2048
G01 X8.2137 Y33.1784
G01 X8.1979 Y33.1729
G01 X8.1098 Y33.1364
G01 X8.0946 Y33.1291
G01 X8.0112 Y33.0830
G01 X7.9987 Y33.0752
G01 X7.9192 Y33.0189
G01 X7.9061 Y33.0084
G01 X7.8350 Y32.9449
G01 X7.8231 Y32.9330
G01 X7.7596 Y32.8619
G01 X7.7491 Y32.8488
G01 X7.6940 Y32.7710
G01 X7.6850 Y32.7568
G01 X7.6389 Y32.6734
G01 X7.6319 Y32.6590
G01 X7.5951 Y32.5701
G01 X7.5896 Y32.5543
G01 X7.5632 Y32.4627
G01 X7.5594 Y32.4463
G01 X7.5435 Y32.3523
G01 X7.5419 Y32.3356
G00 Z0.5000
G00 X7.5419 Y29.7956
G01 F76.20
G01 Z-0.2000
G01 F76.20
G01 X7.5360 Y29.6920
G01 X7.5416 Y29.5884
G01 X7.5435 Y29.5717
G01 X7.5594 Y29.4777
G01 X7.5632 Y29.4613
G01 X7.5896 Y29.3697
G01 X7.5951 Y29.3539
G01 X7.6316 Y29.2658
G01 X7.6389 Y29.2506
G01 X7.6850 Y29.1672
G01 X7.6928 Y29.1547
G01 X7.7491 Y29.0752
G01 X7.7596 Y29.0621
G01 X7.8231 Y28.9910
G01 X7.8350 Y28.9791
G01 X7.9061 Y28.9156
G01 X7.9192 Y28.9051
G01 X7.9970 Y28.8500
G01 X8.0112 Y28.8410
G01 X8.0946 Y28.7949
G01 X8.1090 Y28.7879
G01 X8.1979 Y28.7511
G01 X8.2137 Y28.7456
G01 X8.3053 Y28.7192
G01 X8.3184 Y28.7160
G01 X8.4157 Y28.6995
G01 X8.4324 Y28.6976
G01 X8.5360 Y28.6920
G01 X8.6396 Y28.6976
G01 X8.6563 Y28.6995
G01 X8.7503 Y28.7154
G01 X8.7667 Y28.7192
G01 X8.8583 Y28.7456
G01 X8.8741 Y28.7511
G01 X8.9622 Y28.7876
G01 X8.9774 Y28.7949
G01 X9.0608 Y28.8410
G01 X9.0733 Y28.8488
G01 X9.1528 Y28.9051
G01 X9.1659 Y28.9156
G01 X9.2370 Y28.9791
G01 X9.2489 Y28.9910
G01 X9.3124 Y29.0621
G01 X9.3229 Y29.0752
G01 X9.3780 Y29.1530
G01 X9.3870 Y29.1672
G01 X9.4331 Y29.2506
G01 X9.4401 Y29.2650
G01 X9.4769 Y29.3539
G01 X9.4824 Y29.3697
G01 X9.5088 Y29.4613
G01 X9.5120 Y29.4744
G01 X9.5285 Y29.5717
G01 X9.5304 Y29.5884
G01 X9.5360 Y29.6920
G01 X9.5304 Y29.7956
G01 X9.5285 Y29.8123
G01 X9.5126 Y29.9063
G01 X9.5088 Y29.9227
G01 X9.4824 Y30.0143
G01 X9.4769 Y30.0301
G01 X9.4404 Y30.1182
G01 X9.4331 Y30.1334
G01 X9.3870 Y30.2168
G01 X9.3792 Y30.2293
G01 X9.3229 Y30.3088
G01 X9.3124 Y30.3219
G01 X9.2489 Y30.3930
G01 X9.2370 Y30.4049
G01 X9.1659 Y30.4684
G01 X9.1528 Y30.4789
G01 X9.0750 Y30.5340
G01 X9.0608 Y30.5430
G01 X8.9774 Y30.5891
G01 X8.9630 Y30.5961
G01 X8.8741 Y30.6329
G01 X8.8583 Y30.6384
G01 X8.7667 Y30.6648
G01 X8.7536 Y30.6680
G01 X8.6563 Y30.6845
G01 X8.6396 Y30.6864
G01 X8.5360 Y30.6920
G01 X8.4324 Y30.6864
G01 X8.4157 Y30.6845
G01 X8.3217 Y30.6686
G01 X8.3053 Y30.6648
G01 X8.2137 Y30.6384
G01 X8.1979 Y30.6329
G01 X8.1098 Y30.5964
G01 X8.0946 Y30.5891
G01 X8.0112 Y30.5430
G01 X7.9987 Y30.5352
G01 X7.9192 Y30.4789
G01 X7.9061 Y30.4684
G01 X7.8350 Y30.4049
G01 X7.8231 Y30.3930
G01 X7.7596 Y30.3219
G01 X7.7491 Y30.3088
G01 X7.6940 Y30.2310
G01 X7.6850 Y30.2168
G01 X7.6389 Y30.1334
G01 X7.6319 Y30.1190
G01 X7.5951 Y30.0301
G01 X7.5896 Y30.0143
G01 X7.5632 Y29.9227
G01 X7.5594 Y29.9063
G01 X7.5435 Y29.8123
G01 X7.5419 Y29.7956
G00 Z0.5000
G00 X10.0819 Y32.3356
G01 F76.20
G01 Z-0.2000
G01 F76.20
G01 X10.0760 Y32.2320
G01 X10.0816 Y32.1284
G01 X10.0835 Y32.1117
G01 X10.0994 Y32.0177
G01 X10.1032 Y32.0013
G01 X10.1296 Y31.9097
G01 X10.1351 Y31.8939
G01 X10.1716 Y31.8058
G01 X10.1789 Y31.7906
G01 X10.2250 Y31.7072
G01 X10.2328 Y31.6947
G01 X10.2891 Y31.6152
G01 X10.2996 Y31.6021
G01 X10.3631 Y31.5310
G01 X10.3750 Y31.5191
G01 X10.4461 Y31.4556
G01 X10.4592 Y31.4451
G01 X10.5370 Y31.3900
G01 X10.5512 Y31.3810
G01 X10.6346 Y31.3349
G01 X10.6490 Y31.3279
G01 X10.7379 Y31.2911
G01 X10.7537 Y31.2856
G01 X10.8453 Y31.2592
G01 X10.8584 Y31.2560
G01 X10.9557 Y31.2395
G01 X10.9724 Y31.2376
G01 X11.0760 Y31.2320
G01 X11.1796 Y31.2376
G01 X11.1963 Y31.2395
G01 X11.2903 Y31.2554
G01 X11.3067 Y31.2592
G01 X11.3983 Y31.2856
G01 X11.4141 Y31.2911
G01 X11.5022 Y31.3276
G01 X11.5174 Y31.3349
G01 X11.6008 Y31.3810
G01 X11.6133 Y31.3888
G01 X11.6928 Y31.4451
G01 X11.7059 Y31.4556
G01 X11.7770 Y31.5191
G01 X11.7889 Y31.5310
G01 X11.8524 Y31.6021
G01 X11.8629 Y31.6152
G01 X11.9180 Y31.6930
G01 X11.9270 Y31.7072
G01 X11.9731 Y31.7906
G01 X11.9801 Y31.8050
G01 X12.0169 Y31.8939
G01 X12.0224 Y31.9097
G01 X12.0488 Y32.0013
G01 X12.0520 Y32.0144
G01 X12.0685 Y32.1117
G01 X12.0704 Y32.1284
G01 X12.0760 Y32.2320
G01 X12.0704 Y32.3356
G01 X12.0685 Y32.3523
G01 X12.0526 Y32.4463
G01 X12.0488 Y32.4627
G01 X12.0224 Y32.5543
G01 X12.0169 Y32.5701
G01 X11.9804 Y32.6582
G01 X11.9731 Y32.6734
G01 X11.9270 Y32.7568
G01 X11.9192 Y32.7693
G01 X11.8629 Y32.8488
G01 X11.8524 Y32.8619
G01 X11.7889 Y32.9330
G01 X11.7770 Y32.9449
G01 X11.7059 Y33.0084
G01 X11.6928 Y33.0189
G01 X11.6150 Y33.0740
G01 X11.6008 Y33.0830
G01 X11.5174 Y33.1291
G01 X11.5030 Y33.1361
G01 X11.4141 Y33.1729
G01 X11.3983 Y33.1784
G01 X11.3067 Y33.2048
G01 X11.2936 Y33.2080
G01 X11.1963 Y33.2245
G01 X11.1796 Y33.2264
G01 X11.0760 Y33.2320
G01 X10.9724 Y33.2264
G01 X10.9557 Y33.2245
G01 X10.8617 Y33.2086
G01 X10.8453 Y33.2048
G01 X10.7537 Y33.1784
G01 X10.7379 Y33.1729
G01 X10.6498 Y33.1364
G01 X10.6346 Y33.1291
G01 X10.5512 Y33.0830
G01 X10.5387 Y33.0752
G01 X10.4592 Y33.0189
G01 X10.4461 Y33.0084
G01 X10.3750 Y32.9449
G01 X10.3631 Y32.9330
G01 X10.2996 Y32.8619
G01 X10.2891 Y32.8488
G01 X10.2340 Y32.7710
G01 X10.2250 Y32.7568
G01 X10.1789 Y32.6734
G01 X10.1719 Y32.6590
G01 X10.1351 Y32.5701
G01 X10.1296 Y32.5543
G01 X10.1032 Y32.4627
G01 X10.0994 Y32.4463
G01 X10.0835 Y32.3523
G01 X10.0819 Y32.3356
G00 Z0.5000
G00 X12.6219 Y32.3356
G01 F76.20
G01 Z-0.2000
G01 F76.20
G01 X12.6160 Y32.2320
G01 X12.6216 Y32.1284
G01 X12.6235 Y32.1117
G01 X12.6394 Y32.0177
G01 X12.6432 Y32.0013
G01 X12.6696 Y31.9097
G01 X12.6751 Y31.8939
G01 X12.7116 Y31.8058
G01 X12.7189 Y31.7906
G01 X12.7650 Y31.7072
G01 X12.7728 Y31.6947
G01 X12.8291 Y31.6152
G01 X12.8396 Y31.6021
G01 X12.9031 Y31.5310
G01 X12.9150 Y31.5191
G01 X12.9861 Y31.4556
G01 X12.9992 Y31.4451
G01 X13.0770 Y31.3900
G01 X13.0912 Y31.3810
G01 X13.1746 Y31.3349
G01 X13.1890 Y31.3279
G01 X13.2779 Y31.2911
G01 X13.2937 Y31.2856
G01 X13.3853 Y31.2592
G01 X13.3984 Y31.2560
G01 X13.4957 Y31.2395
G01 X13.5124 Y31.2376
G01 X13.6160 Y31.2320
G01 X13.7196 Y31.2376
G01 X13.7363 Y31.2395
G01 X13.8303 Y31.2554
G01 X13.8467 Y31.2592
G01 X13.9383 Y31.2856
G01 X13.9541 Y31.2911
G01 X14.0422 Y31.3276
G01 X14.0574 Y31.3349
G01 X14.1408 Y31.3810
G01 X14.1533 Y31.3888
G01 X14.2328 Y31.4451
G01 X14.2459 Y31.4556
G01 X14.3170 Y31.5191
G01 X14.3289 Y31.5310
G01 X14.3924 Y31.6021
G01 X14.4029 Y31.6152
G01 X14.4580 Y31.6930
G01 X14.4670 Y31.7072
G01 X14.5131 Y31.7906
G01 X14.5201 Y31.8050
G01 X14.5569 Y31.8939
G01 X14.5624 Y31.9097
G01 X14.5888 Y32.0013
G01 X14.5920 Y32.0144
G01 X14.6085 Y32.1117
G01 X14.6104 Y32.1284
G01 X14.6160 Y32.2320
G01 X14.6104 Y32.3356
G01 X14.6085 Y32.3523
G01 X14.5926 Y32.4463
G01 X14.5888 Y32.4627
G01 X14.5624 Y32.5543
G01 X14.5569 Y32.5701
G01 X14.5204 Y32.6582
G01 X14.5131 Y32.6734
G01 X14.4670 Y32.7568
G01 X14.4592 Y32.7693
G01 X14.4029 Y32.8488
G01 X14.3924 Y32.8619
G01 X14.3289 Y32.9330
G01 X14.3170 Y32.9449
G01 X14.2459 Y33.0084
G01 X14.2328 Y33.0189
G01 X14.1550 Y33.0740
G01 X14.1408 Y33.0830
G01 X14.0574 Y33.1291
G01 X14.0430 Y33.1361
G01 X13.9541 Y33.1729
G01 X13.9383 Y33.1784
G01 X13.8467 Y33.2048
G01 X13.8336 Y33.2080
G01 X13.7363 Y33.2245
G01 X13.7196 Y33.2264
G01 X13.6160 Y33.2320
G01 X13.5124 Y33.2264
G01 X13.4957 Y33.2245
G01 X13.4017 Y33.2086
G01 X13.3853 Y33.2048
G01 X13.2937 Y33.1784
G01 X13.2779 Y33.1729
G01 X13.1898 Y33.1364
G01 X13.1746 Y33.1291
G01 X13.0912 Y33.0830
G01 X13.0787 Y33.0752
G01 X12.9992 Y33.0189
G01 X12.9861 Y33.0084
G01 X12.9150 Y32.9449
G01 X12.9031 Y32.9330
G01 X12.8396 Y32.8619
G01 X12.8291 Y32.8488
G01 X12.7740 Y32.7710
G01 X12.7650 Y32.7568
G01 X12.7189 Y32.6734
G01 X12.7119 Y32.6590
G01 X12.6751 Y32.5701
G01 X12.6696 Y32.5543
G01 X12.6432 Y32.4627
G01 X12.6394 Y32.4463
G01 X12.6235 Y32.3523
G01 X12.6219 Y32.3356
G00 Z0.5000
G00 X15.1619 Y32.3356
G01 F76.20
G01 Z-0.2000
G01 F76.20
G01 X15.1560 Y32.2320
G01 X15.1616 Y32.1284
G01 X15.1635 Y32.1117
G01 X15.1794 Y32.0177
G01 X15.1832 Y32.0013
G01 X15.2096 Y31.9097
G01 X15.2151 Y31.8939
G01 X15.2516 Y31.8058
G01 X15.2589 Y31.7906
G01 X15.3050 Y31.7072
G01 X15.3128 Y31.6947
G01 X15.3691 Y31.6152
G01 X15.3796 Y31.6021
G01 X15.4431 Y31.5310
G01 X15.4550 Y31.5191
G01 X15.5261 Y31.4556
G01 X15.5392 Y31.4451
G01 X15.6170 Y31.3900
G01 X15.6312 Y31.3810
G01 X15.7146 Y31.3349
G01 X15.7290 Y31.3279
G01 X15.8179 Y31.2911
G01 X15.8337 Y31.2856
G01 X15.9253 Y31.2592
G01 X15.9384 Y31.2560
G01 X16.0357 Y31.2395
G01 X16.0524 Y31.2376
G01 X16.1560 Y31.2320
G01 X16.2596 Y31.2376
G01 X16.2763 Y31.2395
G01 X16.3703 Y31.2554
G01 X16.3867 Y31.2592
G01 X16.4783 Y31.2856
G01 X16.4941 Y31.2911
G01 X16.5822 Y31.3276
G01 X16.5974 Y31.3349
G01 X16.6808 Y31.3810
G01 X16.6933 Y31.3888
G01 X16.7728 Y31.4451
G01 X16.7859 Y31.4556
G01 X16.8570 Y31.5191
G01 X16.8689 Y31.5310
G01 X16.9324 Y31.6021
G01 X16.9429 Y31.6152
G01 X16.9980 Y31.6930
G01 X17.0070 Y31.7072
G01 X17.0531 Y31.7906
G01 X17.0601 Y31.8050
G01 X17.0969 Y31.8939
G01 X17.1024 Y31.9097
G01 X17.1288 Y32.0013
G01 X17.1320 Y32.0144
G01 X17.1485 Y32.1117
G01 X17.1504 Y32.1284
G01 X17.1560 Y32.2320
G01 X17.1504 Y32.3356
G01 X17.1485 Y32.3523
G01 X17.1326 Y32.4463
G01 X17.1288 Y32.4627
G01 X17.1024 Y32.5543
G01 X17.0969 Y32.5701
G01 X17.0604 Y32.6582
G01 X17.0531 Y32.6734
G01 X17.0070 Y32.7568
G01 X16.9992 Y32.7693
G01 X16.9429 Y32.8488
G01 X16.9324 Y32.8619
G01 X16.8689 Y32.9330
G01 X16.8570 Y32.9449
G01 X16.7859 Y33.0084
G01 X16.7728 Y33.0189
G01 X16.6950 Y33.0740
G01 X16.6808 Y33.0830
G01 X16.5974 Y33.1291
G01 X16.5830 Y33.1361
G01 X16.4941 Y33.1729
G01 X16.4783 Y33.1784
G01 X16.3867 Y33.2048
G01 X16.3736 Y33.2080
G01 X16.2763 Y33.2245
G01 X16.2596 Y33.2264
G01 X16.1560 Y33.2320
G01 X16.0524 Y33.2264
G01 X16.0357 Y33.2245
G01 X15.9417 Y33.2086
G01 X15.9253 Y33.2048
G01 X15.8337 Y33.1784
G01 X15.8179 Y33.1729
G01 X15.7298 Y33.1364
G01 X15.7146 Y33.1291
G01 X15.6312 Y33.0830
G01 X15.6187 Y33.0752
G01 X15.5392 Y33.0189
G01 X15.5261 Y33.0084
G01 X15.4550 Y32.9449
G01 X15.4431 Y32.9330
G01 X15.3796 Y32.8619
G01 X15.3691 Y32.8488
G01 X15.3140 Y32.7710
G01 X15.3050 Y32.7568
G01 X15.2589 Y32.6734
G01 X15.2519 Y32.6590
G01 X15.2151 Y32.5701
G01 X15.2096 Y32.5543
G01 X15.1832 Y32.4627
G01 X15.1794 Y32.4463
G01 X15.1635 Y32.3523
G01 X15.1619 Y32.3356
G00 Z0.5000
G00 X17.7019 Y32.3356
G01 F76.20
G01 Z-0.2000
G01 F76.20
G01 X17.6960 Y32.2320
G01 X17.7016 Y32.1284
G01 X17.7035 Y32.1117
G01 X17.7194 Y32.0177
G01 X17.7232 Y32.0013
G01 X17.7496 Y31.9097
G01 X17.7551 Y31.8939
G01 X17.7916 Y31.8058
G01 X17.7989 Y31.7906
G01 X17.8450 Y31.7072
G01 X17.8528 Y31.6947
G01 X17.9091 Y31.6152
G01 X17.9196 Y31.6021
G01 X17.9831 Y31.5310
G01 X17.9950 Y31.5191
G01 X18.0661 Y31.4556
G01 X18.0792 Y31.4451
G01 X18.1570 Y31.3900
G01 X18.1712 Y31.3810
G01 X18.2546 Y31.3349
G01 X18.2690 Y31.3279
G01 X18.3579 Y31.2911
G01 X18.3737 Y31.2856
G01 X18.4653 Y31.2592
G01 X18.4784 Y31.2560
G01 X18.5757 Y31.2395
G01 X18.5924 Y31.2376
G01 X18.6960 Y31.2320
G01 X18.7996 Y31.2376
G01 X18.8163 Y31.2395
G01 X18.9103 Y31.2554
G01 X18.9267 Y31.2592
G01 X19.0183 Y31.2856
G01 X19.0341 Y31.2911
G01 X19.1222 Y31.3276
G01 X19.1374 Y31.3349
G01 X19.2208 Y31.3810
G01 X19.2333 Y31.3888
G01 X19.3128 Y31.4451
G01 X19.3259 Y31.4556
G01 X19.3970 Y31.5191
G01 X19.4089 Y31.5310
G01 X19.4724 Y31.6021
G01 X19.4829 Y31.6152
G01 X19.5380 Y31.6930
G01 X19.5470 Y31.7072
G01 X19.5931 Y31.7906
G01 X19.6001 Y31.8050
G01 X19.6369 Y31.8939
G01 X19.6424 Y31.9097
G01 X19.6688 Y32.0013
G01 X19.6720 Y32.0144
G01 X19.6885 Y32.1117
G01 X19.6904 Y32.1284
G01 X19.6960 Y32.2320
G01 X19.6904 Y32.3356
G01 X19.6885 Y32.3523
G01 X19.6726 Y32.4463
G01 X19.6688 Y32.4627
G01 X19.6424 Y32.5543
G01 X19.6369 Y32.5701
G01 X19.6004 Y32.6582
G01 X19.5931 Y32.6734
G01 X19.5470 Y32.7568
G01 X19.5392 Y32.7693
G01 X19.4829 Y32.8488
G01 X19.4724 Y32.8619
G01 X19.4089 Y32.9330
G01 X19.3970 Y32.9449
G01 X19.3259 Y33.0084
G01 X19.3128 Y33.0189
G01 X19.2350 Y33.0740
G01 X19.2208 Y33.0830
G01 X19.1374 Y33.1291
G01 X19.1230 Y33.1361
G01 X19.0341 Y33.1729
G01 X19.0183 Y33.1784
G01 X18.9267 Y33.2048
G01 X18.9136 Y33.2080
G01 X18.8163 Y33.2245
G01 X18.7996 Y33.2264
G01 X18.6960 Y33.2320
G01 X18.5924 Y33.2264
G01 X18.5757 Y33.2245
G01 X18.4817 Y33.2086
G01 X18.4653 Y33.2048
G01 X18.3737 Y33.1784
G01 X18.3579 Y33.1729
G01 X18.2698 Y33.1364
G01 X18.2546 Y33.1291
G01 X18.1712 Y33.0830
G01 X18.1587 Y33.0752
G01 X18.0792 Y33.0189
G01 X18.0661 Y33.0084
G01 X17.9950 Y32.9449
G01 X17.9831 Y32.9330
G01 X17.9196 Y32.8619
G01 X17.9091 Y32.8488
G01 X17.8540 Y32.7710
G01 X17.8450 Y32.7568
G01 X17.7989 Y32.6734
G01 X17.7919 Y32.6590
G01 X17.7551 Y32.5701
G01 X17.7496 Y32.5543
G01 X17.7232 Y32.4627
G01 X17.7194 Y32.4463
G01 X17.7035 Y32.3523
G01 X17.7019 Y32.3356
G00 Z0.5000
G00 X20.2419 Y32.3356
G01 F76.20
G01 Z-0.2000
G01 F76.20
G01 X20.2360 Y32.2320
G01 X20.2416 Y32.1284
G01 X20.2435 Y32.1117
G01 X20.2594 Y32.0177
G01 X20.2632 Y32.0013
G01 X20.2896 Y31.9097
G01 X20.2951 Y31.8939
G01 X20.3316 Y31.8058
G01 X20.3389 Y31.7906
G01 X20.3850 Y31.7072
G01 X20.3928 Y31.6947
G01 X20.4491 Y31.6152
G01 X20.4596 Y31.6021
G01 X20.5231 Y31.5310
G01 X20.5350 Y31.5191
G01 X20.6061 Y31.4556
G01 X20.6192 Y31.4451
G01 X20.6970 Y31.3900
G01 X20.7112 Y31.3810
G01 X20.7946 Y31.3349
G01 X20.8090 Y31.3279
G01 X20.8979 Y31.2911
G01 X20.9137 Y31.2856
G01 X21.0053 Y31.2592
G01 X21.0184 Y31.2560
G01 X21.1157 Y31.2395
G01 X21.1324 Y31.2376
G01 X21.2360 Y31.2320
G01 X21.3396 Y31.2376
G01 X21.3563 Y31.2395
G01 X21.4503 Y31.2554
G01 X21.4667 Y31.2592
G01 X21.5583 Y31.2856
G01 X21.5741 Y31.2911
G01 X21.6622 Y31.3276
G01 X21.6774 Y31.3349
G01 X21.7608 Y31.3810
G01 X21.7733 Y31.3888
G01 X21.8528 Y31.4451
G01 X21.8659 Y31.4556
G01 X21.9370 Y31.5191
G01 X21.9489 Y31.5310
G01 X22.0124 Y31.6021
G01 X22.0229 Y31.6152
G01 X22.0780 Y31.6930
G01 X22.0870 Y31.7072
G01 X22.1331 Y31.7906
G01 X22.1401 Y31.8050
G01 X22.1769 Y31.8939
G01 X22.1824 Y31.9097
G01 X22.2088 Y32.0013
G01 X22.2120 Y32.0144
G01 X22.2285 Y32.1117
G01 X22.2304 Y32.1284
G01 X22.2360 Y32.2320
G01 X22.2304 Y32.3356
G01 X22.2285 Y32.3523
G01 X22.2126 Y32.4463
G01 X22.2088 Y32.4627
G01 X22.1824 Y32.5543
G01 X22.1769 Y32.5701
G01 X22.1404 Y32.6582
G01 X22.1331 Y32.6734
G01 X22.0870 Y32.7568
G01 X22.0792 Y32.7693
G01 X22.0229 Y32.8488
G01 X22.0124 Y32.8619
G01 X21.9489 Y32.9330
G01 X21.9370 Y32.9449
G01 X21.8659 Y33.0084
G01 X21.8528 Y33.0189
G01 X21.7750 Y33.0740
G01 X21.7608 Y33.0830
G01 X21.6774 Y33.1291
G01 X21.6630 Y33.1361
G01 X21.5741 Y33.1729
G01 X21.5583 Y33.1784
G01 X21.4667 Y33.2048
G01 X21.4536 Y33.2080
G01 X21.3563 Y33.2245
G01 X21.3396 Y33.2264
G01 X21.2360 Y33.2320
G01 X21.1324 Y33.2264
G01 X21.1157 Y33.2245
G01 X21.0217 Y33.2086
G01 X21.0053 Y33.2048
G01 X20.9137 Y33.1784
G01 X20.8979 Y33.1729
G01 X20.8098 Y33.1364
G01 X20.7946 Y33.1291
G01 X20.7112 Y33.0830
G01 X20.6987 Y33.0752
G01 X20.6192 Y33.0189
G01 X20.6061 Y33.0084
G01 X20.5350 Y32.9449
G01 X20.5231 Y32.9330
G01 X20.4596 Y32.8619
G01 X20.4491 Y32.8488
G01 X20.3940 Y32.7710
G01 X20.3850 Y32.7568
G01 X20.3389 Y32.6734
G01 X20.3319 Y32.6590
G01 X20.2951 Y32.5701
G01 X20.2896 Y32.5543
G01 X20.2632 Y32.4627
G01 X20.2594 Y32.4463
G01 X20.2435 Y32.3523
G01 X20.2419 Y32.3356
G00 Z0.5000
G00 X20.2419 Y29.7956
G01 F76.20
G01 Z-0.2000
G01 F76.20
G01 X20.2360 Y29.6920
G01 X20.2416 Y29.5884
G01 X20.2435 Y29.5717
G01 X20.2594 Y29.4777
G01 X20.2632 Y29.4613
G01 X20.2896 Y29.3697
G01 X20.2951 Y29.3539
G01 X20.3316 Y29.2658
G01 X20.3389 Y29.2506
G01 X20.3850 Y29.1672
G01 X20.3928 Y29.1547
G01 X20.4491 Y29.0752
G01 X20.4596 Y29.0621
G01 X20.5231 Y28.9910
G01 X20.5350 Y28.9791
G01 X20.6061 Y28.9156
G01 X20.6192 Y28.9051
G01 X20.6970 Y28.8500
G01 X20.7112 Y28.8410
G01 X20.7946 Y28.7949
G01 X20.8090 Y28.7879
G01 X20.8979 Y28.7511
G01 X20.9137 Y28.7456
G01 X21.0053 Y28.7192
G01 X21.0184 Y28.7160
G01 X21.1157 Y28.6995
G01 X21.1324 Y28.6976
G01 X21.2360 Y28.6920
G01 X21.3396 Y28.6976
G01 X21.3563 Y28.6995
G01 X21.4503 Y28.7154
G01 X21.4667 Y28.7192
G01 X21.5583 Y28.7456
G01 X21.5741 Y28.7511
G01 X21.6622 Y28.7876
G01 X21.6774 Y28.7949
G01 X21.7608 Y28.8410
G01 X21.7733 Y28.8488
G01 X21.8528 Y28.9051
G01 X21.8659 Y28.9156
G01 X21.9370 Y28.9791
G01 X21.9489 Y28.9910
G01 X22.0124 Y29.0621
G01 X22.0229 Y29.0752
G01 X22.0780 Y29.1530
G01 X22.0870 Y29.1672
G01 X22.1331 Y29.2506
G01 X22.1401 Y29.2650
G01 X22.1769 Y29.3539
G01 X22.1824 Y29.3697
G01 X22.2088 Y29.4613
G01 X22.2120 Y29.4744
G01 X22.2285 Y29.5717
G01 X22.2304 Y29.5884
G01 X22.2360 Y29.6920
G01 X22.2304 Y29.7956
G01 X22.2285 Y29.8123
G01 X22.2126 Y29.9063
G01 X22.2088 Y29.9227
G01 X22.1824 Y30.0143
G01 X22.1769 Y30.0301
G01 X22.1404 Y30.1182
G01 X22.1331 Y30.1334
G01 X22.0870 Y30.2168
G01 X22.0792 Y30.2293
G01 X22.0229 Y30.3088
G01 X22.0124 Y30.3219
G01 X21.9489 Y30.3930
G01 X21.9370 Y30.4049
G01 X21.8659 Y30.4684
G01 X21.8528 Y30.4789
G01 X21.7750 Y30.5340
G01 X21.7608 Y30.5430
G01 X21.6774 Y30.5891
G01 X21.6630 Y30.5961
G01 X21.5741 Y30.6329
G01 X21.5583 Y30.6384
G01 X21.4667 Y30.6648
G01 X21.4536 Y30.6680
G01 X21.3563 Y30.6845
G01 X21.3396 Y30.6864
G01 X21.2360 Y30.6920
G01 X21.1324 Y30.6864
G01 X21.1157 Y30.6845
G01 X21.0217 Y30.6686
G01 X21.0053 Y30.6648
G01 X20.9137 Y30.6384
G01 X20.8979 Y30.6329
G01 X20.8098 Y30.5964
G01 X20.7946 Y30.5891
G01 X20.7112 Y30.5430
G01 X20.6987 Y30.5352
G01 X20.6192 Y30.4789
G01 X20.6061 Y30.4684
G01 X20.5350 Y30.4049
G01 X20.5231 Y30.3930
G01 X20.4596 Y30.3219
G01 X20.4491 Y30.3088
G01 X20.3940 Y30.2310
G01 X20.3850 Y30.2168
G01 X20.3389 Y30.1334
G01 X20.3319 Y30.1190
G01 X20.2951 Y30.0301
G01 X20.2896 Y30.0143
G01 X20.2632 Y29.9227
G01 X20.2594 Y29.9063
G01 X20.2435 Y29.8123
G01 X20.2419 Y29.7956
G00 Z0.5000
G00 X22.7819 Y29.7956
G01 F76.20
G01 Z-0.2000
G01 F76.20
G01 X22.7760 Y29.6920
G01 X22.7816 Y29.5884
G01 X22.7835 Y29.5717
G01 X22.7994 Y29.4777
G01 X22.8032 Y29.4613
G01 X22.8296 Y29.3697
G01 X22.8351 Y29.3539
G01 X22.8716 Y29.2658
G01 X22.8789 Y29.2506
G01 X22.9250 Y29.1672
G01 X22.9328 Y29.1547
G01 X22.9891 Y29.0752
G01 X22.9996 Y29.0621
G01 X23.0631 Y28.9910
G01 X23.0750 Y28.9791
G01 X23.1461 Y28.9156
G01 X23.1592 Y28.9051
G01 X23.2370 Y28.8500
G01 X23.2512 Y28.8410
G01 X23.3346 Y28.7949
G01 X23.3490 Y28.7879
G01 X23.4379 Y28.7511
G01 X23.4537 Y28.7456
G01 X23.5453 Y28.7192
G01 X23.5584 Y28.7160
G01 X23.6557 Y28.6995
G01 X23.6724 Y28.6976
G01 X23.7760 Y28.6920
G01 X23.8796 Y28.6976
G01 X23.8963 Y28.6995
G01 X23.9903 Y28.7154
G01 X24.0067 Y28.7192
G01 X24.0983 Y28.7456
G01 X24.1141 Y28.7511
G01 X24.2022 Y28.7876
G01 X24.2174 Y28.7949
G01 X24.3008 Y28.8410
G01 X24.3133 Y28.8488
G01 X24.3928 Y28.9051
G01 X24.4059 Y28.9156
G01 X24.4770 Y28.9791
G01 X24.4889 Y28.9910
G01 X24.5524 Y29.0621
G01 X24.5629 Y29.0752
G01 X24.6180 Y29.1530
G01 X24.6270 Y29.1672
G01 X24.6731 Y29.2506
G01 X24.6801 Y29.2650
G01 X24.7169 Y29.3539
G01 X24.7224 Y29.3697
G01 X24.7488 Y29.4613
G01 X24.7520 Y29.4744
G01 X24.7685 Y29.5717
G01 X24.7704 Y29.5884
G01 X24.7760 Y29.6920
G01 X24.7704 Y29.7956
G01 X24.7685 Y29.8123
G01 X24.7526 Y29.9063
G01 X24.7488 Y29.9227
G01 X24.7224 Y30.0143
G01 X24.7169 Y30.0301
G01 X24.6804 Y30.1182
G01 X24.6731 Y30.1334
G01 X24.6270 Y30.2168
G01 X24.6192 Y30.2293
G01 X24.5629 Y30.3088
G01 X24.5524 Y30.3219
G01 X24.4889 Y30.3930
G01 X24.4770 Y30.4049
G01 X24.4059 Y30.4684
G01 X24.3928 Y30.4789
G01 X24.3150 Y30.5340
G01 X24.3008 Y30.5430
G01 X24.2174 Y30.5891
G01 X24.2030 Y30.5961
G01 X24.1141 Y30.6329
G01 X24.0983 Y30.6384
G01 X24.0067 Y30.6648
G01 X23.9936 Y30.6680
G01 X23.8963 Y30.6845
G01 X23.8796 Y30.6864
G01 X23.7760 Y30.6920
G01 X23.6724 Y30.6864
G01 X23.6557 Y30.6845
G01 X23.5617 Y30.6686
G01 X23.5453 Y30.6648
G01 X23.4537 Y30.6384
G01 X23.4379 Y30.6329
G01 X23.3498 Y30.5964
G01 X23.3346 Y30.5891
G01 X23.2512 Y30.5430
G01 X23.2387 Y30.5352
G01 X23.1592 Y30.4789
G01 X23.1461 Y30.4684
G01 X23.0750 Y30.4049
G01 X23.0631 Y30.3930
G01 X22.9996 Y30.3219
G01 X22.9891 Y30.3088
G01 X22.9340 Y30.2310
G01 X22.9250 Y30.2168
G01 X22.8789 Y30.1334
G01 X22.8719 Y30.1190
G01 X22.8351 Y30.0301
G01 X22.8296 Y30.0143
G01 X22.8032 Y29.9227
G01 X22.7994 Y29.9063
G01 X22.7835 Y29.8123
G01 X22.7819 Y29.7956
G00 Z0.5000
G00 X22.7819 Y32.3356
G01 F76.20
G01 Z-0.2000
G01 F76.20
G01 X22.7760 Y32.2320
G01 X22.7816 Y32.1284
G01 X22.7835 Y32.1117
G01 X22.7994 Y32.0177
G01 X22.8032 Y32.0013
G01 X22.8296 Y31.9097
G01 X22.8351 Y31.8939
G01 X22.8716 Y31.8058
G01 X22.8789 Y31.7906
G01 X22.9250 Y31.7072
G01 X22.9328 Y31.6947
G01 X22.9891 Y31.6152
G01 X22.9996 Y31.6021
G01 X23.0631 Y31.5310
G01 X23.0750 Y31.5191
G01 X23.1461 Y31.4556
G01 X23.1592 Y31.4451
G01 X23.2370 Y31.3900
G01 X23.2512 Y31.3810
G01 X23.3346 Y31.3349
G01 X23.3490 Y31.3279
G01 X23.4379 Y31.2911
G01 X23.4537 Y31.2856
G01 X23.5453 Y31.2592
G01 X23.5584 Y31.2560
G01 X23.6557 Y31.2395
G01 X23.6724 Y31.2376
G01 X23.7760 Y31.2320
G01 X23.8796 Y31.2376
G01 X23.8963 Y31.2395
G01 X23.9903 Y31.2554
G01 X24.0067 Y31.2592
G01 X24.0983 Y31.2856
G01 X24.1141 Y31.2911
G01 X24.2022 Y31.3276
G01 X24.2174 Y31.3349
G01 X24.3008 Y31.3810
G01 X24.3133 Y31.3888
G01 X24.3928 Y31.4451
G01 X24.4059 Y31.4556
G01 X24.4770 Y31.5191
G01 X24.4889 Y31.5310
G01 X24.5524 Y31.6021
G01 X24.5629 Y31.6152
G01 X24.6180 Y31.6930
G01 X24.6270 Y31.7072
G01 X24.6731 Y31.7906
G01 X24.6801 Y31.8050
G01 X24.7169 Y31.8939
G01 X24.7224 Y31.9097
G01 X24.7488 Y32.0013
G01 X24.7520 Y32.0144
G01 X24.7685 Y32.1117
G01 X24.7704 Y32.1284
G01 X24.7760 Y32.2320
G01 X24.7704 Y32.3356
G01 X24.7685 Y32.3523
G01 X24.7526 Y32.4463
G01 X24.7488 Y32.4627
G01 X24.7224 Y32.5543
G01 X24.7169 Y32.5701
G01 X24.6804 Y32.6582
G01 X24.6731 Y32.6734
G01 X24.6270 Y32.7568
G01 X24.6192 Y32.7693
G01 X24.5629 Y32.8488
G01 X24.5524 Y32.8619
G01 X24.4889 Y32.9330
G01 X24.4770 Y32.9449
G01 X24.4059 Y33.0084
G01 X24.3928 Y33.0189
G01 X24.3150 Y33.0740
G01 X24.3008 Y33.0830
G01 X24.2174 Y33.1291
G01 X24.2030 Y33.1361
G01 X24.1141 Y33.1729
G01 X24.0983 Y33.1784
G01 X24.0067 Y33.2048
G01 X23.9936 Y33.2080
G01 X23.8963 Y33.2245
G01 X23.8796 Y33.2264
G01 X23.7760 Y33.2320
G01 X23.6724 Y33.2264
G01 X23.6557 Y33.2245
G01 X23.5617 Y33.2086
G01 X23.5453 Y33.2048
G01 X23.4537 Y33.1784
G01 X23.4379 Y33.1729
G01 X23.3498 Y33.1364
G01 X23.3346 Y33.1291
G01 X23.2512 Y33.0830
G01 X23.2387 Y33.0752
G01 X23.1592 Y33.0189
G01 X23.1461 Y33.0084
G01 X23.0750 Y32.9449
G01 X23.0631 Y32.9330
G01 X22.9996 Y32.8619
G01 X22.9891 Y32.8488
G01 X22.9340 Y32.7710
G01 X22.9250 Y32.7568
G01 X22.8789 Y32.6734
G01 X22.8719 Y32.6590
G01 X22.8351 Y32.5701
G01 X22.8296 Y32.5543
G01 X22.8032 Y32.4627
G01 X22.7994 Y32.4463
G01 X22.7835 Y32.3523
G01 X22.7819 Y32.3356
G00 Z0.5000
G00 X25.3219 Y32.3356
G01 F76.20
G01 Z-0.2000
G01 F76.20
G01 X25.3162 Y32.2404
G01 X25.3162 Y32.2236
G01 X25.3216 Y32.1284
G01 X25.3235 Y32.1117
G01 X25.3394 Y32.0177
G01 X25.3432 Y32.0013
G01 X25.3696 Y31.9097
G01 X25.3751 Y31.8939
G01 X25.4116 Y31.8058
G01 X25.4189 Y31.7906
G01 X25.4650 Y31.7072
G01 X25.4728 Y31.6947
G01 X25.5291 Y31.6152
G01 X25.5396 Y31.6021
G01 X25.6031 Y31.5310
G01 X25.6150 Y31.5191
G01 X25.6861 Y31.4556
G01 X25.6992 Y31.4451
G01 X25.7770 Y31.3900
G01 X25.7912 Y31.3810
G01 X25.8746 Y31.3349
G01 X25.8890 Y31.3279
G01 X25.9779 Y31.2911
G01 X25.9937 Y31.2856
G01 X26.0853 Y31.2592
G01 X26.0984 Y31.2560
G01 X26.1957 Y31.2395
G01 X26.2124 Y31.2376
G01 X26.3076 Y31.2322
G01 X26.3244 Y31.2322
G01 X26.4196 Y31.2376
G01 X26.4363 Y31.2395
G01 X26.5303 Y31.2554
G01 X26.5467 Y31.2592
G01 X26.6383 Y31.2856
G01 X26.6541 Y31.2911
G01 X26.7422 Y31.3276
G01 X26.7574 Y31.3349
G01 X26.8408 Y31.3810
G01 X26.8533 Y31.3888
G01 X26.9328 Y31.4451
G01 X26.9459 Y31.4556
G01 X27.0170 Y31.5191
G01 X27.0289 Y31.5310
G01 X27.0924 Y31.6021
G01 X27.1029 Y31.6152
G01 X27.1580 Y31.6930
G01 X27.1670 Y31.7072
G01 X27.2131 Y31.7906
G01 X27.2201 Y31.8050
G01 X27.2569 Y31.8939
G01 X27.2624 Y31.9097
G01 X27.2888 Y32.0013
G01 X27.2920 Y32.0144
G01 X27.3085 Y32.1117
G01 X27.3104 Y32.1284
G01 X27.3160 Y32.2320
G01 X27.3104 Y32.3356
G01 X27.3085 Y32.3523
G01 X27.2926 Y32.4463
G01 X27.2888 Y32.4627
G01 X27.2624 Y32.5543
G01 X27.2569 Y32.5701
G01 X27.2204 Y32.6582
G01 X27.2131 Y32.6734
G01 X27.1670 Y32.7568
G01 X27.1592 Y32.7693
G01 X27.1029 Y32.8488
G01 X27.0924 Y32.8619
G01 X27.0289 Y32.9330
G01 X27.0170 Y32.9449
G01 X26.9459 Y33.0084
G01 X26.9328 Y33.0189
G01 X26.8550 Y33.0740
G01 X26.8408 Y33.0830
G01 X26.7574 Y33.1291
G01 X26.7430 Y33.1361
G01 X26.7161 Y33.1472
G01 X26.7161 Y33.8860
G01 X30.7691 Y37.9389
G01 X30.8047 Y37.9785
G01 X30.8152 Y37.9917
G01 X30.8412 Y38.0283
G01 X30.8501 Y38.0425
G01 X30.8719 Y38.0818
G01 X30.8788 Y38.0962
G01 X30.8963 Y38.1384
G01 X30.9019 Y38.1543
G01 X30.9174 Y38.2105
G01 X30.9256 Y38.2581
G01 X30.9274 Y38.2748
G01 X30.9302 Y38.3280
G01 X30.9302 Y42.5739
G01 X30.9968 Y42.6211
G01 X31.0099 Y42.6316
G01 X31.0810 Y42.6951
G01 X31.0929 Y42.7070
G01 X31.1564 Y42.7781
G01 X31.1669 Y42.7912
G01 X31.2220 Y42.8690
G01 X31.2310 Y42.8832
G01 X31.2771 Y42.9666
G01 X31.2841 Y42.9810
G01 X31.3209 Y43.0699
G01 X31.3264 Y43.0857
G01 X31.3528 Y43.1773
G01 X31.3560 Y43.1904
G01 X31.3725 Y43.2877
G01 X31.3744 Y43.3044
G01 X31.3800 Y43.4080
G01 X31.3744 Y43.5116
G01 X31.3725 Y43.5283
G01 X31.3566 Y43.6223
G01 X31.3528 Y43.6387
G01 X31.3264 Y43.7303
G01 X31.3209 Y43.7461
G01 X31.2844 Y43.8342
G01 X31.2771 Y43.8494
G01 X31.2310 Y43.9328
G01 X31.2232 Y43.9453
G01 X31.1669 Y44.0248
G01 X31.1564 Y44.0379
G01 X31.0929 Y44.1090
G01 X31.0810 Y44.1209
G01 X31.0099 Y44.1844
G01 X30.9968 Y44.1949
G01 X30.9190 Y44.2500
G01 X30.9048 Y44.2590
G01 X30.8214 Y44.3051
G01 X30.8070 Y44.3121
G01 X30.7181 Y44.3489
G01 X30.7023 Y44.3544
G01 X30.6107 Y44.3808
G01 X30.5976 Y44.3840
G01 X30.5003 Y44.4005
G01 X30.4836 Y44.4024
G01 X30.3800 Y44.4080
G01 X30.2764 Y44.4024
G01 X30.2597 Y44.4005
G01 X30.1657 Y44.3846
G01 X30.1493 Y44.3808
G01 X30.0577 Y44.3544
G01 X30.0419 Y44.3489
G01 X29.9538 Y44.3124
G01 X29.9386 Y44.3051
G01 X29.8552 Y44.2590
G01 X29.8427 Y44.2512
G01 X29.7632 Y44.1949
G01 X29.7501 Y44.1844
G01 X29.6790 Y44.1209
G01 X29.6671 Y44.1090
G01 X29.6036 Y44.0379
G01 X29.5931 Y44.0248
G01 X29.5380 Y43.9470
G01 X29.5290 Y43.9328
G01 X29.4829 Y43.8494
G01 X29.4759 Y43.8350
G01 X29.4391 Y43.7461
G01 X29.4336 Y43.7303
G01 X29.4072 Y43.6387
G01 X29.4040 Y43.6256
G01 X29.3875 Y43.5283
G01 X29.3856 Y43.5116
G01 X29.3800 Y43.4080
G01 X29.3856 Y43.3044
G01 X29.3875 Y43.2877
G01 X29.4034 Y43.1937
G01 X29.4072 Y43.1773
G01 X29.4336 Y43.0857
G01 X29.4391 Y43.0699
G01 X29.4756 Y42.9818
G01 X29.4829 Y42.9666
G01 X29.5290 Y42.8832
G01 X29.5368 Y42.8707
G01 X29.5931 Y42.7912
G01 X29.6036 Y42.7781
G01 X29.6671 Y42.7070
G01 X29.6790 Y42.6951
G01 X29.7501 Y42.6316
G01 X29.7632 Y42.6211
G01 X29.8298 Y42.5739
G01 X29.8298 Y38.5559
G01 X25.9269 Y34.6531
G01 X25.8913 Y34.6135
G01 X25.8808 Y34.6003
G01 X25.8548 Y34.5637
G01 X25.8459 Y34.5495
G01 X25.8241 Y34.5102
G01 X25.8172 Y34.4958
G01 X25.7997 Y34.4536
G01 X25.7941 Y34.4377
G01 X25.7786 Y34.3815
G01 X25.7704 Y34.3339
G01 X25.7686 Y34.3172
G01 X25.7658 Y34.2640
G01 X25.7686 Y34.2108
G01 X25.7704 Y34.1941
G01 X25.7780 Y34.1498
G01 X25.7817 Y34.1334
G01 X25.7941 Y34.0903
G01 X25.7997 Y34.0744
G01 X25.8169 Y34.0330
G01 X25.8241 Y34.0178
G01 X25.8459 Y33.9785
G01 X25.8536 Y33.9660
G01 X25.8808 Y33.9277
G01 X25.8913 Y33.9145
G01 X25.9159 Y33.8870
G01 X25.9159 Y33.1472
G01 X25.8898 Y33.1364
G01 X25.8746 Y33.1291
G01 X25.7912 Y33.0830
G01 X25.7787 Y33.0752
G01 X25.6992 Y33.0189
G01 X25.6861 Y33.0084
G01 X25.6150 Y32.9449
G01 X25.6031 Y32.9330
G01 X25.5396 Y32.8619
G01 X25.5291 Y32.8488
G01 X25.4740 Y32.7710
G01 X25.4650 Y32.7568
G01 X25.4189 Y32.6734
G01 X25.4119 Y32.6590
G01 X25.3751 Y32.5701
G01 X25.3696 Y32.5543
G01 X25.3432 Y32.4627
G01 X25.3400 Y32.4496
G01 X25.3235 Y32.3523
G01 X25.3219 Y32.3356
G00 Z0.5000
G00 X27.8619 Y32.3356
G01 F76.20
G01 Z-0.2000
G01 F76.20
G01 X27.8562 Y32.2404
G01 X27.8562 Y32.2236
G01 X27.8616 Y32.1284
G01 X27.8635 Y32.1117
G01 X27.8794 Y32.0177
G01 X27.8832 Y32.0013
G01 X27.9096 Y31.9097
G01 X27.9151 Y31.8939
G01 X27.9516 Y31.8058
G01 X27.9589 Y31.7906
G01 X28.0050 Y31.7072
G01 X28.0128 Y31.6947
G01 X28.0691 Y31.6152
G01 X28.0796 Y31.6021
G01 X28.1431 Y31.5310
G01 X28.1550 Y31.5191
G01 X28.2261 Y31.4556
G01 X28.2392 Y31.4451
G01 X28.3170 Y31.3900
G01 X28.3312 Y31.3810
G01 X28.4146 Y31.3349
G01 X28.4290 Y31.3279
G01 X28.5179 Y31.2911
G01 X28.5337 Y31.2856
G01 X28.6253 Y31.2592
G01 X28.6417 Y31.2554
G01 X28.7357 Y31.2395
G01 X28.7524 Y31.2376
G01 X28.8476 Y31.2322
G01 X28.8644 Y31.2322
G01 X28.9596 Y31.2376
G01 X28.9763 Y31.2395
G01 X29.0703 Y31.2554
G01 X29.0867 Y31.2592
G01 X29.1783 Y31.2856
G01 X29.1941 Y31.2911
G01 X29.2822 Y31.3276
G01 X29.2974 Y31.3349
G01 X29.3808 Y31.3810
G01 X29.3933 Y31.3888
G01 X29.4728 Y31.4451
G01 X29.4859 Y31.4556
G01 X29.5570 Y31.5191
G01 X29.5689 Y31.5310
G01 X29.6324 Y31.6021
G01 X29.6429 Y31.6152
G01 X29.6980 Y31.6930
G01 X29.7070 Y31.7072
G01 X29.7531 Y31.7906
G01 X29.7601 Y31.8050
G01 X29.7969 Y31.8939
G01 X29.8024 Y31.9097
G01 X29.8288 Y32.0013
G01 X29.8320 Y32.0144
G01 X29.8485 Y32.1117
G01 X29.8504 Y32.1284
G01 X29.8558 Y32.2236
G01 X29.8558 Y32.2404
G01 X29.8504 Y32.3356
G01 X29.8485 Y32.3523
G01 X29.8326 Y32.4463
G01 X29.8288 Y32.4627
G01 X29.8024 Y32.5543
G01 X29.7969 Y32.5701
G01 X29.7604 Y32.6582
G01 X29.7531 Y32.6734
G01 X29.7070 Y32.7568
G01 X29.6992 Y32.7693
G01 X29.6429 Y32.8488
G01 X29.6324 Y32.8619
G01 X29.5689 Y32.9330
G01 X29.5570 Y32.9449
G01 X29.4859 Y33.0084
G01 X29.4728 Y33.0189
G01 X29.4331 Y33.0470
G01 X33.3091 Y36.9229
G01 X33.3447 Y36.9625
G01 X33.3552 Y36.9757
G01 X33.3812 Y37.0123
G01 X33.3901 Y37.0265
G01 X33.4119 Y37.0658
G01 X33.4188 Y37.0802
G01 X33.4363 Y37.1224
G01 X33.4419 Y37.1383
G01 X33.4574 Y37.1945
G01 X33.4656 Y37.2421
G01 X33.4674 Y37.2588
G01 X33.4702 Y37.3120
G01 X33.4702 Y42.5739
G01 X33.5368 Y42.6211
G01 X33.5499 Y42.6316
G01 X33.6210 Y42.6951
G01 X33.6329 Y42.7070
G01 X33.6964 Y42.7781
G01 X33.7069 Y42.7912
G01 X33.7620 Y42.8690
G01 X33.7710 Y42.8832
G01 X33.8171 Y42.9666
G01 X33.8241 Y42.9810
G01 X33.8609 Y43.0699
G01 X33.8664 Y43.0857
G01 X33.8928 Y43.1773
G01 X33.8960 Y43.1904
G01 X33.9125 Y43.2877
G01 X33.9144 Y43.3044
G01 X33.9200 Y43.4080
G01 X33.9144 Y43.5116
G01 X33.9125 Y43.5283
G01 X33.8966 Y43.6223
G01 X33.8928 Y43.6387
G01 X33.8664 Y43.7303
G01 X33.8609 Y43.7461
G01 X33.8244 Y43.8342
G01 X33.8171 Y43.8494
G01 X33.7710 Y43.9328
G01 X33.7632 Y43.9453
G01 X33.7069 Y44.0248
G01 X33.6964 Y44.0379
G01 X33.6329 Y44.1090
G01 X33.6210 Y44.1209
G01 X33.5499 Y44.1844
G01 X33.5368 Y44.1949
G01 X33.4590 Y44.2500
G01 X33.4448 Y44.2590
G01 X33.3614 Y44.3051
G01 X33.3470 Y44.3121
G01 X33.2581 Y44.3489
G01 X33.2423 Y44.3544
G01 X33.1507 Y44.3808
G01 X33.1376 Y44.3840
G01 X33.0403 Y44.4005
G01 X33.0236 Y44.4024
G01 X32.9200 Y44.4080
G01 X32.8164 Y44.4024
G01 X32.7997 Y44.4005
G01 X32.7057 Y44.3846
G01 X32.6893 Y44.3808
G01 X32.5977 Y44.3544
G01 X32.5819 Y44.3489
G01 X32.4938 Y44.3124
G01 X32.4786 Y44.3051
G01 X32.3952 Y44.2590
G01 X32.3827 Y44.2512
G01 X32.3032 Y44.1949
G01 X32.2901 Y44.1844
G01 X32.2190 Y44.1209
G01 X32.2071 Y44.1090
G01 X32.1436 Y44.0379
G01 X32.1331 Y44.0248
G01 X32.0780 Y43.9470
G01 X32.0690 Y43.9328
G01 X32.0229 Y43.8494
G01 X32.0159 Y43.8350
G01 X31.9791 Y43.7461
G01 X31.9736 Y43.7303
G01 X31.9472 Y43.6387
G01 X31.9440 Y43.6256
G01 X31.9275 Y43.5283
G01 X31.9256 Y43.5116
G01 X31.9200 Y43.4080
G01 X31.9256 Y43.3044
G01 X31.9275 Y43.2877
G01 X31.9434 Y43.1937
G01 X31.9472 Y43.1773
G01 X31.9736 Y43.0857
G01 X31.9791 Y43.0699
G01 X32.0156 Y42.9818
G01 X32.0229 Y42.9666
G01 X32.0690 Y42.8832
G01 X32.0768 Y42.8707
G01 X32.1331 Y42.7912
G01 X32.1436 Y42.7781
G01 X32.2071 Y42.7070
G01 X32.2190 Y42.6951
G01 X32.2901 Y42.6316
G01 X32.3032 Y42.6211
G01 X32.3698 Y42.5739
G01 X32.3698 Y37.5399
G01 X28.4669 Y33.6371
G01 X28.4313 Y33.5975
G01 X28.4208 Y33.5843
G01 X28.3948 Y33.5477
G01 X28.3859 Y33.5335
G01 X28.3641 Y33.4942
G01 X28.3572 Y33.4798
G01 X28.3397 Y33.4376
G01 X28.3341 Y33.4217
G01 X28.3186 Y33.3655
G01 X28.3104 Y33.3179
G01 X28.3086 Y33.3012
G01 X28.3060 Y33.2564
G01 X28.3060 Y33.2396
G01 X28.3086 Y33.1948
G01 X28.3104 Y33.1781
G01 X28.3180 Y33.1338
G01 X28.3217 Y33.1174
G01 X28.3316 Y33.0832
G01 X28.3187 Y33.0752
G01 X28.2392 Y33.0189
G01 X28.2261 Y33.0084
G01 X28.1550 Y32.9449
G01 X28.1431 Y32.9330
G01 X28.0796 Y32.8619
G01 X28.0691 Y32.8488
G01 X28.0140 Y32.7710
G01 X28.0050 Y32.7568
G01 X27.9589 Y32.6734
G01 X27.9519 Y32.6590
G01 X27.9151 Y32.5701
G01 X27.9096 Y32.5543
G01 X27.8832 Y32.4627
G01 X27.8800 Y32.4496
G01 X27.8635 Y32.3523
G01 X27.8619 Y32.3356
G00 Z0.5000
G00 X30.4019 Y32.3356
G01 F76.20
G01 Z-0.2000
G01 F76.20
G01 X30.3960 Y32.2320
G01 X30.4016 Y32.1284
G01 X30.4035 Y32.1117
G01 X30.4194 Y32.0177
G01 X30.4232 Y32.0013
G01 X30.4496 Y31.9097
G01 X30.4551 Y31.8939
G01 X30.4916 Y31.8058
G01 X30.4989 Y31.7906
G01 X30.5450 Y31.7072
G01 X30.5528 Y31.6947
G01 X30.6091 Y31.6152
G01 X30.6196 Y31.6021
G01 X30.6831 Y31.5310
G01 X30.6950 Y31.5191
G01 X30.7661 Y31.4556
G01 X30.7792 Y31.4451
G01 X30.8570 Y31.3900
G01 X30.8712 Y31.3810
G01 X30.9546 Y31.3349
G01 X30.9690 Y31.3279
G01 X31.0579 Y31.2911
G01 X31.0737 Y31.2856
G01 X31.1653 Y31.2592
G01 X31.1784 Y31.2560
G01 X31.2757 Y31.2395
G01 X31.2924 Y31.2376
G01 X31.3960 Y31.2320
G01 X31.4996 Y31.2376
G01 X31.5163 Y31.2395
G01 X31.6103 Y31.2554
G01 X31.6267 Y31.2592
G01 X31.7183 Y31.2856
G01 X31.7341 Y31.2911
G01 X31.8222 Y31.3276
G01 X31.8374 Y31.3349
G01 X31.9208 Y31.3810
G01 X31.9333 Y31.3888
G01 X32.0128 Y31.4451
G01 X32.0259 Y31.4556
G01 X32.0970 Y31.5191
G01 X32.1089 Y31.5310
G01 X32.1724 Y31.6021
G01 X32.1829 Y31.6152
G01 X32.2380 Y31.6930
G01 X32.2470 Y31.7072
G01 X32.2931 Y31.7906
G01 X32.3001 Y31.8050
G01 X32.3369 Y31.8939
G01 X32.3424 Y31.9097
G01 X32.3688 Y32.0013
G01 X32.3720 Y32.0144
G01 X32.3885 Y32.1117
G01 X32.3904 Y32.1284
G01 X32.3960 Y32.2320
G01 X32.3904 Y32.3356
G01 X32.3885 Y32.3523
G01 X32.3726 Y32.4463
G01 X32.3688 Y32.4627
G01 X32.3424 Y32.5543
G01 X32.3369 Y32.5701
G01 X32.3004 Y32.6582
G01 X32.2931 Y32.6734
G01 X32.2470 Y32.7568
G01 X32.2392 Y32.7693
G01 X32.1829 Y32.8488
G01 X32.1724 Y32.8619
G01 X32.1089 Y32.9330
G01 X32.0970 Y32.9449
G01 X32.0259 Y33.0084
G01 X32.0128 Y33.0189
G01 X31.9350 Y33.0740
G01 X31.9208 Y33.0830
G01 X31.8374 Y33.1291
G01 X31.8230 Y33.1361
G01 X31.7341 Y33.1729
G01 X31.7183 Y33.1784
G01 X31.6267 Y33.2048
G01 X31.6136 Y33.2080
G01 X31.5163 Y33.2245
G01 X31.4996 Y33.2264
G01 X31.3960 Y33.2320
G01 X31.2924 Y33.2264
G01 X31.2757 Y33.2245
G01 X31.1817 Y33.2086
G01 X31.1653 Y33.2048
G01 X31.0737 Y33.1784
G01 X31.0579 Y33.1729
G01 X30.9698 Y33.1364
G01 X30.9546 Y33.1291
G01 X30.8712 Y33.0830
G01 X30.8587 Y33.0752
G01 X30.7792 Y33.0189
G01 X30.7661 Y33.0084
G01 X30.6950 Y32.9449
G01 X30.6831 Y32.9330
G01 X30.6196 Y32.8619
G01 X30.6091 Y32.8488
G01 X30.5540 Y32.7710
G01 X30.5450 Y32.7568
G01 X30.4989 Y32.6734
G01 X30.4919 Y32.6590
G01 X30.4551 Y32.5701
G01 X30.4496 Y32.5543
G01 X30.4232 Y32.4627
G01 X30.4194 Y32.4463
G01 X30.4035 Y32.3523
G01 X30.4019 Y32.3356
G00 Z0.5000
G00 X32.9419 Y32.3356
G01 F76.20
G01 Z-0.2000
G01 F76.20
G01 X32.9362 Y32.2404
G01 X32.9362 Y32.2236
G01 X32.9416 Y32.1284
G01 X32.9435 Y32.1117
G01 X32.9594 Y32.0177
G01 X32.9632 Y32.0013
G01 X32.9896 Y31.9097
G01 X32.9951 Y31.8939
G01 X33.0316 Y31.8058
G01 X33.0389 Y31.7906
G01 X33.0850 Y31.7072
G01 X33.0928 Y31.6947
G01 X33.1491 Y31.6152
G01 X33.1596 Y31.6021
G01 X33.2231 Y31.5310
G01 X33.2350 Y31.5191
G01 X33.3061 Y31.4556
G01 X33.3192 Y31.4451
G01 X33.3970 Y31.3900
G01 X33.4112 Y31.3810
G01 X33.4946 Y31.3349
G01 X33.5090 Y31.3279
G01 X33.5979 Y31.2911
G01 X33.6137 Y31.2856
G01 X33.7053 Y31.2592
G01 X33.7217 Y31.2554
G01 X33.8157 Y31.2395
G01 X33.8324 Y31.2376
G01 X33.9276 Y31.2322
G01 X33.9444 Y31.2322
G01 X34.0396 Y31.2376
G01 X34.0563 Y31.2395
G01 X34.1503 Y31.2554
G01 X34.1667 Y31.2592
G01 X34.2583 Y31.2856
G01 X34.2741 Y31.2911
G01 X34.3622 Y31.3276
G01 X34.3774 Y31.3349
G01 X34.4608 Y31.3810
G01 X34.4733 Y31.3888
G01 X34.5528 Y31.4451
G01 X34.5659 Y31.4556
G01 X34.6370 Y31.5191
G01 X34.6489 Y31.5310
G01 X34.7124 Y31.6021
G01 X34.7229 Y31.6152
G01 X34.7780 Y31.6930
G01 X34.7870 Y31.7072
G01 X34.8331 Y31.7906
G01 X34.8401 Y31.8050
G01 X34.8769 Y31.8939
G01 X34.8824 Y31.9097
G01 X34.9088 Y32.0013
G01 X34.9120 Y32.0144
G01 X34.9285 Y32.1117
G01 X34.9304 Y32.1284
G01 X34.9360 Y32.2320
G01 X34.9304 Y32.3356
G01 X34.9285 Y32.3523
G01 X34.9126 Y32.4463
G01 X34.9088 Y32.4627
G01 X34.8824 Y32.5543
G01 X34.8769 Y32.5701
G01 X34.8404 Y32.6582
G01 X34.8331 Y32.6734
G01 X34.7870 Y32.7568
G01 X34.7792 Y32.7693
G01 X34.7229 Y32.8488
G01 X34.7124 Y32.8619
G01 X34.6489 Y32.9330
G01 X34.6370 Y32.9449
G01 X34.5659 Y33.0084
G01 X34.5528 Y33.0189
G01 X34.4862 Y33.0661
G01 X34.4862 Y34.5441
G01 X34.6719 Y34.7298
G01 X36.9924 Y34.7300
G01 X37.0372 Y34.7326
G01 X37.0539 Y34.7344
G01 X37.0982 Y34.7420
G01 X37.1146 Y34.7457
G01 X37.1577 Y34.7581
G01 X37.1736 Y34.7637
G01 X37.2150 Y34.7809
G01 X37.2302 Y34.7881
G01 X37.2695 Y34.8099
G01 X37.2820 Y34.8176
G01 X37.3203 Y34.8448
G01 X37.3335 Y34.8553
G01 X37.3731 Y34.8909
G01 X40.4211 Y37.9389
G01 X40.4567 Y37.9785
G01 X40.4672 Y37.9917
G01 X40.4932 Y38.0283
G01 X40.5021 Y38.0425
G01 X40.5239 Y38.0818
G01 X40.5308 Y38.0962
G01 X40.5483 Y38.1384
G01 X40.5539 Y38.1543
G01 X40.5694 Y38.2105
G01 X40.5776 Y38.2581
G01 X40.5794 Y38.2748
G01 X40.5822 Y38.3280
G01 X40.5822 Y40.1739
G01 X40.5794 Y40.2271
G01 X40.5776 Y40.2439
G01 X40.5700 Y40.2881
G01 X40.5663 Y40.3045
G01 X40.5539 Y40.3476
G01 X40.5483 Y40.3635
G01 X40.5311 Y40.4050
G01 X40.5239 Y40.4201
G01 X40.5021 Y40.4594
G01 X40.4944 Y40.4719
G01 X40.4672 Y40.5102
G01 X40.4567 Y40.5234
G01 X40.4211 Y40.5630
G01 X38.5502 Y42.4338
G01 X38.5502 Y42.5739
G01 X38.6168 Y42.6211
G01 X38.6299 Y42.6316
G01 X38.7010 Y42.6951
G01 X38.7129 Y42.7070
G01 X38.7764 Y42.7781
G01 X38.7869 Y42.7912
G01 X38.8420 Y42.8690
G01 X38.8510 Y42.8832
G01 X38.8971 Y42.9666
G01 X38.9041 Y42.9810
G01 X38.9409 Y43.0699
G01 X38.9464 Y43.0857
G01 X38.9728 Y43.1773
G01 X38.9760 Y43.1904
G01 X38.9925 Y43.2877
G01 X38.9944 Y43.3044
G01 X39.0000 Y43.4080
G01 X38.9944 Y43.5116
G01 X38.9925 Y43.5283
G01 X38.9766 Y43.6223
G01 X38.9728 Y43.6387
G01 X38.9464 Y43.7303
G01 X38.9409 Y43.7461
G01 X38.9044 Y43.8342
G01 X38.8971 Y43.8494
G01 X38.8510 Y43.9328
G01 X38.8420 Y43.9470
G01 X38.7869 Y44.0248
G01 X38.7764 Y44.0379
G01 X38.7129 Y44.1090
G01 X38.7010 Y44.1209
G01 X38.6299 Y44.1844
G01 X38.6168 Y44.1949
G01 X38.5390 Y44.2500
G01 X38.5248 Y44.2590
G01 X38.4414 Y44.3051
G01 X38.4270 Y44.3121
G01 X38.3381 Y44.3489
G01 X38.3223 Y44.3544
G01 X38.2307 Y44.3808
G01 X38.2143 Y44.3846
G01 X38.1203 Y44.4005
G01 X38.1036 Y44.4024
G01 X38.0084 Y44.4078
G01 X37.9916 Y44.4078
G01 X37.8964 Y44.4024
G01 X37.8797 Y44.4005
G01 X37.7857 Y44.3846
G01 X37.7693 Y44.3808
G01 X37.6777 Y44.3544
G01 X37.6619 Y44.3489
G01 X37.5738 Y44.3124
G01 X37.5586 Y44.3051
G01 X37.4752 Y44.2590
G01 X37.4627 Y44.2512
G01 X37.3832 Y44.1949
G01 X37.3701 Y44.1844
G01 X37.2990 Y44.1209
G01 X37.2871 Y44.1090
G01 X37.2236 Y44.0379
G01 X37.2131 Y44.0248
G01 X37.1580 Y43.9470
G01 X37.1490 Y43.9328
G01 X37.1029 Y43.8494
G01 X37.0959 Y43.8350
G01 X37.0591 Y43.7461
G01 X37.0536 Y43.7303
G01 X37.0272 Y43.6387
G01 X37.0240 Y43.6256
G01 X37.0075 Y43.5283
G01 X37.0056 Y43.5116
G01 X37.0002 Y43.4164
G01 X37.0002 Y43.3996
G01 X37.0056 Y43.3044
G01 X37.0075 Y43.2877
G01 X37.0234 Y43.1937
G01 X37.0272 Y43.1773
G01 X37.0536 Y43.0857
G01 X37.0591 Y43.0699
G01 X37.0956 Y42.9818
G01 X37.1029 Y42.9666
G01 X37.1490 Y42.8832
G01 X37.1568 Y42.8707
G01 X37.2131 Y42.7912
G01 X37.2236 Y42.7781
G01 X37.2871 Y42.7070
G01 X37.2990 Y42.6951
G01 X37.3701 Y42.6316
G01 X37.3832 Y42.6211
G01 X37.4498 Y42.5739
G01 X37.4498 Y42.2059
G01 X37.4526 Y42.1527
G01 X37.4544 Y42.1360
G01 X37.4620 Y42.0917
G01 X37.4657 Y42.0753
G01 X37.4781 Y42.0322
G01 X37.4837 Y42.0163
G01 X37.5009 Y41.9749
G01 X37.5081 Y41.9597
G01 X37.5299 Y41.9204
G01 X37.5376 Y41.9079
G01 X37.5648 Y41.8696
G01 X37.5753 Y41.8564
G01 X37.6109 Y41.8169
G01 X39.4818 Y39.9460
G01 X39.4818 Y38.5559
G01 X36.7561 Y35.8302
G01 X34.4440 Y35.8302
G01 X34.3908 Y35.8274
G01 X34.3741 Y35.8256
G01 X34.3298 Y35.8180
G01 X34.3134 Y35.8143
G01 X34.2703 Y35.8019
G01 X34.2544 Y35.7963
G01 X34.2130 Y35.7791
G01 X34.1978 Y35.7719
G01 X34.1585 Y35.7501
G01 X34.1460 Y35.7424
G01 X34.1077 Y35.7152
G01 X34.0945 Y35.7047
G01 X34.0549 Y35.6691
G01 X33.5469 Y35.1611
G01 X33.5113 Y35.1215
G01 X33.5008 Y35.1083
G01 X33.4748 Y35.0717
G01 X33.4659 Y35.0575
G01 X33.4441 Y35.0182
G01 X33.4372 Y35.0038
G01 X33.4197 Y34.9616
G01 X33.4141 Y34.9457
G01 X33.3986 Y34.8895
G01 X33.3904 Y34.8419
G01 X33.3886 Y34.8252
G01 X33.3858 Y34.7720
G01 X33.3858 Y33.0661
G01 X33.3192 Y33.0189
G01 X33.3061 Y33.0084
G01 X33.2350 Y32.9449
G01 X33.2231 Y32.9330
G01 X33.1596 Y32.8619
G01 X33.1491 Y32.8488
G01 X33.0940 Y32.7710
G01 X33.0850 Y32.7568
G01 X33.0389 Y32.6734
G01 X33.0319 Y32.6590
G01 X32.9951 Y32.5701
G01 X32.9896 Y32.5543
G01 X32.9632 Y32.4627
G01 X32.9600 Y32.4496
G01 X32.9435 Y32.3523
G01 X32.9419 Y32.3356
G00 Z0.5000
G00 X32.9419 Y29.7956
G01 F76.20
G01 Z-0.2000
G01 F76.20
G01 X32.9360 Y29.6920
G01 X32.9416 Y29.5884
G01 X32.9435 Y29.5717
G01 X32.9594 Y29.4777
G01 X32.9632 Y29.4613
G01 X32.9896 Y29.3697
G01 X32.9951 Y29.3539
G01 X33.0316 Y29.2658
G01 X33.0389 Y29.2506
G01 X33.0850 Y29.1672
G01 X33.0928 Y29.1547
G01 X33.1491 Y29.0752
G01 X33.1596 Y29.0621
G01 X33.2231 Y28.9910
G01 X33.2350 Y28.9791
G01 X33.3061 Y28.9156
G01 X33.3192 Y28.9051
G01 X33.3970 Y28.8500
G01 X33.4112 Y28.8410
G01 X33.4946 Y28.7949
G01 X33.5090 Y28.7879
G01 X33.5979 Y28.7511
G01 X33.6137 Y28.7456
G01 X33.7053 Y28.7192
G01 X33.7184 Y28.7160
G01 X33.8157 Y28.6995
G01 X33.8324 Y28.6976
G01 X33.9360 Y28.6920
G01 X34.0396 Y28.6976
G01 X34.0563 Y28.6995
G01 X34.1503 Y28.7154
G01 X34.1667 Y28.7192
G01 X34.2583 Y28.7456
G01 X34.2741 Y28.7511
G01 X34.3622 Y28.7876
G01 X34.3774 Y28.7949
G01 X34.4608 Y28.8410
G01 X34.4733 Y28.8488
G01 X34.5528 Y28.9051
G01 X34.5659 Y28.9156
G01 X34.6370 Y28.9791
G01 X34.6489 Y28.9910
G01 X34.7124 Y29.0621
G01 X34.7229 Y29.0752
G01 X34.7780 Y29.1530
G01 X34.7870 Y29.1672
G01 X34.8331 Y29.2506
G01 X34.8401 Y29.2650
G01 X34.8769 Y29.3539
G01 X34.8824 Y29.3697
G01 X34.9088 Y29.4613
G01 X34.9120 Y29.4744
G01 X34.9285 Y29.5717
G01 X34.9304 Y29.5884
G01 X34.9360 Y29.6920
G01 X34.9304 Y29.7956
G01 X34.9285 Y29.8123
G01 X34.9126 Y29.9063
G01 X34.9088 Y29.9227
G01 X34.8824 Y30.0143
G01 X34.8769 Y30.0301
G01 X34.8404 Y30.1182
G01 X34.8331 Y30.1334
G01 X34.7870 Y30.2168
G01 X34.7792 Y30.2293
G01 X34.7229 Y30.3088
G01 X34.7124 Y30.3219
G01 X34.6489 Y30.3930
G01 X34.6370 Y30.4049
G01 X34.5659 Y30.4684
G01 X34.5528 Y30.4789
G01 X34.4750 Y30.5340
G01 X34.4608 Y30.5430
G01 X34.3774 Y30.5891
G01 X34.3630 Y30.5961
G01 X34.2741 Y30.6329
G01 X34.2583 Y30.6384
G01 X34.1667 Y30.6648
G01 X34.1536 Y30.6680
G01 X34.0563 Y30.6845
G01 X34.0396 Y30.6864
G01 X33.9360 Y30.6920
G01 X33.8324 Y30.6864
G01 X33.8157 Y30.6845
G01 X33.7217 Y30.6686
G01 X33.7053 Y30.6648
G01 X33.6137 Y30.6384
G01 X33.5979 Y30.6329
G01 X33.5098 Y30.5964
G01 X33.4946 Y30.5891
G01 X33.4112 Y30.5430
G01 X33.3987 Y30.5352
G01 X33.3192 Y30.4789
G01 X33.3061 Y30.4684
G01 X33.2350 Y30.4049
G01 X33.2231 Y30.3930
G01 X33.1596 Y30.3219
G01 X33.1491 Y30.3088
G01 X33.0940 Y30.2310
G01 X33.0850 Y30.2168
G01 X33.0389 Y30.1334
G01 X33.0319 Y30.1190
G01 X32.9951 Y30.0301
G01 X32.9896 Y30.0143
G01 X32.9632 Y29.9227
G01 X32.9594 Y29.9063
G01 X32.9435 Y29.8123
G01 X32.9419 Y29.7956
G00 Z0.5000
G00 X35.4819 Y29.7956
G01 F76.20
G01 Z-0.2000
G01 F76.20
G01 X35.4760 Y29.6920
G01 X35.4816 Y29.5884
G01 X35.4835 Y29.5717
G01 X35.4994 Y29.4777
G01 X35.5032 Y29.4613
G01 X35.5296 Y29.3697
G01 X35.5351 Y29.3539
G01 X35.5716 Y29.2658
G01 X35.5789 Y29.2506
G01 X35.6250 Y29.1672
G01 X35.6328 Y29.1547
G01 X35.6891 Y29.0752
G01 X35.6996 Y29.0621
G01 X35.7631 Y28.9910
G01 X35.7750 Y28.9791
G01 X35.8461 Y28.9156
G01 X35.8592 Y28.9051
G01 X35.9370 Y28.8500
G01 X35.9512 Y28.8410
G01 X36.0346 Y28.7949
G01 X36.0490 Y28.7879
G01 X36.1379 Y28.7511
G01 X36.1537 Y28.7456
G01 X36.2453 Y28.7192
G01 X36.2584 Y28.7160
G01 X36.3557 Y28.6995
G01 X36.3724 Y28.6976
G01 X36.4760 Y28.6920
G01 X36.5796 Y28.6976
G01 X36.5963 Y28.6995
G01 X36.6903 Y28.7154
G01 X36.7067 Y28.7192
G01 X36.7983 Y28.7456
G01 X36.8141 Y28.7511
G01 X36.9022 Y28.7876
G01 X36.9174 Y28.7949
G01 X37.0008 Y28.8410
G01 X37.0133 Y28.8488
G01 X37.0928 Y28.9051
G01 X37.1059 Y28.9156
G01 X37.1770 Y28.9791
G01 X37.1889 Y28.9910
G01 X37.2524 Y29.0621
G01 X37.2629 Y29.0752
G01 X37.3180 Y29.1530
G01 X37.3270 Y29.1672
G01 X37.3731 Y29.2506
G01 X37.3801 Y29.2650
G01 X37.4169 Y29.3539
G01 X37.4224 Y29.3697
G01 X37.4488 Y29.4613
G01 X37.4520 Y29.4744
G01 X37.4685 Y29.5717
G01 X37.4704 Y29.5884
G01 X37.4760 Y29.6920
G01 X37.4704 Y29.7956
G01 X37.4685 Y29.8123
G01 X37.4526 Y29.9063
G01 X37.4488 Y29.9227
G01 X37.4224 Y30.0143
G01 X37.4169 Y30.0301
G01 X37.3804 Y30.1182
G01 X37.3731 Y30.1334
G01 X37.3270 Y30.2168
G01 X37.3192 Y30.2293
G01 X37.2629 Y30.3088
G01 X37.2524 Y30.3219
G01 X37.1889 Y30.3930
G01 X37.1770 Y30.4049
G01 X37.1059 Y30.4684
G01 X37.0928 Y30.4789
G01 X37.0150 Y30.5340
G01 X37.0008 Y30.5430
G01 X36.9174 Y30.5891
G01 X36.9030 Y30.5961
G01 X36.8141 Y30.6329
G01 X36.7983 Y30.6384
G01 X36.7067 Y30.6648
G01 X36.6936 Y30.6680
G01 X36.5963 Y30.6845
G01 X36.5796 Y30.6864
G01 X36.4760 Y30.6920
G01 X36.3724 Y30.6864
G01 X36.3557 Y30.6845
G01 X36.2617 Y30.6686
G01 X36.2453 Y30.6648
G01 X36.1537 Y30.6384
G01 X36.1379 Y30.6329
G01 X36.0498 Y30.5964
G01 X36.0346 Y30.5891
G01 X35.9512 Y30.5430
G01 X35.9387 Y30.5352
G01 X35.8592 Y30.4789
G01 X35.8461 Y30.4684
G01 X35.7750 Y30.4049
G01 X35.7631 Y30.3930
G01 X35.6996 Y30.3219
G01 X35.6891 Y30.3088
G01 X35.6340 Y30.2310
G01 X35.6250 Y30.2168
G01 X35.5789 Y30.1334
G01 X35.5719 Y30.1190
G01 X35.5351 Y30.0301
G01 X35.5296 Y30.0143
G01 X35.5032 Y29.9227
G01 X35.4994 Y29.9063
G01 X35.4835 Y29.8123
G01 X35.4819 Y29.7956
G00 Z0.5000
G00 X35.4819 Y32.3356
G01 F76.20
G01 Z-0.2000
G01 F76.20
G01 X35.4760 Y32.2320
G01 X35.4816 Y32.1284
G01 X35.4835 Y32.1117
G01 X35.4994 Y32.0177
G01 X35.5032 Y32.0013
G01 X35.5296 Y31.9097
G01 X35.5351 Y31.8939
G01 X35.5716 Y31.8058
G01 X35.5789 Y31.7906
G01 X35.6250 Y31.7072
G01 X35.6328 Y31.6947
G01 X35.6891 Y31.6152
G01 X35.6996 Y31.6021
G01 X35.7631 Y31.5310
G01 X35.7750 Y31.5191
G01 X35.8461 Y31.4556
G01 X35.8592 Y31.4451
G01 X35.9370 Y31.3900
G01 X35.9512 Y31.3810
G01 X36.0346 Y31.3349
G01 X36.0490 Y31.3279
G01 X36.1379 Y31.2911
G01 X36.1537 Y31.2856
G01 X36.2453 Y31.2592
G01 X36.2584 Y31.2560
G01 X36.3557 Y31.2395
G01 X36.3724 Y31.2376
G01 X36.4760 Y31.2320
G01 X36.5796 Y31.2376
G01 X36.5963 Y31.2395
G01 X36.6903 Y31.2554
G01 X36.7067 Y31.2592
G01 X36.7983 Y31.2856
G01 X36.8141 Y31.2911
G01 X36.9022 Y31.3276
G01 X36.9174 Y31.3349
G01 X37.0008 Y31.3810
G01 X37.0133 Y31.3888
G01 X37.0928 Y31.4451
G01 X37.1059 Y31.4556
G01 X37.1770 Y31.5191
G01 X37.1889 Y31.5310
G01 X37.2524 Y31.6021
G01 X37.2629 Y31.6152
G01 X37.3180 Y31.6930
G01 X37.3270 Y31.7072
G01 X37.3731 Y31.7906
G01 X37.3801 Y31.8050
G01 X37.4169 Y31.8939
G01 X37.4224 Y31.9097
G01 X37.4488 Y32.0013
G01 X37.4520 Y32.0144
G01 X37.4685 Y32.1117
G01 X37.4704 Y32.1284
G01 X37.4760 Y32.2320
G01 X37.4704 Y32.3356
G01 X37.4685 Y32.3523
G01 X37.4526 Y32.4463
G01 X37.4488 Y32.4627
G01 X37.4224 Y32.5543
G01 X37.4169 Y32.5701
G01 X37.3804 Y32.6582
G01 X37.3731 Y32.6734
G01 X37.3270 Y32.7568
G01 X37.3192 Y32.7693
G01 X37.2629 Y32.8488
G01 X37.2524 Y32.8619
G01 X37.1889 Y32.9330
G01 X37.1770 Y32.9449
G01 X37.1059 Y33.0084
G01 X37.0928 Y33.0189
G01 X37.0150 Y33.0740
G01 X37.0008 Y33.0830
G01 X36.9174 Y33.1291
G01 X36.9030 Y33.1361
G01 X36.8141 Y33.1729
G01 X36.7983 Y33.1784
G01 X36.7067 Y33.2048
G01 X36.6936 Y33.2080
G01 X36.5963 Y33.2245
G01 X36.5796 Y33.2264
G01 X36.4760 Y33.2320
G01 X36.3724 Y33.2264
G01 X36.3557 Y33.2245
G01 X36.2617 Y33.2086
G01 X36.2453 Y33.2048
G01 X36.1537 Y33.1784
G01 X36.1379 Y33.1729
G01 X36.0498 Y33.1364
G01 X36.0346 Y33.1291
G01 X35.9512 Y33.0830
G01 X35.9387 Y33.0752
G01 X35.8592 Y33.0189
G01 X35.8461 Y33.0084
G01 X35.7750 Y32.9449
G01 X35.7631 Y32.9330
G01 X35.6996 Y32.8619
G01 X35.6891 Y32.8488
G01 X35.6340 Y32.7710
G01 X35.6250 Y32.7568
G01 X35.5789 Y32.6734
G01 X35.5719 Y32.6590
G01 X35.5351 Y32.5701
G01 X35.5296 Y32.5543
G01 X35.5032 Y32.4627
G01 X35.4994 Y32.4463
G01 X35.4835 Y32.3523
G01 X35.4819 Y32.3356
G00 Z0.5000
G00 X38.0219 Y32.3356
G01 F76.20
G01 Z-0.2000
G01 F76.20
G01 X38.0160 Y32.2320
G01 X38.0216 Y32.1284
G01 X38.0235 Y32.1117
G01 X38.0394 Y32.0177
G01 X38.0432 Y32.0013
G01 X38.0696 Y31.9097
G01 X38.0751 Y31.8939
G01 X38.1116 Y31.8058
G01 X38.1189 Y31.7906
G01 X38.1650 Y31.7072
G01 X38.1728 Y31.6947
G01 X38.2291 Y31.6152
G01 X38.2396 Y31.6021
G01 X38.3031 Y31.5310
G01 X38.3150 Y31.5191
G01 X38.3861 Y31.4556
G01 X38.3992 Y31.4451
G01 X38.4770 Y31.3900
G01 X38.4912 Y31.3810
G01 X38.5746 Y31.3349
G01 X38.5890 Y31.3279
G01 X38.6779 Y31.2911
G01 X38.6937 Y31.2856
G01 X38.7853 Y31.2592
G01 X38.7984 Y31.2560
G01 X38.8957 Y31.2395
G01 X38.9124 Y31.2376
G01 X39.0160 Y31.2320
G01 X39.1196 Y31.2376
G01 X39.1363 Y31.2395
G01 X39.2303 Y31.2554
G01 X39.2467 Y31.2592
G01 X39.3383 Y31.2856
G01 X39.3541 Y31.2911
G01 X39.4422 Y31.3276
G01 X39.4574 Y31.3349
G01 X39.5408 Y31.3810
G01 X39.5533 Y31.3888
G01 X39.6328 Y31.4451
G01 X39.6459 Y31.4556
G01 X39.7170 Y31.5191
G01 X39.7289 Y31.5310
G01 X39.7924 Y31.6021
G01 X39.8029 Y31.6152
G01 X39.8580 Y31.6930
G01 X39.8670 Y31.7072
G01 X39.9131 Y31.7906
G01 X39.9201 Y31.8050
G01 X39.9569 Y31.8939
G01 X39.9624 Y31.9097
G01 X39.9888 Y32.0013
G01 X39.9920 Y32.0144
G01 X40.0085 Y32.1117
G01 X40.0104 Y32.1284
G01 X40.0160 Y32.2320
G01 X40.0104 Y32.3356
G01 X40.0085 Y32.3523
G01 X39.9926 Y32.4463
G01 X39.9888 Y32.4627
G01 X39.9624 Y32.5543
G01 X39.9569 Y32.5701
G01 X39.9204 Y32.6582
G01 X39.9131 Y32.6734
G01 X39.8670 Y32.7568
G01 X39.8592 Y32.7693
G01 X39.8029 Y32.8488
G01 X39.7924 Y32.8619
G01 X39.7289 Y32.9330
G01 X39.7170 Y32.9449
G01 X39.6459 Y33.0084
G01 X39.6328 Y33.0189
G01 X39.5550 Y33.0740
G01 X39.5408 Y33.0830
G01 X39.4574 Y33.1291
G01 X39.4430 Y33.1361
G01 X39.3541 Y33.1729
G01 X39.3383 Y33.1784
G01 X39.2467 Y33.2048
G01 X39.2336 Y33.2080
G01 X39.1363 Y33.2245
G01 X39.1196 Y33.2264
G01 X39.0160 Y33.2320
G01 X38.9124 Y33.2264
G01 X38.8957 Y33.2245
G01 X38.8017 Y33.2086
G01 X38.7853 Y33.2048
G01 X38.6937 Y33.1784
G01 X38.6779 Y33.1729
G01 X38.5898 Y33.1364
G01 X38.5746 Y33.1291
G01 X38.4912 Y33.0830
G01 X38.4787 Y33.0752
G01 X38.3992 Y33.0189
G01 X38.3861 Y33.0084
G01 X38.3150 Y32.9449
G01 X38.3031 Y32.9330
G01 X38.2396 Y32.8619
G01 X38.2291 Y32.8488
G01 X38.1740 Y32.7710
G01 X38.1650 Y32.7568
G01 X38.1189 Y32.6734
G01 X38.1119 Y32.6590
G01 X38.0751 Y32.5701
G01 X38.0696 Y32.5543
G01 X38.0432 Y32.4627
G01 X38.0394 Y32.4463
G01 X38.0235 Y32.3523
G01 X38.0219 Y32.3356
G00 Z0.5000
G00 X40.5619 Y32.3356
G01 F76.20
G01 Z-0.2000
G01 F76.20
G01 X40.5560 Y32.2320
G01 X40.5616 Y32.1284
G01 X40.5635 Y32.1117
G01 X40.5794 Y32.0177
G01 X40.5832 Y32.0013
G01 X40.6096 Y31.9097
G01 X40.6151 Y31.8939
G01 X40.6516 Y31.8058
G01 X40.6589 Y31.7906
G01 X40.7050 Y31.7072
G01 X40.7128 Y31.6947
G01 X40.7691 Y31.6152
G01 X40.7796 Y31.6021
G01 X40.8431 Y31.5310
G01 X40.8550 Y31.5191
G01 X40.9261 Y31.4556
G01 X40.9392 Y31.4451
G01 X41.0170 Y31.3900
G01 X41.0312 Y31.3810
G01 X41.1146 Y31.3349
G01 X41.1290 Y31.3279
G01 X41.2179 Y31.2911
G01 X41.2337 Y31.2856
G01 X41.3253 Y31.2592
G01 X41.3384 Y31.2560
G01 X41.4357 Y31.2395
G01 X41.4524 Y31.2376
G01 X41.5560 Y31.2320
G01 X41.6596 Y31.2376
G01 X41.6763 Y31.2395
G01 X41.7703 Y31.2554
G01 X41.7867 Y31.2592
G01 X41.8783 Y31.2856
G01 X41.8941 Y31.2911
G01 X41.9822 Y31.3276
G01 X41.9974 Y31.3349
G01 X42.0808 Y31.3810
G01 X42.0933 Y31.3888
G01 X42.1728 Y31.4451
G01 X42.1859 Y31.4556
G01 X42.2570 Y31.5191
G01 X42.2689 Y31.5310
G01 X42.3324 Y31.6021
G01 X42.3429 Y31.6152
G01 X42.3980 Y31.6930
G01 X42.4070 Y31.7072
G01 X42.4531 Y31.7906
G01 X42.4601 Y31.8050
G01 X42.4969 Y31.8939
G01 X42.5024 Y31.9097
G01 X42.5288 Y32.0013
G01 X42.5320 Y32.0144
G01 X42.5485 Y32.1117
G01 X42.5504 Y32.1284
G01 X42.5560 Y32.2320
G01 X42.5504 Y32.3356
G01 X42.5485 Y32.3523
G01 X42.5326 Y32.4463
G01 X42.5288 Y32.4627
G01 X42.5024 Y32.5543
G01 X42.4969 Y32.5701
G01 X42.4604 Y32.6582
G01 X42.4531 Y32.6734
G01 X42.4070 Y32.7568
G01 X42.3992 Y32.7693
G01 X42.3429 Y32.8488
G01 X42.3324 Y32.8619
G01 X42.2689 Y32.9330
G01 X42.2570 Y32.9449
G01 X42.1859 Y33.0084
G01 X42.1728 Y33.0189
G01 X42.0950 Y33.0740
G01 X42.0808 Y33.0830
G01 X41.9974 Y33.1291
G01 X41.9830 Y33.1361
G01 X41.8941 Y33.1729
G01 X41.8783 Y33.1784
G01 X41.7867 Y33.2048
G01 X41.7736 Y33.2080
G01 X41.6763 Y33.2245
G01 X41.6596 Y33.2264
G01 X41.5560 Y33.2320
G01 X41.4524 Y33.2264
G01 X41.4357 Y33.2245
G01 X41.3417 Y33.2086
G01 X41.3253 Y33.2048
G01 X41.2337 Y33.1784
G01 X41.2179 Y33.1729
G01 X41.1298 Y33.1364
G01 X41.1146 Y33.1291
G01 X41.0312 Y33.0830
G01 X41.0187 Y33.0752
G01 X40.9392 Y33.0189
G01 X40.9261 Y33.0084
G01 X40.8550 Y32.9449
G01 X40.8431 Y32.9330
G01 X40.7796 Y32.8619
G01 X40.7691 Y32.8488
G01 X40.7140 Y32.7710
G01 X40.7050 Y32.7568
G01 X40.6589 Y32.6734
G01 X40.6519 Y32.6590
G01 X40.6151 Y32.5701
G01 X40.6096 Y32.5543
G01 X40.5832 Y32.4627
G01 X40.5794 Y32.4463
G01 X40.5635 Y32.3523
G01 X40.5619 Y32.3356
G00 Z0.5000
G00 X43.1019 Y32.3356
G01 F76.20
G01 Z-0.2000
G01 F76.20
G01 X43.0960 Y32.2320
G01 X43.1016 Y32.1284
G01 X43.1035 Y32.1117
G01 X43.1194 Y32.0177
G01 X43.1232 Y32.0013
G01 X43.1496 Y31.9097
G01 X43.1551 Y31.8939
G01 X43.1916 Y31.8058
G01 X43.1989 Y31.7906
G01 X43.2450 Y31.7072
G01 X43.2528 Y31.6947
G01 X43.3091 Y31.6152
G01 X43.3196 Y31.6021
G01 X43.3831 Y31.5310
G01 X43.3950 Y31.5191
G01 X43.4661 Y31.4556
G01 X43.4792 Y31.4451
G01 X43.5570 Y31.3900
G01 X43.5712 Y31.3810
G01 X43.6546 Y31.3349
G01 X43.6690 Y31.3279
G01 X43.7579 Y31.2911
G01 X43.7737 Y31.2856
G01 X43.8653 Y31.2592
G01 X43.8784 Y31.2560
G01 X43.9757 Y31.2395
G01 X43.9924 Y31.2376
G01 X44.0960 Y31.2320
G01 X44.1996 Y31.2376
G01 X44.2163 Y31.2395
G01 X44.3103 Y31.2554
G01 X44.3267 Y31.2592
G01 X44.4183 Y31.2856
G01 X44.4341 Y31.2911
G01 X44.5222 Y31.3276
G01 X44.5374 Y31.3349
G01 X44.6208 Y31.3810
G01 X44.6333 Y31.3888
G01 X44.7128 Y31.4451
G01 X44.7259 Y31.4556
G01 X44.7970 Y31.5191
G01 X44.8089 Y31.5310
G01 X44.8724 Y31.6021
G01 X44.8829 Y31.6152
G01 X44.9380 Y31.6930
G01 X44.9470 Y31.7072
G01 X44.9931 Y31.7906
G01 X45.0001 Y31.8050
G01 X45.0369 Y31.8939
G01 X45.0424 Y31.9097
G01 X45.0688 Y32.0013
G01 X45.0720 Y32.0144
G01 X45.0885 Y32.1117
G01 X45.0904 Y32.1284
G01 X45.0960 Y32.2320
G01 X45.0904 Y32.3356
G01 X45.0885 Y32.3523
G01 X45.0726 Y32.4463
G01 X45.0688 Y32.4627
G01 X45.0424 Y32.5543
G01 X45.0369 Y32.5701
G01 X45.0004 Y32.6582
G01 X44.9931 Y32.6734
G01 X44.9470 Y32.7568
G01 X44.9392 Y32.7693
G01 X44.8829 Y32.8488
G01 X44.8724 Y32.8619
G01 X44.8089 Y32.9330
G01 X44.7970 Y32.9449
G01 X44.7259 Y33.0084
G01 X44.7128 Y33.0189
G01 X44.6350 Y33.0740
G01 X44.6208 Y33.0830
G01 X44.5374 Y33.1291
G01 X44.5230 Y33.1361
G01 X44.4341 Y33.1729
G01 X44.4183 Y33.1784
G01 X44.3267 Y33.2048
G01 X44.3136 Y33.2080
G01 X44.2163 Y33.2245
G01 X44.1996 Y33.2264
G01 X44.0960 Y33.2320
G01 X43.9924 Y33.2264
G01 X43.9757 Y33.2245
G01 X43.8817 Y33.2086
G01 X43.8653 Y33.2048
G01 X43.7737 Y33.1784
G01 X43.7579 Y33.1729
G01 X43.6698 Y33.1364
G01 X43.6546 Y33.1291
G01 X43.5712 Y33.0830
G01 X43.5587 Y33.0752
G01 X43.4792 Y33.0189
G01 X43.4661 Y33.0084
G01 X43.3950 Y32.9449
G01 X43.3831 Y32.9330
G01 X43.3196 Y32.8619
G01 X43.3091 Y32.8488
G01 X43.2540 Y32.7710
G01 X43.2450 Y32.7568
G01 X43.1989 Y32.6734
G01 X43.1919 Y32.6590
G01 X43.1551 Y32.5701
G01 X43.1496 Y32.5543
G01 X43.1232 Y32.4627
G01 X43.1194 Y32.4463
G01 X43.1035 Y32.3523
G01 X43.1019 Y32.3356
G00 Z0.5000
G00 X45.6419 Y32.3356
G01 F76.20
G01 Z-0.2000
G01 F76.20
G01 X45.6360 Y32.2320
G01 X45.6416 Y32.1284
G01 X45.6435 Y32.1117
G01 X45.6594 Y32.0177
G01 X45.6632 Y32.0013
G01 X45.6896 Y31.9097
G01 X45.6951 Y31.8939
G01 X45.7316 Y31.8058
G01 X45.7389 Y31.7906
G01 X45.7850 Y31.7072
G01 X45.7928 Y31.6947
G01 X45.8491 Y31.6152
G01 X45.8596 Y31.6021
G01 X45.9231 Y31.5310
G01 X45.9350 Y31.5191
G01 X46.0061 Y31.4556
G01 X46.0192 Y31.4451
G01 X46.0970 Y31.3900
G01 X46.1112 Y31.3810
G01 X46.1946 Y31.3349
G01 X46.2090 Y31.3279
G01 X46.2979 Y31.2911
G01 X46.3137 Y31.2856
G01 X46.4053 Y31.2592
G01 X46.4184 Y31.2560
G01 X46.5157 Y31.2395
G01 X46.5324 Y31.2376
G01 X46.6360 Y31.2320
G01 X46.7396 Y31.2376
G01 X46.7563 Y31.2395
G01 X46.8503 Y31.2554
G01 X46.8667 Y31.2592
G01 X46.9583 Y31.2856
G01 X46.9741 Y31.2911
G01 X47.0622 Y31.3276
G01 X47.0774 Y31.3349
G01 X47.1608 Y31.3810
G01 X47.1733 Y31.3888
G01 X47.2528 Y31.4451
G01 X47.2659 Y31.4556
G01 X47.3370 Y31.5191
G01 X47.3489 Y31.5310
G01 X47.4124 Y31.6021
G01 X47.4229 Y31.6152
G01 X47.4780 Y31.6930
G01 X47.4870 Y31.7072
G01 X47.5331 Y31.7906
G01 X47.5401 Y31.8050
G01 X47.5769 Y31.8939
G01 X47.5824 Y31.9097
G01 X47.6088 Y32.0013
G01 X47.6120 Y32.0144
G01 X47.6285 Y32.1117
G01 X47.6304 Y32.1284
G01 X47.6360 Y32.2320
G01 X47.6304 Y32.3356
G01 X47.6285 Y32.3523
G01 X47.6126 Y32.4463
G01 X47.6088 Y32.4627
G01 X47.5824 Y32.5543
G01 X47.5769 Y32.5701
G01 X47.5404 Y32.6582
G01 X47.5331 Y32.6734
G01 X47.4870 Y32.7568
G01 X47.4792 Y32.7693
G01 X47.4229 Y32.8488
G01 X47.4124 Y32.8619
G01 X47.3489 Y32.9330
G01 X47.3370 Y32.9449
G01 X47.2659 Y33.0084
G01 X47.2528 Y33.0189
G01 X47.1750 Y33.0740
G01 X47.1608 Y33.0830
G01 X47.0774 Y33.1291
G01 X47.0630 Y33.1361
G01 X46.9741 Y33.1729
G01 X46.9583 Y33.1784
G01 X46.8667 Y33.2048
G01 X46.8536 Y33.2080
G01 X46.7563 Y33.2245
G01 X46.7396 Y33.2264
G01 X46.6360 Y33.2320
G01 X46.5324 Y33.2264
G01 X46.5157 Y33.2245
G01 X46.4217 Y33.2086
G01 X46.4053 Y33.2048
G01 X46.3137 Y33.1784
G01 X46.2979 Y33.1729
G01 X46.2098 Y33.1364
G01 X46.1946 Y33.1291
G01 X46.1112 Y33.0830
G01 X46.0987 Y33.0752
G01 X46.0192 Y33.0189
G01 X46.0061 Y33.0084
G01 X45.9350 Y32.9449
G01 X45.9231 Y32.9330
G01 X45.8596 Y32.8619
G01 X45.8491 Y32.8488
G01 X45.7940 Y32.7710
G01 X45.7850 Y32.7568
G01 X45.7389 Y32.6734
G01 X45.7319 Y32.6590
G01 X45.6951 Y32.5701
G01 X45.6896 Y32.5543
G01 X45.6632 Y32.4627
G01 X45.6594 Y32.4463
G01 X45.6435 Y32.3523
G01 X45.6419 Y32.3356
G00 Z0.5000
G00 X45.6419 Y29.7956
G01 F76.20
G01 Z-0.2000
G01 F76.20
G01 X45.6360 Y29.6920
G01 X45.6416 Y29.5884
G01 X45.6435 Y29.5717
G01 X45.6594 Y29.4777
G01 X45.6632 Y29.4613
G01 X45.6896 Y29.3697
G01 X45.6951 Y29.3539
G01 X45.7316 Y29.2658
G01 X45.7389 Y29.2506
G01 X45.7850 Y29.1672
G01 X45.7928 Y29.1547
G01 X45.8491 Y29.0752
G01 X45.8596 Y29.0621
G01 X45.9231 Y28.9910
G01 X45.9350 Y28.9791
G01 X46.0061 Y28.9156
G01 X46.0192 Y28.9051
G01 X46.0970 Y28.8500
G01 X46.1112 Y28.8410
G01 X46.1946 Y28.7949
G01 X46.2090 Y28.7879
G01 X46.2979 Y28.7511
G01 X46.3137 Y28.7456
G01 X46.4053 Y28.7192
G01 X46.4184 Y28.7160
G01 X46.5157 Y28.6995
G01 X46.5324 Y28.6976
G01 X46.6360 Y28.6920
G01 X46.7396 Y28.6976
G01 X46.7563 Y28.6995
G01 X46.8503 Y28.7154
G01 X46.8667 Y28.7192
G01 X46.9583 Y28.7456
G01 X46.9741 Y28.7511
G01 X47.0622 Y28.7876
G01 X47.0774 Y28.7949
G01 X47.1608 Y28.8410
G01 X47.1733 Y28.8488
G01 X47.2528 Y28.9051
G01 X47.2659 Y28.9156
G01 X47.3370 Y28.9791
G01 X47.3489 Y28.9910
G01 X47.4124 Y29.0621
G01 X47.4229 Y29.0752
G01 X47.4780 Y29.1530
G01 X47.4870 Y29.1672
G01 X47.5331 Y29.2506
G01 X47.5401 Y29.2650
G01 X47.5769 Y29.3539
G01 X47.5824 Y29.3697
G01 X47.6088 Y29.4613
G01 X47.6120 Y29.4744
G01 X47.6285 Y29.5717
G01 X47.6304 Y29.5884
G01 X47.6360 Y29.6920
G01 X47.6304 Y29.7956
G01 X47.6285 Y29.8123
G01 X47.6126 Y29.9063
G01 X47.6088 Y29.9227
G01 X47.5824 Y30.0143
G01 X47.5769 Y30.0301
G01 X47.5404 Y30.1182
G01 X47.5331 Y30.1334
G01 X47.4870 Y30.2168
G01 X47.4792 Y30.2293
G01 X47.4229 Y30.3088
G01 X47.4124 Y30.3219
G01 X47.3489 Y30.3930
G01 X47.3370 Y30.4049
G01 X47.2659 Y30.4684
G01 X47.2528 Y30.4789
G01 X47.1750 Y30.5340
G01 X47.1608 Y30.5430
G01 X47.0774 Y30.5891
G01 X47.0630 Y30.5961
